/* XPM */
static char *wall_1[] = {
/* columns rows colors chars-per-pixel */
"64 64 1982 2",
/* colors */
"aa c #143020",
"ab c #0e281b",
"ac c #092016",
"ad c #122b1e",
"ae c #113222",
"af c #072517",
"ag c #133624",
"ah c #0a2317",
"ai c #173927",
"aj c #0a2418",
"ak c #0c2215",
"al c #092317",
"am c #082015",
"an c #081f16",
"ao c #123123",
"ap c #0d2819",
"aq c #072316",
"ar c #0f2d20",
"as c #0f2f1f",
"at c #112e20",
"au c #0b271c",
"av c #0c2519",
"aw c #0c231a",
"ax c #0f2819",
"ay c #0a2217",
"az c #04170f",
"aA c #0e261b",
"aB c #0f2c1e",
"aC c #041a10",
"aD c #092216",
"aE c #091f15",
"aF c #072218",
"aG c #051911",
"aH c #153322",
"aI c #0a251a",
"aJ c #153525",
"aK c #163928",
"aL c #173425",
"aM c #0f2e22",
"aN c #0e2d1d",
"aO c #0d291b",
"aP c #041a11",
"aQ c #01120c",
"aR c #071f15",
"aS c #05190f",
"aT c #03150d",
"aU c #0c2117",
"aV c #02150c",
"aW c #051910",
"aX c #081e15",
"aY c #061811",
"aZ c #0d2419",
"a0 c #04140d",
"a1 c #02130c",
"a2 c #081c13",
"a3 c #031811",
"a4 c #02170f",
"a5 c #02140d",
"a6 c #01140e",
"a7 c #04110b",
"a8 c #041610",
"a9 c #091b13",
"a! c #12291e",
"a@ c #081912",
"a# c #0e2118",
"a$ c #163526",
"a% c #0b1f15",
"a^ c #183525",
"a& c #0e2519",
"a* c #122f21",
"a( c #0e2a1d",
"a) c #0f2b1e",
"a- c #082016",
"a+ c #122e22",
"a= c #0a2116",
"a[ c #06170f",
"a] c #0b1d15",
"a{ c #0a1f14",
"a} c #0b2017",
"a| c #10281c",
"a; c #0a1e13",
"a: c #0a1f16",
"a, c #0e2318",
"a. c #081d15",
"a< c #0c2518",
"a> c #092318",
"a? c #0d2319",
"a~ c #0a2017",
"a_ c #102b1d",
"ba c #0d2217",
"bb c #081c14",
"bc c #0c1e16",
"bd c #0d261b",
"be c #0b241a",
"bf c #0b2118",
"bg c #0c2319",
"bh c #0e2419",
"bi c #0d261a",
"bj c #0e2f20",
"bk c #082116",
"bl c #0f2b1f",
"bm c #091f16",
"bn c #0b2218",
"bo c #071b13",
"bp c #051810",
"bq c #081d12",
"br c #051710",
"bs c #020f0b",
"bt c #081d13",
"bu c #061b13",
"bv c #05160f",
"bw c #061710",
"bx c #02110c",
"by c #051811",
"bz c #061f15",
"bA c #092518",
"bB c #082217",
"bC c #061a11",
"bD c #0a2519",
"bE c #061d13",
"bF c #071f14",
"bG c #061c13",
"bH c #061e14",
"bI c #031910",
"bJ c #041c12",
"bK c #0b261a",
"bL c #041810",
"bM c #0d281b",
"bN c #091e16",
"bO c #041d14",
"bP c #051c12",
"bQ c #041910",
"bR c #092118",
"bS c #082215",
"bT c #081b12",
"bU c #061810",
"bV c #051b13",
"bW c #092015",
"bX c #041911",
"bY c #0c2218",
"bZ c #031810",
"b0 c #082115",
"b1 c #071e15",
"b2 c #082117",
"b3 c #061a12",
"b4 c #091e13",
"b5 c #081d14",
"b6 c #071912",
"b7 c #051b11",
"b8 c #041b12",
"b9 c #031a12",
"b! c #02150e",
"b@ c #071d15",
"b# c #051a12",
"b$ c #03170f",
"b% c #051912",
"b^ c #071c13",
"b& c #03140e",
"b* c #03190f",
"b( c #0b2419",
"b) c #081c15",
"b- c #041710",
"b+ c #071d13",
"b= c #000300",
"b[ c #000602",
"b] c #000703",
"b{ c #010503",
"b} c #000402",
"b| c #000502",
"b; c #000503",
"b: c #000603",
"b, c #000302",
"b. c #000301",
"b< c #000101",
"b> c #000401",
"b? c #000403",
"b~ c #000400",
"b_ c #000702",
"ca c #000200",
"cb c #000904",
"cc c #000100",
"cd c #010402",
"ce c #000201",
"cf c #010501",
"cg c #010703",
"ch c #000501",
"ci c #010502",
"cj c #000500",
"ck c #010201",
"cl c #000601",
"cm c #000d08",
"cn c #000b07",
"co c #03130d",
"cp c #010d09",
"cq c #010e0a",
"cr c #01170f",
"cs c #000b08",
"ct c #000b06",
"cu c #010e09",
"cv c #01120d",
"cw c #000c08",
"cx c #021610",
"cy c #00100b",
"cz c #020d09",
"cA c #010f0a",
"cB c #000a06",
"cC c #00120d",
"cD c #000c07",
"cE c #021b12",
"cF c #01100c",
"cG c #000705",
"cH c #000f0a",
"cI c #021912",
"cJ c #000905",
"cK c #000f09",
"cL c #010c08",
"cM c #000a05",
"cN c #000907",
"cO c #010b08",
"cP c #000a07",
"cQ c #000f0b",
"cR c #041c14",
"cS c #000d0a",
"cT c #000e08",
"cU c #000604",
"cV c #010b07",
"cW c #061a15",
"cX c #010a06",
"cY c #000e09",
"cZ c #010a07",
"c0 c #010c07",
"c1 c #000c09",
"c2 c #0f2a1c",
"c3 c #0a2015",
"c4 c #061d14",
"c5 c #02160f",
"c6 c #061c15",
"c7 c #00110b",
"c8 c #0c2619",
"c9 c #041912",
"c! c #021910",
"c@ c #05160e",
"c# c #01110c",
"c$ c #02150d",
"c% c #061a13",
"c^ c #010f08",
"c& c #00110a",
"c* c #00100c",
"c( c #072318",
"c) c #02180f",
"c- c #000d09",
"c+ c #041510",
"c= c #0a1e14",
"c[ c #0f281a",
"c] c #010c09",
"c{ c #02110d",
"c} c #062116",
"c| c #01150e",
"c; c #051c14",
"c: c #010704",
"c, c #061f16",
"c. c #03160f",
"c< c #021911",
"c> c #051610",
"c? c #02100a",
"c~ c #05180f",
"c_ c #001109",
"da c #0b271a",
"db c #03140f",
"dc c #021810",
"dd c #081e14",
"de c #031a0f",
"df c #0c2a1b",
"dg c #061f13",
"dh c #072317",
"di c #04180e",
"dj c #061e13",
"dk c #041b0f",
"dl c #02180e",
"dm c #092818",
"dn c #01120b",
"do c #082113",
"dp c #061a10",
"dq c #031710",
"dr c #072016",
"ds c #011710",
"dt c #01130c",
"du c #0c2418",
"dv c #0c241a",
"dw c #01100b",
"dx c #030f0a",
"dy c #05150e",
"dz c #08150f",
"dA c #010b06",
"dB c #010905",
"dC c #07140d",
"dD c #07140e",
"dE c #05110c",
"dF c #05120c",
"dG c #020e09",
"dH c #02110b",
"dI c #03120d",
"dJ c #021b13",
"dK c #082317",
"dL c #113121",
"dM c #0d271a",
"dN c #011711",
"dO c #00150e",
"dP c #01150f",
"dQ c #0b261b",
"dR c #00140d",
"dS c #0b2c1e",
"dT c #00160e",
"dU c #011a0f",
"dV c #021a11",
"dW c #031c12",
"dX c #07271a",
"dY c #00130e",
"dZ c #021813",
"d0 c #051d14",
"d1 c #0e2c1f",
"d2 c #02190f",
"d3 c #01130b",
"d4 c #031911",
"d5 c #0f291c",
"d6 c #0f2f21",
"d7 c #062215",
"d8 c #081f17",
"d9 c #030a08",
"d! c #163225",
"d@ c #132f23",
"d# c #153224",
"d$ c #133325",
"d% c #17382a",
"d^ c #123325",
"d& c #173627",
"d* c #173225",
"d( c #173223",
"d) c #122c20",
"d- c #142e20",
"d+ c #183827",
"d= c #173525",
"d[ c #153425",
"d] c #143426",
"d{ c #143427",
"d} c #0f271c",
"d| c #162f22",
"d; c #010301",
"d: c #071a12",
"d, c #051d13",
"d. c #183625",
"d< c #183928",
"d> c #031711",
"d? c #000605",
"d~ c #010403",
"d_ c #010504",
"ea c #000303",
"eb c #000805",
"ec c #000704",
"ed c #000202",
"ee c #0d271b",
"ef c #01140c",
"eg c #123626",
"eh c #041d13",
"ei c #062219",
"ej c #132e21",
"ek c #061e11",
"el c #08291a",
"em c #03170c",
"en c #02160d",
"eo c #0c271b",
"ep c #071d12",
"eq c #103423",
"er c #05110b",
"es c #27523a",
"et c #173f2a",
"eu c #153d29",
"ev c #1c4d37",
"ew c #22553c",
"ex c #2b654a",
"ey c #1e513a",
"ez c #082a19",
"eA c #1b4831",
"eB c #275940",
"eC c #1f4a35",
"eD c #153426",
"eE c #04140a",
"eF c #193b2a",
"eG c #0c281b",
"eH c #010303",
"eI c #183423",
"eJ c #04170e",
"eK c #021710",
"eL c #0a2718",
"eM c #021a12",
"eN c #051812",
"eO c #0c2219",
"eP c #0d251a",
"eQ c #0b2519",
"eR c #0d2c1d",
"eS c #0c271a",
"eT c #113223",
"eU c #0a1d15",
"eV c #0d2e1e",
"eW c #143524",
"eX c #0e271b",
"eY c #0c2118",
"eZ c #103120",
"e0 c #0a2316",
"e1 c #0d271c",
"e2 c #091d15",
"e3 c #051a13",
"e4 c #123522",
"e5 c #062218",
"e6 c #0d2c1e",
"e7 c #072017",
"e8 c #052117",
"e9 c #011c12",
"e! c #02120c",
"e@ c #000504",
"e# c #020a07",
"e$ c #030504",
"e% c #000000",
"e^ c #000803",
"e& c #071f16",
"e* c #031e14",
"e( c #001009",
"e) c #031b13",
"e- c #031511",
"e+ c #1b3d2a",
"e= c #143222",
"e[ c #173424",
"e] c #132f21",
"e{ c #193e2b",
"e} c #143626",
"e| c #193d2a",
"e; c #19402b",
"e: c #19422d",
"e, c #153726",
"e. c #173d29",
"e< c #1d4931",
"e> c #1a422c",
"e? c #1d432e",
"e~ c #1b422d",
"e_ c #163726",
"fa c #143625",
"fb c #143526",
"fc c #122e20",
"fd c #091913",
"fe c #020603",
"ff c #031d15",
"fg c #052416",
"fh c #0c281c",
"fi c #051f15",
"fj c #031b12",
"fk c #01160e",
"fl c #092117",
"fm c #05150d",
"fn c #061911",
"fo c #061812",
"fp c #0c251a",
"fq c #0a2c1c",
"fr c #092619",
"fs c #112d21",
"ft c #133b27",
"fu c #0e3623",
"fv c #0f3020",
"fw c #010c06",
"fx c #020d08",
"fy c #030a07",
"fz c #010806",
"fA c #052116",
"fB c #04120e",
"fC c #0d281c",
"fD c #021c12",
"fE c #042118",
"fF c #1e3e2c",
"fG c #162f21",
"fH c #0e2c1e",
"fI c #061711",
"fJ c #091f14",
"fK c #061c12",
"fL c #02110a",
"fM c #092115",
"fN c #092316",
"fO c #07180f",
"fP c #091d13",
"fQ c #193b27",
"fR c #041c13",
"fS c #041f16",
"fT c #07261c",
"fU c #031d11",
"fV c #032218",
"fW c #06271b",
"fX c #0a2d1f",
"fY c #020f08",
"fZ c #133222",
"f0 c #051a0f",
"f1 c #0c1f14",
"f2 c #203c2a",
"f3 c #122e1e",
"f4 c #274f37",
"f5 c #1e402d",
"f6 c #203e2c",
"f7 c #0a1810",
"f8 c #295138",
"f9 c #163922",
"f! c #133722",
"f@ c #224830",
"f# c #213d2b",
"f$ c #234430",
"f% c #244a34",
"f^ c #0d2d19",
"f& c #020403",
"f* c #031d13",
"f( c #0f3023",
"f) c #072519",
"f- c #052218",
"f+ c #030e0a",
"f= c #0b1e13",
"f[ c #010200",
"f] c #010100",
"f{ c #0c291a",
"f} c #0b291a",
"f| c #042016",
"f; c #051f14",
"f: c #265036",
"f, c #032214",
"f. c #052014",
"f< c #042113",
"f> c #052318",
"f? c #032017",
"f~ c #092d1e",
"f_ c #052419",
"ga c #03110b",
"gb c #010202",
"gc c #010e04",
"gd c #020a05",
"ge c #020c06",
"gf c #020503",
"gg c #010302",
"gh c #030404",
"gi c #081d16",
"gj c #050706",
"gk c #010805",
"gl c #042216",
"gm c #0b281b",
"gn c #062618",
"go c #062419",
"gp c #06140f",
"gq c #153a28",
"gr c #122e1f",
"gs c #0e1f15",
"gt c #000804",
"gu c #000906",
"gv c #000806",
"gw c #0c2517",
"gx c #0c291c",
"gy c #041d15",
"gz c #042218",
"gA c #163d29",
"gB c #224c34",
"gC c #042217",
"gD c #02170d",
"gE c #062919",
"gF c #032015",
"gG c #103e27",
"gH c #0f3925",
"gI c #03120b",
"gJ c #030b06",
"gK c #0a281e",
"gL c #0b3123",
"gM c #276c5a",
"gN c #1f533f",
"gO c #1e5a44",
"gP c #20614c",
"gQ c #1a533f",
"gR c #245d47",
"gS c #1c4c35",
"gT c #244e3a",
"gU c #204434",
"gV c #173729",
"gW c #071c14",
"gX c #051e14",
"gY c #01190f",
"gZ c #052619",
"g0 c #01130d",
"g1 c #0a2b1d",
"g2 c #1b442d",
"g3 c #142e21",
"g4 c #0f2217",
"g5 c #02100c",
"g6 c #03150e",
"g7 c #03130e",
"g8 c #04180f",
"g9 c #02140e",
"g! c #05150f",
"g@ c #05170f",
"g# c #081b13",
"g$ c #071c11",
"g% c #092617",
"g^ c #020303",
"g& c #021f15",
"g* c #1d4830",
"g( c #143b27",
"g) c #02170c",
"g- c #1c4531",
"g+ c #081f14",
"g= c #052418",
"g[ c #041f14",
"g] c #08251a",
"g{ c #0c2a1a",
"g} c #092215",
"g| c #0e2a19",
"g; c #0e2f1f",
"g: c #0c2919",
"g, c #0b2216",
"g. c #092915",
"g< c #0d2e1c",
"g> c #0b2a1a",
"g? c #143c27",
"g~ c #0d3720",
"g_ c #113120",
"ha c #102f20",
"hb c #2e5842",
"hc c #2e5841",
"hd c #2a4b38",
"he c #29513c",
"hf c #2d5941",
"hg c #030704",
"hh c #032016",
"hi c #031a10",
"hj c #08271b",
"hk c #163f29",
"hl c #1f4932",
"hm c #133022",
"hn c #163121",
"ho c #071c12",
"hp c #0f2519",
"hq c #0b2618",
"hr c #092116",
"hs c #0b1d14",
"ht c #0a1d12",
"hu c #0f291b",
"hv c #0a2117",
"hw c #092416",
"hx c #0a2619",
"hy c #07251b",
"hz c #0c2e1d",
"hA c #1c4b35",
"hB c #072818",
"hC c #19402c",
"hD c #031f13",
"hE c #04271a",
"hF c #072115",
"hG c #03100b",
"hH c #030705",
"hI c #020a06",
"hJ c #020c05",
"hK c #010a04",
"hL c #010804",
"hM c #010603",
"hN c #103b2a",
"hO c #07241a",
"hP c #2d6144",
"hQ c #0f2d1e",
"hR c #143121",
"hS c #0b1e15",
"hT c #0e2319",
"hU c #0b2015",
"hV c #0d2519",
"hW c #0e251a",
"hX c #0f281c",
"hY c #091b10",
"hZ c #0c2217",
"h0 c #0d251b",
"h1 c #020302",
"h2 c #0b2b19",
"h3 c #020202",
"h4 c #05271c",
"h5 c #1e452f",
"h6 c #204631",
"h7 c #16382a",
"h8 c #224f34",
"h9 c #062e21",
"h! c #062317",
"h@ c #062117",
"h# c #031c14",
"h$ c #010d08",
"h% c #02120b",
"h^ c #01251a",
"h& c #013d29",
"h* c #27956c",
"h( c #126247",
"h) c #062c1f",
"h- c #01140d",
"h+ c #03130c",
"h= c #0a2219",
"h[ c #071d16",
"h] c #072f20",
"h{ c #041a12",
"h} c #062016",
"h| c #0e3d28",
"h; c #051711",
"h: c #2f6346",
"h, c #102c1f",
"h. c #153122",
"h< c #04150d",
"h> c #091c13",
"h? c #061610",
"h~ c #061912",
"h_ c #082018",
"ia c #020e0a",
"ib c #0c2419",
"ic c #0b2415",
"id c #0d2b1b",
"ie c #234c35",
"if c #2b5940",
"ig c #0b3020",
"ih c #072418",
"ii c #062217",
"ij c #06241a",
"ik c #082b1d",
"il c #0c1e15",
"im c #19412a",
"in c #02130b",
"io c #1f4030",
"ip c #183727",
"iq c #2e5c41",
"ir c #1b432c",
"is c #193b28",
"it c #183626",
"iu c #1e432f",
"iv c #1e4733",
"iw c #204732",
"ix c #0e2d1c",
"iy c #224431",
"iz c #12301f",
"iA c #183821",
"iB c #062118",
"iC c #244c36",
"iD c #08251b",
"iE c #144029",
"iF c #103c26",
"iG c #326447",
"iH c #143122",
"iI c #000e0a",
"iJ c #0a2115",
"iK c #11301e",
"iL c #0f2c1c",
"iM c #153524",
"iN c #153b29",
"iO c #122d20",
"iP c #0c2a1d",
"iQ c #092014",
"iR c #020402",
"iS c #112c1c",
"iT c #0d2d1e",
"iU c #173f2d",
"iV c #022114",
"iW c #042215",
"iX c #042012",
"iY c #062518",
"iZ c #032417",
"i0 c #042219",
"i1 c #234b36",
"i2 c #010101",
"i3 c #02140b",
"i4 c #01170d",
"i5 c #010807",
"i6 c #091d14",
"i7 c #010a05",
"i8 c #072518",
"i9 c #103a26",
"i! c #062418",
"i@ c #0a3121",
"i# c #051511",
"i$ c #295c40",
"i% c #0f2a1d",
"i^ c #143322",
"i& c #1d4230",
"i* c #061d15",
"i( c #122d21",
"i) c #132d20",
"i- c #0d2b1c",
"i+ c #0c2618",
"i= c #0d2218",
"i[ c #0d241a",
"i] c #0e261a",
"i{ c #051a11",
"i} c #0f2b1d",
"i| c #0d2619",
"i; c #0e2819",
"i: c #0c2f1e",
"i, c #062319",
"i. c #133927",
"i< c #0e2f22",
"i> c #061f14",
"i? c #072b1e",
"i~ c #19432f",
"i_ c #163e28",
"ja c #062619",
"jb c #061c11",
"jc c #193928",
"jd c #081a12",
"je c #153226",
"jf c #092417",
"jg c #0e3824",
"jh c #062b1e",
"ji c #073b29",
"jj c #0f4e34",
"jk c #16492d",
"jl c #15472a",
"jm c #134e34",
"jn c #0c4630",
"jo c #0c402e",
"jp c #224635",
"jq c #1d402d",
"jr c #254733",
"js c #132a1e",
"jt c #1d3a2a",
"ju c #030802",
"jv c #051b12",
"jw c #062316",
"jx c #092d1d",
"jy c #143827",
"jz c #2d6345",
"jA c #163322",
"jB c #112c1f",
"jC c #183829",
"jD c #163122",
"jE c #193827",
"jF c #102e20",
"jG c #123020",
"jH c #143123",
"jI c #071e14",
"jJ c #103020",
"jK c #0c2718",
"jL c #113723",
"jM c #09281c",
"jN c #062b1c",
"jO c #082a1d",
"jP c #06271c",
"jQ c #1d452e",
"jR c #0a2a1d",
"jS c #072819",
"jT c #225136",
"jU c #06271a",
"jV c #061510",
"jW c #1b3729",
"jX c #112a1e",
"jY c #254835",
"jZ c #204e3a",
"j0 c #0f412e",
"j1 c #1b4a33",
"j2 c #1f543b",
"j3 c #1c5e42",
"j4 c #1d4e36",
"j5 c #144532",
"j6 c #0f3c2a",
"j7 c #274d38",
"j8 c #345945",
"j9 c #163326",
"j! c #234531",
"j@ c #172e23",
"j# c #1e3a2c",
"j$ c #061e16",
"j% c #092c1c",
"j^ c #183d2a",
"j& c #07261a",
"j* c #031f14",
"j( c #092418",
"j) c #2a6142",
"j- c #173c2b",
"j+ c #052115",
"j= c #214c38",
"j[ c #183c2b",
"j] c #102a1d",
"j{ c #133525",
"j} c #113020",
"j| c #123827",
"j; c #03170d",
"j: c #112b1e",
"j, c #0f301f",
"j. c #040504",
"j< c #032118",
"j> c #1c4730",
"j? c #052316",
"j~ c #062318",
"j_ c #0f3525",
"ka c #05271a",
"kb c #183d29",
"kc c #0d3423",
"kd c #244f38",
"ke c #27563e",
"kf c #183526",
"kg c #0b2217",
"kh c #041b11",
"ki c #000807",
"kj c #082017",
"kk c #072719",
"kl c #0c261b",
"km c #163926",
"kn c #1b5034",
"ko c #052317",
"kp c #225438",
"kq c #316348",
"kr c #142f23",
"ks c #122c1f",
"kt c #163c29",
"ku c #163727",
"kv c #122f22",
"kw c #163b28",
"kx c #122d1f",
"ky c #133224",
"kz c #031d12",
"kA c #112d1e",
"kB c #0f2c1f",
"kC c #0b2617",
"kD c #0f3322",
"kE c #051f18",
"kF c #0d3322",
"kG c #0e2d1e",
"kH c #052016",
"kI c #1c442b",
"kJ c #194b32",
"kK c #062519",
"kL c #052216",
"kM c #0d2f1f",
"kN c #030a05",
"kO c #012116",
"kP c #093324",
"kQ c #0e3927",
"kR c #14462f",
"kS c #173c29",
"kT c #0f3626",
"kU c #103322",
"kV c #143325",
"kW c #133324",
"kX c #0e291c",
"kY c #112f1f",
"kZ c #153024",
"k0 c #020602",
"k1 c #041b13",
"k2 c #0c3121",
"k3 c #0d3022",
"k4 c #072619",
"k5 c #3a6d4f",
"k6 c #163224",
"k7 c #1b3c2a",
"k8 c #0b251b",
"k9 c #04120c",
"k! c #04160e",
"k@ c #03130b",
"k# c #071810",
"k$ c #103021",
"k% c #072313",
"k^ c #0c2b1c",
"k& c #022215",
"k* c #0c3523",
"k( c #051e15",
"k) c #092d1f",
"k- c #042114",
"k+ c #1c4831",
"k= c #052517",
"k[ c #042115",
"k] c #0d2e1f",
"k{ c #1b432f",
"k} c #163927",
"k| c #26563c",
"k; c #337149",
"k: c #367752",
"k, c #215b3b",
"k. c #183925",
"k< c #193223",
"k> c #113826",
"k? c #03120a",
"k~ c #020704",
"k_ c #020b05",
"la c #0b251a",
"lb c #082118",
"lc c #103223",
"ld c #0a2d1e",
"le c #041e14",
"lf c #0a231a",
"lg c #27583e",
"lh c #183324",
"li c #0e291b",
"lj c #214230",
"lk c #071e13",
"ll c #092a1b",
"lm c #0c3220",
"ln c #0b2c1f",
"lo c #08261b",
"lp c #072015",
"lq c #030b07",
"lr c #0d2a1d",
"ls c #052015",
"lt c #021d10",
"lu c #0e2b1e",
"lv c #010404",
"lw c #06261a",
"lx c #082e21",
"ly c #031f16",
"lz c #072419",
"lA c #0e3c26",
"lB c #0f3222",
"lC c #1b3c2e",
"lD c #02100b",
"lE c #00130c",
"lF c #010705",
"lG c #204834",
"lH c #194532",
"lI c #142c20",
"lJ c #06140a",
"lK c #000701",
"lL c #092b1c",
"lM c #09281b",
"lN c #052519",
"lO c #08291b",
"lP c #022515",
"lQ c #082619",
"lR c #082c1e",
"lS c #071710",
"lT c #39694a",
"lU c #143223",
"lV c #163323",
"lW c #132f22",
"lX c #102a1e",
"lY c #0e261c",
"lZ c #0b281d",
"l0 c #0b2d1d",
"l1 c #0a2318",
"l2 c #0b2b1d",
"l3 c #050906",
"l4 c #02180c",
"l5 c #020203",
"l6 c #07281d",
"l7 c #021510",
"l8 c #447152",
"l9 c #457457",
"l! c #385d46",
"l@ c #022717",
"l# c #1e4b32",
"l$ c #031a11",
"l% c #03180f",
"l^ c #051009",
"l& c #06110b",
"l* c #0a291a",
"l( c #0d2d1b",
"l) c #072110",
"l- c #011a09",
"l+ c #042b16",
"l= c #0a3422",
"l[ c #0d3928",
"l] c #163728",
"l{ c #00170d",
"l} c #052214",
"l| c #032113",
"l; c #042416",
"l: c #1a4831",
"l, c #0a2f21",
"l. c #25573d",
"l< c #122b1f",
"l> c #11281c",
"l? c #153123",
"l~ c #173b2a",
"l_ c #112f21",
"ma c #133825",
"mb c #102d20",
"mc c #123222",
"md c #092419",
"me c #02180d",
"mf c #041c15",
"mg c #193c27",
"mh c #08130c",
"mi c #21442f",
"mj c #0c2f20",
"mk c #062719",
"ml c #1d3d2c",
"mm c #08291d",
"mn c #030a06",
"mo c #08150d",
"mp c #06110c",
"mq c #07140f",
"mr c #0b3f2d",
"ms c #13462e",
"mt c #0e412d",
"mu c #063425",
"mv c #083529",
"mw c #02150f",
"mx c #103429",
"my c #010401",
"mz c #020c09",
"mA c #0c2b1f",
"mB c #041e12",
"mC c #13422b",
"mD c #092e1d",
"mE c #093021",
"mF c #04130f",
"mG c #255237",
"mH c #102d1f",
"mI c #162d21",
"mJ c #1d3b2c",
"mK c #142b21",
"mL c #0e291d",
"mM c #122d22",
"mN c #133023",
"mO c #11261c",
"mP c #112a1d",
"mQ c #153323",
"mR c #0d281d",
"mS c #062114",
"mT c #0c2d1d",
"mU c #02130e",
"mV c #102b1e",
"mW c #1a3927",
"mX c #07261b",
"mY c #1c4b33",
"mZ c #123725",
"m0 c #2b5039",
"m1 c #030805",
"m2 c #051b0f",
"m3 c #09271a",
"m4 c #082316",
"m5 c #0f2d1f",
"m6 c #123124",
"m7 c #103324",
"m8 c #0f2e23",
"m9 c #0d2b20",
"m! c #0c1f16",
"m@ c #091e15",
"m# c #051f16",
"m$ c #031c10",
"m% c #255939",
"m^ c #051510",
"m& c #1d452d",
"m* c #081b10",
"m( c #1a3a2a",
"m) c #0b271d",
"m- c #04100c",
"m+ c #103121",
"m= c #092c1e",
"m[ c #02120a",
"m] c #0f3224",
"m{ c #0a2218",
"m} c #042013",
"m| c #0b291c",
"m; c #01110e",
"m: c #1c412e",
"m, c #193728",
"m. c #205136",
"m< c #1d4933",
"m> c #051c13",
"m? c #030907",
"m~ c #030f09",
"m_ c #093020",
"na c #0d3e2a",
"nb c #185236",
"nc c #164932",
"nd c #16412d",
"ne c #1d422f",
"nf c #0d2b1d",
"ng c #123825",
"nh c #113625",
"ni c #082519",
"nj c #071811",
"nk c #0c261a",
"nl c #030302",
"nm c #1e4433",
"nn c #041811",
"no c #052118",
"np c #062a1c",
"nq c #07271b",
"nr c #0a2e1f",
"ns c #1c462f",
"nt c #10271c",
"nu c #010f0b",
"nv c #224430",
"nw c #122d1e",
"nx c #1a402d",
"ny c #041e13",
"nz c #113422",
"nA c #091c12",
"nB c #133425",
"nC c #113322",
"nD c #082516",
"nE c #0e2f21",
"nF c #112f22",
"nG c #0b2c1c",
"nH c #030403",
"nI c #09251c",
"nJ c #183e2b",
"nK c #040b09",
"nL c #244734",
"nM c #01140f",
"nN c #021e14",
"nO c #1c422d",
"nP c #0f3b26",
"nQ c #153622",
"nR c #1c452f",
"nS c #05291b",
"nT c #020c08",
"nU c #051e11",
"nV c #1b442f",
"nW c #244933",
"nX c #1e462f",
"nY c #2d563e",
"nZ c #316446",
"n0 c #2a6244",
"n1 c #046d4a",
"n2 c #75f2bb",
"n3 c #48d39d",
"n4 c #0d764e",
"n5 c #013929",
"n6 c #083a29",
"n7 c #08291c",
"n8 c #0c2b21",
"n9 c #122a1e",
"n! c #11291b",
"n@ c #1a3627",
"n# c #062a1e",
"n$ c #041f15",
"n% c #072216",
"n^ c #082b1b",
"n& c #041611",
"n* c #326647",
"n( c #0f2218",
"n) c #0c291d",
"n- c #153725",
"n+ c #173a29",
"n= c #03170e",
"n[ c #081b11",
"n] c #113525",
"n{ c #143425",
"n} c #153828",
"n| c #123425",
"n; c #0b2318",
"n: c #051f12",
"n, c #041e15",
"n. c #031913",
"n< c #17452c",
"n> c #070f0c",
"n? c #1b3728",
"n~ c #01160f",
"n_ c #05291c",
"oa c #133926",
"ob c #0a2d1c",
"oc c #0b2a1d",
"od c #183c2a",
"oe c #021009",
"of c #040e08",
"og c #0a291d",
"oh c #0d2a21",
"oi c #041c10",
"oj c #042318",
"ok c #082b1e",
"ol c #08261a",
"om c #133e2a",
"on c #061c14",
"oo c #255338",
"op c #112a1b",
"oq c #173526",
"or c #0d291e",
"os c #0f2c1d",
"ot c #03160e",
"ou c #0f2f20",
"ov c #133122",
"ow c #102f21",
"ox c #082717",
"oy c #092e21",
"oz c #0f2115",
"oA c #1a3122",
"oB c #093623",
"oC c #1c4631",
"oD c #153c28",
"oE c #143a27",
"oF c #2e5642",
"oG c #37644d",
"oH c #052516",
"oI c #072f1e",
"oJ c #052114",
"oK c #03150a",
"oL c #010c05",
"oM c #0a271c",
"oN c #020f0c",
"oO c #021a0f",
"oP c #0a2a1e",
"oQ c #072217",
"oR c #183f31",
"oS c #03110c",
"oT c #1e4a34",
"oU c #112c1e",
"oV c #0a281c",
"oW c #133524",
"oX c #0e301f",
"oY c #071910",
"oZ c #1a3d2d",
"o0 c #143725",
"o1 c #0e2a1e",
"o2 c #031e11",
"o3 c #012117",
"o4 c #011912",
"o5 c #0a2c1e",
"o6 c #1c3f2d",
"o7 c #081911",
"o8 c #1e4935",
"o9 c #2d503c",
"o! c #265137",
"o@ c #163d28",
"o# c #19432d",
"o$ c #1a402c",
"o% c #234f35",
"o^ c #1f4531",
"o& c #214f38",
"o* c #1e593e",
"o( c #1f5137",
"o) c #133a26",
"o- c #0a2518",
"o+ c #0d301f",
"o= c #113221",
"o[ c #1e4330",
"o] c #1c442e",
"o{ c #062119",
"o} c #02140c",
"o| c #072319",
"o; c #1c402b",
"o: c #041711",
"o, c #295a3d",
"o. c #102d1e",
"o< c #0f2e1e",
"o> c #0d2c1c",
"o? c #173b28",
"o~ c #05160d",
"o_ c #18402f",
"pa c #051d12",
"pb c #0b2117",
"pc c #0e3224",
"pd c #0d3122",
"pe c #082318",
"pf c #08281b",
"pg c #020801",
"ph c #050806",
"pi c #032f1f",
"pj c #073425",
"pk c #0c3223",
"pl c #142f21",
"pm c #124028",
"pn c #08180e",
"po c #2b533d",
"pp c #234a35",
"pq c #11301f",
"pr c #061d16",
"ps c #01170e",
"pt c #051e16",
"pu c #18402a",
"pv c #2b5d41",
"pw c #11291c",
"px c #102d1d",
"py c #06160d",
"pz c #11271b",
"pA c #030603",
"pB c #0c2216",
"pC c #1e4731",
"pD c #08291e",
"pE c #042117",
"pF c #082a1b",
"pG c #082b1c",
"pH c #0c291b",
"pI c #0f2e1d",
"pJ c #112319",
"pK c #152e1e",
"pL c #143324",
"pM c #072e1d",
"pN c #08331e",
"pO c #0e4b2e",
"pP c #0b4931",
"pQ c #07281b",
"pR c #020f09",
"pS c #0c3021",
"pT c #09271d",
"pU c #1c432e",
"pV c #0a271b",
"pW c #193e2a",
"pX c #041812",
"pY c #2b5e41",
"pZ c #1c3c2a",
"p0 c #163c28",
"p1 c #193f2b",
"p2 c #061b12",
"p3 c #123323",
"p4 c #07150c",
"p5 c #0c2e1f",
"p6 c #0e2b1d",
"p7 c #1f4934",
"p8 c #112318",
"p9 c #010604",
"p! c #082618",
"p@ c #011b0f",
"p# c #1c402c",
"p$ c #072116",
"p% c #0e3725",
"p^ c #0f2719",
"p& c #123221",
"p* c #072516",
"p( c #1f4a32",
"p) c #195838",
"p- c #3f7f58",
"p+ c #01100a",
"p= c #052119",
"p[ c #051612",
"p] c #031c11",
"p{ c #163425",
"p} c #173b29",
"p| c #193f2a",
"p; c #254e36",
"p: c #122e21",
"p, c #03120e",
"p. c #235236",
"p< c #153926",
"p> c #133121",
"p? c #07120b",
"p~ c #1c4330",
"p_ c #0a261a",
"qa c #274030",
"qb c #163120",
"qc c #133e2d",
"qd c #153e2b",
"qe c #0c3527",
"qf c #072118",
"qg c #000a03",
"qh c #011209",
"qi c #1b3b29",
"qj c #082216",
"qk c #0b2e1e",
"ql c #0f3325",
"qm c #10291e",
"qn c #153b2a",
"qo c #1b4230",
"qp c #1b4c34",
"qq c #1a4b36",
"qr c #010f09",
"qs c #09281a",
"qt c #102e1f",
"qu c #0a271a",
"qv c #05140f",
"qw c #235035",
"qx c #0e2a1c",
"qy c #06150c",
"qz c #193d2b",
"qA c #1a3222",
"qB c #111e17",
"qC c #0b2215",
"qD c #082218",
"qE c #052417",
"qF c #0b2b1c",
"qG c #0a2b1b",
"qH c #193d2e",
"qI c #133526",
"qJ c #041d12",
"qK c #103c29",
"qL c #02170e",
"qM c #05291e",
"qN c #0f3123",
"qO c #1a3d2c",
"qP c #0a2a1b",
"qQ c #0d281a",
"qR c #23432f",
"qS c #1b3829",
"qT c #224231",
"qU c #0f3323",
"qV c #0e2b1c",
"qW c #0d2a1c",
"qX c #173926",
"qY c #051712",
"qZ c #2b573d",
"q0 c #0f2418",
"q1 c #1a3e2d",
"q2 c #0d2a1b",
"q3 c #07160d",
"q4 c #0d3020",
"q5 c #1a3d29",
"q6 c #040602",
"q7 c #030303",
"q8 c #0a2516",
"q9 c #0d2a1a",
"q! c #153e29",
"q@ c #0b301e",
"q# c #0e2f1e",
"q$ c #133422",
"q% c #0f2518",
"q^ c #07190f",
"q& c #0a1b12",
"q* c #11251a",
"q( c #0d2618",
"q) c #082616",
"q- c #0c2c1f",
"q+ c #103625",
"q= c #204635",
"q[ c #092618",
"q] c #1a3726",
"q{ c #173624",
"q} c #040605",
"q| c #193d2c",
"q; c #04100e",
"q: c #245338",
"q, c #0e271a",
"q. c #000e0b",
"q< c #082319",
"q> c #0e3020",
"q? c #07170e",
"q~ c #153022",
"q_ c #07160e",
"ra c #03150c",
"rb c #0f3d28",
"rc c #124029",
"rd c #07251a",
"re c #082219",
"rf c #020b08",
"rg c #0b2518",
"rh c #0f2b1c",
"ri c #0b2d1e",
"rj c #103222",
"rk c #0c3221",
"rl c #0b271b",
"rm c #051f13",
"rn c #091b15",
"ro c #020805",
"rp c #072a1d",
"rq c #061511",
"rr c #224d37",
"rs c #183828",
"rt c #03140d",
"ru c #143422",
"rv c #08190f",
"rw c #0b2116",
"rx c #061b11",
"ry c #04130d",
"rz c #17422d",
"rA c #05241a",
"rB c #02130d",
"rC c #19412d",
"rD c #11261b",
"rE c #0c281d",
"rF c #041e11",
"rG c #0a2319",
"rH c #0a2a1c",
"rI c #0c3020",
"rJ c #0e3221",
"rK c #031b0f",
"rL c #041a13",
"rM c #05120e",
"rN c #163c27",
"rO c #091e14",
"rP c #10261a",
"rQ c #1a3a29",
"rR c #143023",
"rS c #0d2718",
"rT c #081a11",
"rU c #0b2b1e",
"rV c #132c1e",
"rW c #102f1f",
"rX c #050f0a",
"rY c #071a10",
"rZ c #0c2b1b",
"r0 c #041913",
"r1 c #042618",
"r2 c #062417",
"r3 c #021e12",
"r4 c #123121",
"r5 c #113021",
"r6 c #010702",
"r7 c #010600",
"r8 c #020502",
"r9 c #051b14",
"r! c #01120a",
"r@ c #03110d",
"r# c #26543b",
"r$ c #102419",
"r% c #0f2a1b",
"r^ c #153223",
"r& c #153324",
"r* c #153424",
"r( c #031610",
"r) c #0e2a1b",
"r- c #09271b",
"r+ c #123122",
"r= c #02160e",
"r[ c #092719",
"r] c #163a28",
"r{ c #0d291c",
"r} c #122f20",
"r| c #1b3d2b",
"r; c #214432",
"r: c #28533d",
"r, c #305e48",
"r. c #275a41",
"r< c #1c422a",
"r> c #264631",
"r? c #1a3829",
"r~ c #2c553f",
"r_ c #1a3d2b",
"sa c #142d20",
"sb c #081d11",
"sc c #071a11",
"sd c #021108",
"se c #031309",
"sf c #123421",
"sg c #04110d",
"sh c #255136",
"si c #0b1e14",
"sj c #10291c",
"sk c #12291d",
"sl c #05100a",
"sm c #092a1d",
"sn c #0a2214",
"so c #0c281a",
"sp c #031f15",
"sq c #0a3120",
"sr c #031b11",
"ss c #153523",
"st c #0f2e20",
"su c #0b2717",
"sv c #143022",
"sw c #163424",
"sx c #10281e",
"sy c #0e2719",
"sz c #10291d",
"sA c #061d12",
"sB c #254a36",
"sC c #254938",
"sD c #1d3829",
"sE c #1d392a",
"sF c #081910",
"sG c #042015",
"sH c #153a26",
"sI c #040f0b",
"sJ c #245136",
"sK c #0b2016",
"sL c #152f22",
"sM c #142f20",
"sN c #040d08",
"sO c #183726",
"sP c #082213",
"sQ c #01140b",
"sR c #06251b",
"sS c #06281c",
"sT c #01180f",
"sU c #173c2a",
"sV c #1a3e2e",
"sW c #031f12",
"sX c #091713",
"sY c #0a1911",
"sZ c #010300",
"s0 c #020401",
"s1 c #305342",
"s2 c #010e08",
"s3 c #041a14",
"s4 c #031b14",
"s5 c #031912",
"s6 c #173e29",
"s7 c #0b1d13",
"s8 c #0f251b",
"s9 c #173224",
"s! c #09281d",
"s@ c #153929",
"s# c #042317",
"s$ c #00190f",
"s% c #18402c",
"s^ c #030d0c",
"s& c #020904",
"s* c #1e4633",
"s( c #010802",
"s) c #02120d",
"s- c #04130e",
"s+ c #1c442f",
"s= c #0b1c13",
"s[ c #152c1f",
"s] c #163123",
"s{ c #01150d",
"s} c #0f2419",
"s| c #0a2415",
"s; c #102c1d",
"s: c #0e3021",
"s, c #020f0a",
"s. c #133423",
"s< c #0e2e20",
"s> c #132b1f",
"s? c #020906",
"s~ c #01110d",
"s_ c #051c11",
"ta c #010d0a",
"tb c #183e29",
"tc c #12261b",
"td c #092217",
"te c #040c07",
"tf c #132b1e",
"tg c #0f251a",
"th c #042014",
"ti c #071b14",
"tj c #041c11",
"tk c #0b2719",
"tl c #173f2b",
"tm c #010e0b",
"tn c #0e2d1f",
"to c #0d2f1e",
"tp c #214933",
"tq c #10251b",
"tr c #0d2417",
"ts c #0a1a12",
"tt c #0a1f15",
"tu c #0d1d14",
"tv c #0d2015",
"tw c #0c2818",
"tx c #0d241b",
"ty c #0b281a",
"tz c #021611",
"tA c #03150f",
"tB c #11281b",
"tC c #082418",
"tD c #041a0f",
"tE c #062013",
"tF c #0f261b",
"tG c #020d0b",
"tH c #183b29",
"tI c #11271d",
"tJ c #06160e",
"tK c #152d20",
"tL c #06130b",
"tM c #04150f",
"tN c #030d09",
"tO c #0e2117",
"tP c #05160c",
"tQ c #0d2719",
"tR c #0c291f",
"tS c #0c2d1c",
"tT c #01110a",
"tU c #123a27",
"tV c #021410",
"tW c #082417",
"tX c #000f08",
"tY c #00130b",
"tZ c #00150f",
"t0 c #05221a",
"t1 c #061c10",
"t2 c #061910",
"t3 c #183528",
"t4 c #092017",
"t5 c #020e0b",
"t6 c #264c37",
"t7 c #0e2219",
"t8 c #1b3f2b",
"t9 c #1e412e",
"t! c #1b3e2c",
"t@ c #214633",
"t# c #213e2d",
"t$ c #12281b",
"t% c #02130f",
"t^ c #163827",
"t& c #092218",
"t* c #000b09",
"t( c #042017",
"t) c #030f0b",
"t- c #01130e",
"t+ c #00140c",
"t= c #0a281b",
"t[ c #00130d",
"t] c #02140f",
"t{ c #0a2216",
"t} c #021811",
"t| c #010f0c",
"t; c #0b281c",
"t: c #11261a",
"t, c #010906",
"t. c #030b08",
"t< c #22402f",
"t> c #091a11",
"t? c #081c12",
"t~ c #0e2518",
"t_ c #0c2719",
"ua c #0e2217",
"ub c #0b1f14",
"uc c #04180d",
"ud c #01150b",
"ue c #020705",
"uf c #010b09",
"ug c #010d07",
"uh c #010001",
"ui c #020b07",
"uj c #001008",
"uk c #020905",
"ul c #010605",
"um c #010e06",
"un c #04110a",
"uo c #011009",
"up c #010e07",
"uq c #13301f",
"ur c #193927",
"us c #162e21",
"ut c #080f0d",
"uu c #143321",
"uv c #0a1d14",
"uw c #0d2316",
"ux c #10251a",
"uy c #0d2016",
"uz c #0d2418",
"uA c #091b12",
"uB c #0a1912",
"uC c #0b2219",
"uD c #05150c",
"uE c #051d11",
"uF c #030502",
"uG c #1b3426",
"uH c #1e3c2b",
"uI c #133020",
"uJ c #0c2317",
"uK c #0c2116",
"uL c #0f291d",
"uM c #183223",
"uN c #163a27",
"uO c #143021",
"uP c #183527",
"uQ c #163222",
"uR c #162c1e",
"uS c #091a12",
"uT c #0a1d13",
"uU c #112e1f",
"uV c #091b14",
"uW c #0c2318",
"uX c #071911",
"uY c #0b231a",
"uZ c #162d23",
"u0 c #1b3c29",
"u1 c #030f07",
"u2 c #000d07",
"u3 c #091f17",
"u4 c #0a1b13",
"u5 c #06130c",
"u6 c #12271d",
"u7 c #132c20",
"u8 c #132d1f",
"u9 c #132c1f",
"u! c #132e20",
"u@ c #193524",
"u# c #163626",
"u$ c #123322",
"u% c #0e251b",
"u^ c #142e22",
"u& c #112b1f",
"u* c #113122",
"u( c #0c271c",
"u) c #183524",
"u- c #0f271a",
"u+ c #11291e",
"u= c #152e22",
"u[ c #1a2f25",
"u] c #020f07",
"u{ c #051d16",
"u} c #061d11",
"u| c #102c20",
"u; c #091f13",
"u: c #13281a",
"u, c #04150e",
"u. c #020c07",
"u< c #011008",
"u> c #000d06",
"u? c #020e07",
"u~ c #030e07",
"u_ c #030c08",
"va c #021008",
"vb c #030d06",
"vc c #06170e",
"vd c #030d08",
"ve c #020e08",
"vf c #010b05",
"vg c #010904",
"vh c #010d06",
"vi c #000e07",
"vj c #082014",
"vk c #05100d",
"vl c #1a3623",
"vm c #091911",
"vn c #0d1e16",
"vo c #0a1e15",
"vp c #0f281b",
"vq c #0a1f12",
"vr c #07190e",
"vs c #091d12",
"vt c #04140c",
"vu c #081e13",
"vv c #0e2619",
"vw c #0b2317",
"vx c #071b11",
"vy c #05140d",
"vz c #05130f",
"vA c #081b14",
"vB c #041410",
"vC c #071812",
"vD c #0c1d14",
"vE c #0e251c",
"vF c #0e2017",
"vG c #0d2117",
"vH c #0a2016",
"vI c #04120d",
"vJ c #081811",
"vK c #06150e",
"vL c #173828",
"vM c #204030",
"vN c #1f442f",
"vO c #1f4530",
"vP c #1f4330",
"vQ c #19392a",
"vR c #1b3e2d",
"vS c #18382a",
"vT c #192f24",
"vU c #08160d",
"vV c #0a1c14",
"vW c #07160f",
"vX c #0b1e16",
"vY c #04160f",
"vZ c #091e17",
"v0 c #041d17",
"v1 c #07170f",
"v2 c #05140c",
"v3 c #020d0a",
"v4 c #0f291e",
"v5 c #04140e",
"v6 c #08160e",
"v7 c #0f2219",
"v8 c #0b2014",
"v9 c #0b1d16",
"v! c #091910",
"v@ c #0a1f18",
"v# c #04100b",
"v$ c #06140e",
"v% c #00170f",
"v^ c #011a11",
"v& c #01110b",
"v* c #05170e",
"v( c #00120b",
"v) c #051410",
"v- c #06100a",
"v+ c #020400",
"v= c #06150d",
"v[ c #020301",
"v] c #010400",
"v{ c #00120c",
"v} c #061f17",
"v| c #031e15",
"v; c #011911",
"v: c #00110c",
"v, c #02120e",
"v. c #00100a",
"v< c #011310",
"v> c #01120e",
"v? c #031c13",
"v~ c #031712",
"v_ c #031b16",
"wa c #021d15",
"wb c #011811",
"wc c #103728",
"wd c #0e3524",
"we c #0d2a20",
"wf c #133828",
"wg c #0a2c20",
"wh c #0e2d20",
"wi c #0f3424",
"wj c #153c2b",
"wk c #09291b",
"wl c #0b3222",
"wm c #062216",
"wn c #113425",
"wo c #0e3523",
"wp c #06291a",
"wq c #062014",
"wr c #0d2b1f",
"ws c #133a2a",
"wt c #0c2b1e",
"wu c #0f2e1f",
"wv c #061e15",
"ww c #021a13",
"wx c #051d15",
/* pixels */
"aaabacadaeafagahaiajakalamanaoapaqarasamatauavawaxayazaAaBaCaDaEaFaGauaHaIaJaKaLaMaNaOaPaQaRaSaTaUaVaWaXaYalaZa0a1a2a3a4a5a6a7a8",
"a9a!a2a@a#a$a%a^a&ara*a(asa)a-a+a=a[a]a{a}a|a;a:a,a.a<a>a?a~a_aca)ahbabbbcbdbebfbgbhbibjbkbdblabbmblbnbobbbhbpbqaGbrbsbtbubvbwbx",
"bya0bzbAbBbCacbDbEbFbGbHbIbJbKbLajbMbNbObPbQbRbSbTbUaDbVaPbWbXbYbZacb0b1b2aYb3b4b5b6b7b8b9b!azb@b#b$b%azb^b&btb*b(aYb)aTaSb&b-b+",
"b=b=b[b]b{b}b[b|b;b:b,b.b}b[b<b>b?b|b~b~b~b=b_b|cacbccb.b_b}cdceb}b>cacfcgchb.b>b>b>b|b,b>b>b}b>b.cib=b>b~b>cjb>cachb|ckb=clcdb|",
"cmcncocpcqcrcsctcqcucmcucncvcncwcxcyczcAcBcCcDcwcEcFcGcHcHcpcIcJcKcLcMcNcOcPcQcAcscRcLcScDcTcmcUcncpcVcwcmcJcWcXcLbxcYcZcDc0cAcw",
"c1c2c3c1bxc4a1c5c6c7c8c9c!c@c0bZc#c1c$c7cYcpc%cuc^bLcmc&c*c(c)cpc-c+cqc-c=c[c]aQcDb1c{cLc}c|c;cHc:c,cnc.cXahcBcDc<cmc>cDc?cwcBcP",
"a_c~c_dabpb$dbdcdddeb0bzdfc$dgdhdiaPdjdkdldmdnc5dodpb&dqa8aWdrdsc7dtdudvb#b+boa1dwc0dxc1c0dycXdydzdAcgdBdCdDdEdFcLcXdGdHdIbCa1dJ",
"dvdKdLdMc$cCdNdOdPaQdQdsdRdSdTdUdVcvdcdRdWdXdYdZdNbXd0d1d2d3craNd4b!bZd5d6d7d8d9d!d@d#d$d%d^d&d*d(d)d-d+d*d=d[d]d{d}d|d;d:b!d,dT",
"d.bQaNd<d>d?b;d?d~d_eaebb|cUecb<edceedb?b.cGeacpb}cOcueeefbZegeheia6ejekelemendzeoepeqereseteuevewexeyezeAeBeCeDeEeFeGeHdteIeJc%",
"eKajeLeMeNa^eOeoePeQeoeRd6eSeTb(eUeVeWeXeYeZe0bme1e2ede3e4cre5e6e7e8bZe9aqaVe!b.b{b|e@e#e$cae%eae%cde^ccb]b|b;cLc:e%cecee&e*bGe(",
"dqdcdWe)e-e+e=e[e]e{e}e|e;e:e,e.e<e>e?e~e_fafbaJfcfdfefffgb$aPfhfie8fjfkfla5d0cAfmfna-fofpfqfrfsftfufvaDe#b<fwanfxfybTfze2fAfBfC",
"eieKfDfEc%fFfGb#fHfIbyazb0epbFfJahdifKeJfLc~fMfNfOfPfecxfQfRaPdWfSfTfUfVfWdVfXfYfZf0f1f2f3f4f5f6apcgf7f8f9f!f@f#f$f%f^f&e!f*e!b9",
"aFf(f)f-f+f5atf=cacacaf[ccf[caf]ccccckcaccb<f[cef{f}eHfff|f;f:f,d4f.f<f>f?f~f_gacedxe%b]gbe%gcgdeHgegfggghe$cegigjb<ccgkb8a(glgm",
"gngodld0gpgqgrgseccJgteccGecececececb]ecb]gugvckgwgxb,gygzglgAgBgCgDgEd2gFgGgHgIb<gJe!gagKgLgMgNgOgPgQgRgSgTgUgVcigggWcigXgYgZg0",
"c}dqg1fta8g2g3g4ebg5g6g7g6g8g9aYbVg!g@g#bra8c?ckg$g%g^d0g&g*g(g)g-gXg+g=g[g]goctg{fJg}g|g;g:g,g.g<g>g?g~g_hahbhchdhehfhgc6hhb!cE",
"hifihjhkbnhlhmhnc-dHhohpddc3b+hqhrhshthuhva7btd;hwhxg^hyhhhzhAhBhChDgZhEhFgobOhGhHhId9hJb{hKb]c:hLhMfwe%ckb:cacVb<b>b|dBgif;d4ff",
"hNb8hOdSdIhPhQhRcQbUflhShThUhVhWhXd-hUhYhZh0bnh1h2frh3e*h4h5h6h7h8h9h!aSgoh@h#h$cTa7g0h%b?cuh^h&h*h(h)h-h+cJcbh=b{b:eKcah[h]aPh{",
"f.h}fAh|h;h:h,h.cSbXd-foh<bUbGh>byh?h~h_iaibeeckicidg^fSf|f>ieifigihiig=ijikg[iliminioipiqiriseIduitiuive<e}iwixiyiziAcdbViBh@iC",
"iDiEh!iFc+iGd1iHiIiJiKdqiLiMiNg;e[iOiPhudcabiQiRiSiTh3iUiVc}iWiXbEaWiYiZi0i1iigai2c^i3gaguebdUi4bTb:dncJi5ccgti6i7cki2d~gKhhi8hC",
"c(i9i!i@i#i$i%i^c-hVi&i*i(i)i-fZi+i=i[i]i{i}i|d;i;i:ghi,i.hFc(i<i>i?goi~gYi_jajbjcjdjejfjgjhjijjjkjljmjnjojpjqdvjrjsjtjufif.jvjw",
"gXjxjygqgWjzh,jAcqjBjCanjDjEjFaZfZi|jGjHjIhWjJiRjKjLf&e6jMiYjNjOfAjPjQjRjSjTjUjVhSjWjXjXjYjZj0j1j2j3j4j5j6j7j8j9j!j@j#ckj$j%j^eW",
"j&j*aKj(fIj)jFjHcAa*j-j+j=j[atj[j]j{j}j|j;j:bjd;fMj,j.j<j>j?f)j~c(j_g=kakbg[kcctkdkekfkggbcecBctkhcJb]kicZebb?bpcdb<i2e%kjkkklkm",
"jRknkokph~kqa*kriIkse}c(ktkukvfhkwkxa;kykzkAkBiRkCkDg^kEkFkGkHkIi*kJkKi!kLh}kMcokNcwb|cnkOkPkQkRkSkTkUkVkWhQkXkYkZiOjDk0e5iuh@k1",
"k2h!k3k4a1k5aBk6cSiHk7k8k9iacLbsg8k!k@k#bIk$kAggk%k^gbj_k&k*k(k)k-k+k=e5jak[c!azg%k]k{k}k|k;k:k,k.k<k>k?k~fek_lae%fecgcUlbhDlcfk",
"f.k(ldlelflgi)lhcQliljc}lkbAlllmlnlolphFlqlrlsh1ltlulvlwlxlyhOlzlAlBf~iBlwiYjxcglCh$e$ceeHczlDefc@lEiIlFhxlGlHdQlIlJlKk~i{lLlMlN",
"lOlPlQlRlSlTlUlVaQlWaAd+e}eelXlYd5d}lZl0l1l2hOl3l4eSl5l6l7l8l9l!l@l#l$j~lwk=l%c0i7l^l&aDl*l(bMl)l-l+l=l[fndRe^k1ccb.cydGl]l{l}l|",
"l;l:g]l,c%l.l<l>dwfMl?l~l_maana*mbaZaZmceoj|mdiRmeeTeHmfg5mgmhmidOmjmkegmliYmmdwg,fmmnmompmqmrmslrmtmumvmwhLb;mxmyceaGmzk4i9kLmA",
"mBmCmDmEmFmGmHmIdwj:i}kxmJg3mKmLmMmNePmOmPmQmRh1mSmTl5eimUeQmVmWdPmjmXmYmZm0j&hGm1k@lqm2fCc3eom3bLa7m4iPm5m6m7m8m9m!m@eHh@m#dWl$",
"m$m%lclNm^m&jBhTc1m*m(m)b&bum-m+acb#bum=m[m]m{ckm}m|ghbOm;fnm:m,dPlwm.mDm<m>mRdxmdm?m~cicXmjm_nanbncndnenfngnhdKninjnknlnmnnnob*",
"h!npnqnrfonsh,ntnua)nvk1nwnxnynznAnBnCkSnDnEnFiRi8nGnHnIcWnJnKnLnMnNnOnPnQnRnSnTnUnVnWnXnYnZn0n1n2n3n4n5n6n7ggn8n9n!n@ggmHbXkHn#",
"n$l6n%n^n&n*bdn(nul?j:n)n-n+n=f{n[n]n{n}dln|n;ggn:aCg^n,n.n<n>n?n~n_oaobocodiYg6e%i7ede^dBd;oeofcXfAocogd8b-l7ohe%ccctcOaClQoioj",
"g]okolomonoobMopdwjBoqornzosoteZc=ouovdLdqown|h1lsoxg^oydNozoAjsa6oBoCm4oDoEobgIjbdgbWoFoGl4oHoIdXc?oJoKoLccd;oMcdi2dHoNlsb1oOoP",
"oQoRkoc}oSoTfpl<dwoUg+oVoWgqbGoXoYj,e1oZi>o0o1iRo2aji2h4o3gvcUgvo4o5f*fRo6bVf-o7o8a*o9o!o@o#o$o%o^o&o*o(o)jfo-o+o=o[o]ggo{o}dqo|",
"e8o;m#m>o:o,aZi)iIo.o$ajo<o>i>o?o~lBjFo_pafapbd;f;dKg^h#pca1lDc&h@pdpek-pfd0h@bLpgb.b|ggphpipjpkplpmoYbwpnpoppjFpqe]fHd;prnoonps",
"ptpuf-kKmFpvkgpwiId5hufhatodbupxpyk]aegqiPpzerpApBdjd~kEpCbHpDpEhjpepepFpGiin$cZpHdMpIpJpKpLpMpNpOpPpQhOb&pRcDc0cce%e%ccc;pSlUpT",
"m#pUpVpWpXpYn;n9cqk1pZj(p0p1p2p3p4p5p6p7fRp8p9h1b0p!f&cRp@j+kLp#gChNp$d,fXp%godxp^p&p*c3i}pHhCp(p)p-kkp+c^cJcep=f&b>c#cnp[p]p{p}",
"p|p;p:o<p,p.eei=iIgaiOoco>p<aYp>p?kMj}p~p_qab<h1qbeVggcRqcc}l%f;n$qdg[qeaGqfenk~qgqhhmqikwi-qjqkqlqmqnluqoqpqqbkmnb<qrb]hUnVqsqt",
"j-oEquelqvqwaZhpiIb7qxm3e,d+bvdLqypSfcqzanqAqBckqCm4g^qDqEqFqGqHbJqIqJj*qKh}c.p+h$qLhHf[ccqMqNqOgrpSqPaNaDaDqQjfqRqSqTb<gyqUboqV",
"aGqWa-qXqYqZi]q0cwb3kYlofvq1bwq2q3q4kxq5p2q6e%q7q8q9ckc9lNq!quc}q@q#bPdWe8e7pQgtg#q$i+q%q^i=q&q*q(q)q-gxeTq+q=q[q]ksq{q}gynnjXjK",
"e)q|m|b8q;q:q,q0q.hXa*q<q>l~brmHq?peq~kubIq_ccgfrao-i2dJkDl%enrbrch{otrdcRrea5rfaArgrhnfharirja2hDrkqsrlaDrmdtrncchMrob?nnb9a<ps",
"iBi,ptrprqrrbtbacqibmQm|d[rsrtrurvm3i)mNkhrwf]ckrxnDh1rykLf)rzfDrAkHrerBrCd0g=cYc@rDrErFrGaRrHrIfHp5rJfrajgxa-flh?j+p$gkh{rKeKcx",
"e*rLi8h#rMrNrOrPcAhvrQk4bYrRbNrSrTrUrVrWc)rXcgiRrYrZggr0n$jar1r2g7f>r3b$r4r5lDe)r6ccccb<b.b<ckpAckr7b<ccf&e%r8fPlqcke%cOr9oldqr!",
"b7l%f;gFr@r#aEr$cqr%r^k1r&r*r(r)oYr-a|r+bJi|mwggfKeRd~d0h}pGf)fAbHr=r[i:r]g9r{cVr}j7r|r;r:r,jpr.r<r>r?r~r_sasbscsdsesfd;cFj*dckM",
"cRlwbGdWsgshsim!cqsjd!i*skd=nnbaslsma,e]g8i}fPd;snsocdq<rLspihmmsqsrssstsusvswhIa9sxabsyszkXjDr5h<m~g@sAsBsCsDlpsEsFa<ckrth{n=c#",
"e!sGfRsHsIsJsisKiIbYsLh@nksMfkiHsNm|hWsOc?eXmLcksPaDg^m6sQdWsRsSsTdVsUsVo}sWaRsXnFnAsYaVd;cae%casZe%s0e%e%d;e%s1i2h1e%c:gys2qrs3",
"s4s5a3cQdIs6s7hWc]s8s9bXjFsMc#bnslp_bahmefskb^cio~i]q7s!s@n,n,dns#fRfjs$o-s%i{s^dwb_ccb|s0gub:cGcJctgtgugkb;s&s*g^s(hLcVg7c<h-cT",
"s)s-b9sSc]s+s=s[c]sjs]m>b4lUs{osqydhs}bWdldMaYd;s|s;h1dws:s,sGh}a4nSa5l$s.r^s<b$h-r8cPcwcPdwcHc-ctcIcAcscwcJfib>cns>cws?s~qLs_a5",
"g9o0r4aPtatba2tcdwa|kstdhUhWaQiStepVq(tfcutge2d;rFc2f&r9cxfithfDrBrttis)o}eKa3tjcTqrrth-a8aYcotke*cAdqcAs)p+tlcLs,tmg0g5cudMh%c$",
"tntor{fZc{tph>tqnutrs]b7hstsn~c8qyaXtttuoetvb^cktwhpccd>txjGdqtyc#aSdwtzs5dqr(tAtBrBf*lErLrlb8jItCe1dwcvc5fCtga4bFdqaccvtDl%h-bi",
"oltEtFs)tGtHa@tIiItJtKdRotjvc{bWtLc|dctMtNtObZd;tPtQh1tRtSbQrttTcmtUtVk(ffgypRjGcPcHtWc.nupIo0tXtYtZbxt0c5sWdVcAa5j]t1m3t2d5s)cB",
"t3b#t4aat5t6ayt7iIg$eet8atk}t9eesjt!sMt@t#t$c;d;tPbHckt%t^t&r5pRt*e7coa3t(t)cpcYeMt-c.oQmUt+qut=fsgkcprBott[eht]t{gkt}t|cJt;c1t:",
"cgpRt,k@t.t<t>kgtmc?t?sct~ddhTt_lii>tdbCuauband;ucbEgblvudcoueb?ufrfc]ugcuuhuiroe#ujukuecGhLulrob?umb|cXcXb,unb}gkfzcVlFh$uocBup",
"uqurusi=utuuuvhUnubvuwuxrwm@uytFuzd5uAkXuBuCqvf&uDuEuFuGc8hZuHb^e[iSuIuJuKuLuMa_uNfvuOuPj:uQr+uRa>l1aEd}uSuTuUuVuWg#ayuXfIuYb5m>",
"aEuZePksgWu0rTjdcqa9pba3cpu1pRi3oeu2czu3fyu4b6iRu5a1ccjsu6u7u8tFibu9u!uHu@u#eXn9u$q,u%u^hTaEu&u*u(h.u)lau&u8rVm!mPb5u-szu+u=bTu[",
"b{dBu]u]b]dMjdfmcPfmhVu{u}a-u|u;s}u:bEu,cLaWaGd;k@qLccu.p9u<fLdBu>u?u.u~s,fwu_u<vavbvchIvdfwveu~vehIvavfgkvgcMhIi7ciupgtvhvictcX",
"c3vjhoh>vkvla~vmcPvnfJc;g$vobpvpt2aXa2czoti6b&cksbs2f]c=aWuJhUoYePvqvroYg$nkvshob&sFg@g6bpvtd:a0vuavvva&fKvweJbEb#h%c~a8ryrTvxaE",
"c$m{oYvyvzhxvAuVh$vBbacntadwg5cqdwcLuft]cXg!vCd;uXcAckvDilq_bkj:bqvEe1jfs7vFvGfDnAa|bnaYhrhvcRs7t?cobpbpvHh%vHu,vIvCaTs7rybpazef",
"b5u,gpont)i[jdhtguvJvKvLvMvNvOvPvQoZvRvSvTh;h-ckvUaTiRrqu,b5g!scg6ryu,brvVb#vWt4vXc@vYvZv0vYjdu4a0aYfnaWgauSrLv1v2k#vmdIa[t2u,c>",
"vVh+bUilv3v4vYdzcJc?v5cok!bUa3i{g9p+d4c0u,gac7ckfmt,ccv6v7a,vWh>bFv8h<v9k#uTv!h-sFr=fPg!v@vKaWg!lkk!dph%a[c?o7s-fxv#iIhGcDlDt,cy",
"iIjvrtd3cUaEvyv$d;t|cmcTv%d,aQdcdcv^c&c5bQv&cBcav*t,ccrtcDa1bVv(cKb!tMcTh$mwcHcQc-cqcPcAv&ote(v)csnuh$cnh$cncmcnlDctcPcDcqcJc0cn",
"ccb>myb~ceh~tAv-e%cccasZcaccb<ccd;ckceccf[cccav+v=cZv[cab=cacad;ccf[f[ccf]sZcaf[f[e%e%sZv]f[cacacccccas0f[f[ccccb=casZf[e%ccb=my",
"p+v{b8cYm;cVcngucVdws)dscDh-v}gyn$fDv|ptcxh#rBcBebctb;csv;r(gyd4g0cup+c#g0g9a6v:cwiIv,v.c!c*v<c-cxv.cTmfcYcwrBt-cJv>cmc<cnnMcYb-",
"a3v?v~m>v_j*i{d0s5dWwacIhOeKa1pEfid2l%fku,l$tArde5nye&v?iBrLlEr(v?v?dqwbdPaPc5e3e5g[eKbZcudbg5dVbxcxracndbg0cYg9v&c?mwiIbxcps)h$",
"a>wce5wdwewfwgnimAwhrdwiaEwjwkwlwiwmwnwowpnyourBwqwrwsalwtgXwubOb8h-i3h@aFoVtCwvr=rGc4b2dKgXc!h%cDwwp+cKb9wxa5otcwb#r=c4aEmda3lf"
};