/* XPM */
static char *wall_4[] = {
/* columns rows colors chars-per-pixel */
"64 64 1977 2",
/* colors */
"aa c #051810",
"ab c #02120c",
"ac c #05170f",
"ad c #031610",
"ae c #05140e",
"af c #051510",
"ag c #061710",
"ah c #071610",
"ai c #091c12",
"aj c #07160f",
"ak c #04170f",
"al c #010804",
"am c #000000",
"an c #020d07",
"ao c #010e09",
"ap c #010a06",
"aq c #061810",
"ar c #02100b",
"as c #05150f",
"at c #04140d",
"au c #03100b",
"av c #05150c",
"aw c #0a1f16",
"ax c #081e15",
"ay c #06180f",
"az c #071f14",
"aA c #061910",
"aB c #071c11",
"aC c #081d13",
"aD c #05160e",
"aE c #081a12",
"aF c #091f14",
"aG c #0a1f15",
"aH c #05130d",
"aI c #06140d",
"aJ c #04140e",
"aK c #05130c",
"aL c #051811",
"aM c #051710",
"aN c #06160f",
"aO c #0a1c13",
"aP c #05140d",
"aQ c #081810",
"aR c #03110b",
"aS c #051910",
"aT c #03130e",
"aU c #03130d",
"aV c #000d09",
"aW c #01100b",
"aX c #05160f",
"aY c #04150e",
"aZ c #04160e",
"a0 c #081e14",
"a1 c #031913",
"a2 c #031811",
"a3 c #0c2418",
"a4 c #0c2417",
"a5 c #0c2619",
"a6 c #071a14",
"a7 c #051a11",
"a8 c #03120a",
"a9 c #000402",
"a! c #010b06",
"a@ c #010d08",
"a# c #081b11",
"a$ c #061610",
"a% c #0e2319",
"a^ c #0a2219",
"a& c #061d15",
"a* c #0c2317",
"a( c #051a12",
"a) c #041812",
"a- c #0b2519",
"a+ c #061911",
"a= c #091f16",
"a[ c #0a2317",
"a] c #061a11",
"a{ c #071c12",
"a} c #092217",
"a| c #0c2017",
"a; c #041911",
"a: c #081d11",
"a, c #061f13",
"a. c #071c13",
"a< c #041a11",
"a> c #092316",
"a? c #061b13",
"a~ c #071910",
"a_ c #081f16",
"ba c #031710",
"bb c #061811",
"bc c #0a2216",
"bd c #081c13",
"be c #071d14",
"bf c #0a2115",
"bg c #071b11",
"bh c #0c261a",
"bi c #0c2419",
"bj c #091b15",
"bk c #081d14",
"bl c #091e13",
"bm c #082016",
"bn c #0b2416",
"bo c #02130d",
"bp c #000101",
"bq c #000201",
"br c #020804",
"bs c #010302",
"bt c #010301",
"bu c #000401",
"bv c #000502",
"bw c #000602",
"bx c #010803",
"by c #020703",
"bz c #000100",
"bA c #000302",
"bB c #000f09",
"bC c #000400",
"bD c #0a2117",
"bE c #010501",
"bF c #010402",
"bG c #010602",
"bH c #000501",
"bI c #010502",
"bJ c #010904",
"bK c #010702",
"bL c #010703",
"bM c #010401",
"bN c #010201",
"bO c #010603",
"bP c #000301",
"bQ c #010503",
"bR c #020502",
"bS c #000603",
"bT c #000a06",
"bU c #000d0a",
"bV c #000a08",
"bW c #04110e",
"bX c #000c08",
"bY c #000e09",
"bZ c #020f0a",
"b0 c #000d08",
"b1 c #071913",
"b2 c #000b08",
"b3 c #000a05",
"b4 c #000300",
"b5 c #010b08",
"b6 c #010d0a",
"b7 c #000f0b",
"b8 c #010c08",
"b9 c #061812",
"b! c #020d09",
"b@ c #010c09",
"b# c #04130d",
"b$ c #000b07",
"b% c #021610",
"b^ c #000c07",
"b& c #010e0a",
"b* c #010e0b",
"b( c #02110d",
"b) c #03120c",
"b- c #010c07",
"b+ c #041810",
"b= c #000e0a",
"b[ c #010f0a",
"b] c #041b12",
"b{ c #03130c",
"b} c #02120b",
"b| c #010d09",
"b; c #010a07",
"b: c #0a2218",
"b, c #071e14",
"b. c #000a07",
"b< c #03160f",
"b> c #072014",
"b? c #010b09",
"b~ c #041912",
"b_ c #000907",
"ca c #01110d",
"cb c #01120d",
"cc c #000202",
"cd c #000200",
"ce c #03160d",
"cf c #061913",
"cg c #02110b",
"ch c #051c15",
"ci c #021510",
"cj c #051912",
"ck c #021a12",
"cl c #010f0b",
"cm c #092116",
"cn c #031810",
"co c #03150e",
"cp c #051c12",
"cq c #01140e",
"cr c #000f08",
"cs c #01160f",
"ct c #00120d",
"cu c #01120c",
"cv c #03180f",
"cw c #00100a",
"cx c #02150e",
"cy c #01100c",
"cz c #061d14",
"cA c #000806",
"cB c #031912",
"cC c #0a2618",
"cD c #092519",
"cE c #082115",
"cF c #03140d",
"cG c #01110c",
"cH c #00110c",
"cI c #021410",
"cJ c #072216",
"cK c #041b13",
"cL c #071f15",
"cM c #0f291b",
"cN c #01120b",
"cO c #0e251b",
"cP c #02140e",
"cQ c #02160e",
"cR c #00160c",
"cS c #051711",
"cT c #02100a",
"cU c #000503",
"cV c #020401",
"cW c #000500",
"cX c #0b2014",
"cY c #02110c",
"cZ c #03150f",
"c0 c #010c0a",
"c1 c #01150e",
"c2 c #01150d",
"c3 c #03170f",
"c4 c #03140f",
"c5 c #011009",
"c6 c #0b2819",
"c7 c #02170d",
"c8 c #092419",
"c9 c #01160d",
"c! c #021e14",
"c@ c #01120a",
"c# c #021a11",
"c$ c #011a0f",
"c% c #051c13",
"c^ c #03190e",
"c& c #061f15",
"c* c #01150c",
"c( c #09261a",
"c) c #09241a",
"c- c #02150d",
"c+ c #0c2c1b",
"c= c #061b11",
"c[ c #01170f",
"c] c #103022",
"c{ c #071e15",
"c} c #02130e",
"c| c #041610",
"c; c #01130c",
"c: c #02190e",
"c, c #0f2a1c",
"c. c #071912",
"c< c #031b11",
"c> c #0a2017",
"c? c #041a13",
"c~ c #021c12",
"c_ c #01110e",
"da c #010704",
"db c #000805",
"dc c #0d2218",
"dd c #02140c",
"de c #062015",
"df c #061c13",
"dg c #041813",
"dh c #082217",
"di c #02130c",
"dj c #092017",
"dk c #042216",
"dl c #061b12",
"dm c #051d14",
"dn c #0a2418",
"do c #030f0a",
"dp c #031a11",
"dq c #02150f",
"dr c #041b11",
"ds c #041811",
"dt c #092118",
"du c #01130e",
"dv c #092518",
"dw c #082015",
"dx c #01130d",
"dy c #061e17",
"dz c #0e271d",
"dA c #092117",
"dB c #031d14",
"dC c #113021",
"dD c #102d1f",
"dE c #0b2318",
"dF c #0d2d1c",
"dG c #091e16",
"dH c #02140d",
"dI c #000703",
"dJ c #010b07",
"dK c #0e291d",
"dL c #051d13",
"dM c #03140e",
"dN c #072116",
"dO c #061d13",
"dP c #052117",
"dQ c #02100c",
"dR c #081b13",
"dS c #050e09",
"dT c #0a1911",
"dU c #072417",
"dV c #08160f",
"dW c #0a2015",
"dX c #0a1b11",
"dY c #0a1910",
"dZ c #071b13",
"d0 c #04150d",
"d1 c #07150e",
"d2 c #07140d",
"d3 c #08130e",
"d4 c #04110a",
"d5 c #01140d",
"d6 c #0c2a1d",
"d7 c #0c2a1b",
"d8 c #061e13",
"d9 c #021811",
"d! c #0f301e",
"d@ c #163625",
"d# c #0a241a",
"d$ c #041b14",
"d% c #0d281c",
"d^ c #071f16",
"d& c #102e20",
"d* c #123222",
"d( c #031711",
"d) c #103021",
"d- c #0e261a",
"d+ c #0a2217",
"d= c #133623",
"d[ c #021911",
"d] c #082519",
"d{ c #02170e",
"d} c #031a13",
"d| c #000706",
"d; c #081c11",
"d: c #091e14",
"d, c #0c1f15",
"d. c #092417",
"d< c #072115",
"d> c #0b261a",
"d? c #091f13",
"d~ c #0b2017",
"d_ c #0e2518",
"ea c #0c2217",
"eb c #103425",
"ec c #0e2418",
"ed c #102b1d",
"ee c #0b2217",
"ef c #0d2215",
"eg c #0a1510",
"eh c #092719",
"ei c #041e0f",
"ej c #102e21",
"ek c #153824",
"el c #051a10",
"em c #143423",
"en c #052017",
"eo c #031911",
"ep c #031c11",
"eq c #021d13",
"er c #03160e",
"es c #0d261a",
"et c #032112",
"eu c #183a29",
"ev c #102a1f",
"ew c #020c08",
"ex c #000906",
"ey c #010905",
"ez c #0e2e1c",
"eA c #08291b",
"eB c #0d271b",
"eC c #011d11",
"eD c #031b14",
"eE c #052419",
"eF c #0b271a",
"eG c #133325",
"eH c #123223",
"eI c #163626",
"eJ c #1c4430",
"eK c #113624",
"eL c #20412e",
"eM c #163a29",
"eN c #102d1d",
"eO c #254936",
"eP c #153927",
"eQ c #29503c",
"eR c #133524",
"eS c #0d281b",
"eT c #183e2c",
"eU c #143223",
"eV c #193223",
"eW c #132c21",
"eX c #0d2519",
"eY c #0c1c13",
"eZ c #123324",
"e0 c #041f16",
"e1 c #143626",
"e2 c #163c27",
"e3 c #153829",
"e4 c #0c291c",
"e5 c #1c3f2d",
"e6 c #163726",
"e7 c #02170f",
"e8 c #031f15",
"e9 c #031910",
"e! c #051b13",
"e@ c #031c13",
"e# c #0e2d1c",
"e$ c #0e2419",
"e% c #122a1e",
"e^ c #0e2b1d",
"e& c #0d2d1d",
"e* c #010d07",
"e( c #000702",
"e) c #061c12",
"e- c #163926",
"e+ c #051e13",
"e= c #031f13",
"e[ c #143b27",
"e] c #021810",
"e{ c #06160e",
"e} c #092016",
"e| c #0b291a",
"e; c #072315",
"e: c #062014",
"e, c #071b12",
"e. c #0e2f1e",
"e< c #163c29",
"e> c #0a2919",
"e? c #0e2c1d",
"e~ c #092317",
"e_ c #0b2b1b",
"fa c #143325",
"fb c #0f281d",
"fc c #0a2214",
"fd c #0a2116",
"fe c #0c1711",
"ff c #041913",
"fg c #19442e",
"fh c #021b12",
"fi c #041d15",
"fj c #032015",
"fk c #021c13",
"fl c #031a12",
"fm c #1f3e2c",
"fn c #1a3d2a",
"fo c #0d2a1c",
"fp c #0c291b",
"fq c #031e16",
"fr c #031c14",
"fs c #041e14",
"ft c #03190f",
"fu c #02160f",
"fv c #0b2618",
"fw c #142c1e",
"fx c #203e2b",
"fy c #173723",
"fz c #072015",
"fA c #1a3e2d",
"fB c #031b13",
"fC c #0c2d1f",
"fD c #09301f",
"fE c #010604",
"fF c #092315",
"fG c #082013",
"fH c #020300",
"fI c #010100",
"fJ c #163728",
"fK c #102b1f",
"fL c #0c1a11",
"fM c #052318",
"fN c #052819",
"fO c #041c13",
"fP c #042017",
"fQ c #062619",
"fR c #0d291c",
"fS c #133421",
"fT c #0e2a1d",
"fU c #051f17",
"fV c #082419",
"fW c #052317",
"fX c #032315",
"fY c #03150d",
"fZ c #082416",
"f0 c #092115",
"f1 c #183826",
"f2 c #051b11",
"f3 c #030806",
"f4 c #0c1f14",
"f5 c #06251a",
"f6 c #000804",
"f7 c #072017",
"f8 c #061a12",
"f9 c #082116",
"f! c #05281b",
"f@ c #052517",
"f# c #0c2f21",
"f$ c #051f15",
"f% c #041f17",
"f^ c #123624",
"f& c #010300",
"f* c #000704",
"f( c #000904",
"f) c #000905",
"f- c #000b06",
"f+ c #143726",
"f= c #0c1e14",
"f[ c #011710",
"f] c #0a2b20",
"f{ c #061f16",
"f} c #062519",
"f| c #031e12",
"f; c #041d13",
"f: c #153724",
"f, c #1d4231",
"f. c #0e3122",
"f< c #041c12",
"f> c #1a3c2b",
"f? c #052116",
"f~ c #062417",
"f_ c #042114",
"ga c #133b2a",
"gb c #143322",
"gc c #1f3f2e",
"gd c #020e0a",
"ge c #204335",
"gf c #030b09",
"gg c #05120d",
"gh c #03110c",
"gi c #04140f",
"gj c #062a1c",
"gk c #092d1e",
"gl c #011810",
"gm c #041e15",
"gn c #0b2e1c",
"go c #081f15",
"gp c #00120c",
"gq c #091c14",
"gr c #02140f",
"gs c #02120e",
"gt c #041a12",
"gu c #26523c",
"gv c #0f2f20",
"gw c #08150f",
"gx c #00130c",
"gy c #143926",
"gz c #072016",
"gA c #062016",
"gB c #06251b",
"gC c #062116",
"gD c #092a1b",
"gE c #0b2c1e",
"gF c #072117",
"gG c #08261b",
"gH c #031f14",
"gI c #01180e",
"gJ c #1b412e",
"gK c #051c14",
"gL c #061c14",
"gM c #082b1c",
"gN c #09291c",
"gO c #0f2c1f",
"gP c #213f2c",
"gQ c #183124",
"gR c #628168",
"gS c #496950",
"gT c #43634b",
"gU c #3a5a46",
"gV c #45644d",
"gW c #314d37",
"gX c #314c3c",
"gY c #3a5742",
"gZ c #3b5542",
"g0 c #2c4434",
"g1 c #3e5c48",
"g2 c #060e08",
"g3 c #113928",
"g4 c #0c2a1c",
"g5 c #103323",
"g6 c #0d301d",
"g7 c #0a2417",
"g8 c #0b2418",
"g9 c #0b2317",
"g! c #091d15",
"g@ c #0b1c14",
"g# c #0d2618",
"g$ c #0a1f14",
"g% c #0b2116",
"g^ c #081e16",
"g& c #081c14",
"g* c #010706",
"g( c #1e4b34",
"g) c #143525",
"g- c #09170f",
"g+ c #072718",
"g= c #08271c",
"g[ c #1c402b",
"g] c #051b12",
"g{ c #072219",
"g} c #07251b",
"g| c #051e14",
"g; c #173c2a",
"g: c #143e28",
"g, c #051e15",
"g. c #072b1c",
"g< c #051f14",
"g> c #132a1e",
"g? c #22422f",
"g~ c #1f3b2a",
"g_ c #477e5e",
"ha c #11281a",
"hb c #12271b",
"hc c #13251b",
"hd c #102519",
"he c #1b3927",
"hf c #12251b",
"hg c #15271b",
"hh c #1a3322",
"hi c #132619",
"hj c #1d3627",
"hk c #040705",
"hl c #07251a",
"hm c #0a2a1d",
"hn c #0e3624",
"ho c #020706",
"hp c #153f29",
"hq c #11291c",
"hr c #102c1e",
"hs c #0c241a",
"ht c #0c251a",
"hu c #153121",
"hv c #153925",
"hw c #1c3f2b",
"hx c #0c2b1c",
"hy c #183726",
"hz c #183c29",
"hA c #163324",
"hB c #081c15",
"hC c #091f15",
"hD c #28523c",
"hE c #133123",
"hF c #091510",
"hG c #042116",
"hH c #082c1e",
"hI c #254d36",
"hJ c #1e412d",
"hK c #062217",
"hL c #062318",
"hM c #07261b",
"hN c #183e29",
"hO c #204932",
"hP c #0e2b1f",
"hQ c #01140c",
"hR c #052216",
"hS c #051e16",
"hT c #08251a",
"hU c #153828",
"hV c #173423",
"hW c #1e3f2c",
"hX c #1c3626",
"hY c #356b4a",
"hZ c #2c4b3a",
"h0 c #294431",
"h1 c #43674d",
"h2 c #42664b",
"h3 c #375640",
"h4 c #375a40",
"h5 c #47684e",
"h6 c #406249",
"h7 c #3e644b",
"h8 c #1b3124",
"h9 c #020302",
"h! c #123928",
"h@ c #031b12",
"h# c #052217",
"h$ c #062419",
"h% c #020704",
"h^ c #133c27",
"h& c #082014",
"h* c #04130e",
"h( c #0d291a",
"h) c #33684d",
"h- c #081710",
"h+ c #021710",
"h= c #29563a",
"h[ c #193e2b",
"h] c #1b3f2b",
"h{ c #183f2b",
"h} c #042217",
"h| c #072419",
"h; c #062117",
"h: c #092a1e",
"h, c #143724",
"h. c #153c29",
"h< c #092a1d",
"h> c #052016",
"h? c #051f16",
"h~ c #041f14",
"h_ c #294834",
"ia c #1a3526",
"ib c #39694d",
"ic c #375c46",
"id c #162419",
"ie c #18281c",
"if c #192b1e",
"ig c #142218",
"ih c #1d3021",
"ii c #131f16",
"ij c #131e15",
"ik c #16241a",
"il c #162d1f",
"im c #020503",
"in c #08281a",
"io c #0b2e1e",
"ip c #153e29",
"iq c #123a26",
"ir c #0a2619",
"is c #0c2016",
"it c #000504",
"iu c #1b3729",
"iv c #132d1f",
"iw c #0d261b",
"ix c #183627",
"iy c #133020",
"iz c #1b3d30",
"iA c #051d15",
"iB c #0f2619",
"iC c #010906",
"iD c #25533b",
"iE c #153a29",
"iF c #0c1d14",
"iG c #082c1d",
"iH c #123925",
"iI c #183c2a",
"iJ c #214632",
"iK c #1f4631",
"iL c #072319",
"iM c #082619",
"iN c #08281c",
"iO c #0d2d1e",
"iP c #062018",
"iQ c #032216",
"iR c #103324",
"iS c #0b281a",
"iT c #042317",
"iU c #112e20",
"iV c #183524",
"iW c #1a3626",
"iX c #2e6048",
"iY c #335e44",
"iZ c #284634",
"i0 c #18261b",
"i1 c #17271c",
"i2 c #213727",
"i3 c #18261a",
"i4 c #152318",
"i5 c #121e15",
"i6 c #132017",
"i7 c #162e1f",
"i8 c #082518",
"i9 c #0c3523",
"i! c #062216",
"i@ c #123122",
"i# c #124229",
"i$ c #010504",
"i% c #0c2519",
"i^ c #0e291b",
"i& c #132e21",
"i* c #0e281b",
"i( c #0b2219",
"i) c #112b1d",
"i- c #10261c",
"i+ c #376a51",
"i= c #113225",
"i[ c #0c1c15",
"i] c #011510",
"i{ c #05271a",
"i} c #042117",
"i| c #173727",
"i; c #092f1c",
"i: c #153a27",
"i, c #072418",
"i. c #06271a",
"i< c #0a2b1e",
"i> c #08271b",
"i? c #041f15",
"i~ c #0a2519",
"i_ c #0c2b1d",
"ja c #052415",
"jb c #09271b",
"jc c #294b36",
"jd c #21402d",
"je c #214e37",
"jf c #306044",
"jg c #294436",
"jh c #1a2a1e",
"ji c #0e1c12",
"jj c #18291d",
"jk c #162219",
"jl c #18261c",
"jm c #16251a",
"jn c #1b2c1e",
"jo c #182b1f",
"jp c #010202",
"jq c #082d1e",
"jr c #062218",
"js c #092a1c",
"jt c #133b28",
"ju c #071a13",
"jv c #0a1f12",
"jw c #010907",
"jx c #112c1e",
"jy c #0e281a",
"jz c #143625",
"jA c #0c2318",
"jB c #0f2a1e",
"jC c #102e1d",
"jD c #0a261a",
"jE c #133624",
"jF c #0a2215",
"jG c #386d52",
"jH c #0f3022",
"jI c #0d1c14",
"jJ c #295139",
"jK c #1f4632",
"jL c #1c462f",
"jM c #113120",
"jN c #041c11",
"jO c #062317",
"jP c #0c2e1e",
"jQ c #062219",
"jR c #143725",
"jS c #0d2e1d",
"jT c #21422f",
"jU c #193224",
"jV c #030804",
"jW c #38674b",
"jX c #233f2f",
"jY c #121d15",
"jZ c #101d13",
"j0 c #132217",
"j1 c #132016",
"j2 c #18271b",
"j3 c #162319",
"j4 c #1e2d23",
"j5 c #122319",
"j6 c #072b1b",
"j7 c #0a281c",
"j8 c #0d2c20",
"j9 c #000604",
"j! c #16422c",
"j@ c #0b2719",
"j# c #081b12",
"j$ c #0f2519",
"j% c #020605",
"j^ c #153323",
"j& c #0f281b",
"j* c #153928",
"j( c #0d271a",
"j) c #122f1e",
"j- c #112d1e",
"j+ c #153524",
"j= c #0b261c",
"j[ c #133724",
"j] c #102719",
"j{ c #37654e",
"j} c #183828",
"j| c #0d1e15",
"j; c #051a14",
"j: c #052418",
"j, c #204933",
"j. c #1c422c",
"j< c #062319",
"j> c #07261a",
"j? c #0f3020",
"j~ c #17402d",
"j_ c #06281c",
"ka c #0d2b1b",
"kb c #0a2f20",
"kc c #103422",
"kd c #22432e",
"ke c #1c3a27",
"kf c #1b3c28",
"kg c #417a55",
"kh c #213c2d",
"ki c #16261a",
"kj c #17261b",
"kk c #446e4f",
"kl c #18281d",
"km c #15241a",
"kn c #1d3928",
"ko c #032114",
"kp c #0f3322",
"kq c #09281c",
"kr c #0e3522",
"ks c #18442d",
"kt c #091d14",
"ku c #153c2a",
"kv c #0a2318",
"kw c #123525",
"kx c #0b2419",
"ky c #112b1e",
"kz c #183929",
"kA c #163424",
"kB c #193e2d",
"kC c #0b281c",
"kD c #18402b",
"kE c #102a1c",
"kF c #417b5d",
"kG c #163829",
"kH c #0a1611",
"kI c #01120e",
"kJ c #072c1c",
"kK c #072317",
"kL c #072519",
"kM c #07281b",
"kN c #082318",
"kO c #163e2c",
"kP c #1d432e",
"kQ c #0e3423",
"kR c #072c1a",
"kS c #062118",
"kT c #0e3321",
"kU c #1b3827",
"kV c #264431",
"kW c #10271b",
"kX c #396e4f",
"kY c #203e2d",
"kZ c #18271c",
"k0 c #08160d",
"k1 c #050f07",
"k2 c #426349",
"k3 c #0d1811",
"k4 c #17241a",
"k5 c #213628",
"k6 c #142a1b",
"k7 c #030705",
"k8 c #0d3123",
"k9 c #010805",
"k! c #143c28",
"k@ c #0a281a",
"k# c #0b1f15",
"k$ c #0e281c",
"k% c #112e1f",
"k^ c #0a2518",
"k& c #163c28",
"k* c #122d20",
"k( c #153826",
"k) c #153726",
"k- c #0d281d",
"k+ c #163725",
"k= c #0e2519",
"k[ c #549072",
"k] c #153e2a",
"k{ c #0b1911",
"k} c #183e2b",
"k| c #0c3d2c",
"k; c #052519",
"k: c #032217",
"k, c #1b422e",
"k. c #274c38",
"k< c #2b543e",
"k> c #06281a",
"k? c #052518",
"k~ c #09291d",
"k_ c #062115",
"la c #234531",
"lb c #244330",
"lc c #203d2c",
"ld c #2a6245",
"le c #273e30",
"lf c #141f17",
"lg c #19261d",
"lh c #497053",
"li c #020604",
"lj c #355440",
"lk c #0b0f0c",
"ll c #16271b",
"lm c #2d4938",
"ln c #041d14",
"lo c #01110a",
"lp c #062c1c",
"lq c #113927",
"lr c #123b27",
"ls c #010101",
"lt c #0c2a1e",
"lu c #04180f",
"lv c #092418",
"lw c #061b14",
"lx c #173d29",
"ly c #0e2d1f",
"lz c #285e46",
"lA c #173a29",
"lB c #0b1b12",
"lC c #03281b",
"lD c #06241a",
"lE c #062a1d",
"lF c #05281a",
"lG c #0d2e1e",
"lH c #1d412e",
"lI c #234a35",
"lJ c #173828",
"lK c #244e39",
"lL c #031d13",
"lM c #133021",
"lN c #03170e",
"lO c #092e1e",
"lP c #224130",
"lQ c #274834",
"lR c #294936",
"lS c #386e4d",
"lT c #254432",
"lU c #152218",
"lV c #0d1710",
"lW c #40674a",
"lX c #45684f",
"lY c #3c5f47",
"lZ c #38543f",
"l0 c #182a1d",
"l1 c #0d1c11",
"l2 c #14291c",
"l3 c #021d11",
"l4 c #093121",
"l5 c #042316",
"l6 c #144029",
"l7 c #082316",
"l8 c #1c3d2c",
"l9 c #1c412e",
"l! c #1f4832",
"l@ c #0f3221",
"l# c #2c553c",
"l$ c #2f563f",
"l% c #28553d",
"l^ c #27543a",
"l& c #255238",
"l* c #143524",
"l( c #3f785c",
"l) c #103322",
"l- c #0e2017",
"l+ c #00140f",
"l= c #082f1e",
"l[ c #072318",
"l] c #0a2a1e",
"l{ c #1d4931",
"l} c #082a1e",
"l| c #031f16",
"l; c #1a462e",
"l: c #062d1c",
"l, c #052818",
"l. c #1c452f",
"l< c #19402b",
"l> c #061e14",
"l? c #062418",
"l~ c #0e3625",
"l_ c #113222",
"ma c #1e442f",
"mb c #264933",
"mc c #1e3c2c",
"md c #1f4630",
"me c #284633",
"mf c #131e16",
"mg c #060e09",
"mh c #3c6045",
"mi c #35523e",
"mj c #446d50",
"mk c #396146",
"ml c #0f1d13",
"mm c #162b1f",
"mn c #042415",
"mo c #0c3425",
"mp c #062b1d",
"mq c #0f3823",
"mr c #0b2015",
"ms c #0d2b1c",
"mt c #0e2a1a",
"mu c #153626",
"mv c #133223",
"mw c #173124",
"mx c #0f2d1e",
"my c #122c1f",
"mz c #143222",
"mA c #397357",
"mB c #1b402e",
"mC c #103624",
"mD c #092d1f",
"mE c #1d452f",
"mF c #08291d",
"mG c #1d482f",
"mH c #072517",
"mI c #0a271c",
"mJ c #19412a",
"mK c #052617",
"mL c #031a10",
"mM c #0c2e1f",
"mN c #0b2517",
"mO c #1a3f2a",
"mP c #305039",
"mQ c #39684b",
"mR c #3d5944",
"mS c #314d39",
"mT c #3e5a42",
"mU c #2d4633",
"mV c #304a38",
"mW c #09110b",
"mX c #152117",
"mY c #172a1e",
"mZ c #030504",
"m0 c #113724",
"m1 c #0e271b",
"m2 c #143624",
"m3 c #193b29",
"m4 c #163022",
"m5 c #143022",
"m6 c #10291d",
"m7 c #183927",
"m8 c #1a3b28",
"m9 c #0f2a1d",
"m! c #020e09",
"m@ c #3e7456",
"m# c #173929",
"m$ c #091810",
"m% c #08271a",
"m^ c #123827",
"m& c #173f29",
"m* c #082319",
"m( c #0b2a1c",
"m) c #1d442f",
"m- c #1e4732",
"m+ c #19412b",
"m= c #041f13",
"m[ c #052718",
"m] c #0f321f",
"m{ c #0f2e21",
"m} c #113121",
"m| c #1b3b29",
"m; c #203f2d",
"m: c #0f1e16",
"m, c #427052",
"m. c #213d2c",
"m< c #101a11",
"m> c #19271b",
"m? c #111f14",
"m~ c #101b12",
"m_ c #142016",
"na c #223929",
"nb c #0e2016",
"nc c #041710",
"nd c #092d1d",
"ne c #0c2c1d",
"nf c #143a27",
"ng c #010200",
"nh c #06150f",
"ni c #143122",
"nj c #040f0b",
"nk c #030b08",
"nl c #1e4632",
"nm c #05150e",
"nn c #040e0a",
"no c #123022",
"np c #477f60",
"nq c #123224",
"nr c #042015",
"ns c #082218",
"nt c #072617",
"nu c #072518",
"nv c #1e4931",
"nw c #082418",
"nx c #07241a",
"ny c #0d3122",
"nz c #21412d",
"nA c #12271a",
"nB c #081811",
"nC c #4e775b",
"nD c #20382a",
"nE c #17251c",
"nF c #1b2a1e",
"nG c #162519",
"nH c #142318",
"nI c #0f1812",
"nJ c #1a291d",
"nK c #19281d",
"nL c #18291c",
"nM c #132a1b",
"nN c #01160c",
"nO c #113423",
"nP c #042214",
"nQ c #0e3020",
"nR c #103824",
"nS c #09281a",
"nT c #07170f",
"nU c #193627",
"nV c #010606",
"nW c #214c34",
"nX c #19402a",
"nY c #0b251a",
"nZ c #173b28",
"n0 c #28553f",
"n1 c #123323",
"n2 c #08150e",
"n3 c #143a26",
"n4 c #09251a",
"n5 c #07291c",
"n6 c #031e15",
"n7 c #062518",
"n8 c #183f2e",
"n9 c #081f17",
"n! c #203d2b",
"n@ c #395844",
"n# c #4a7658",
"n$ c #284030",
"n% c #19291c",
"n^ c #15271a",
"n& c #142217",
"n* c #121c14",
"n( c #213426",
"n) c #0e2217",
"n- c #215137",
"n+ c #123b26",
"n= c #0c2117",
"n[ c #1e4c36",
"n] c #29553e",
"n{ c #153725",
"n} c #102c1f",
"n| c #173e29",
"n; c #0d291b",
"n: c #020b07",
"n, c #407056",
"n. c #113623",
"n< c #091710",
"n> c #285639",
"n? c #082c1c",
"n~ c #0b2f1e",
"n_ c #19422c",
"oa c #1c422d",
"ob c #123423",
"oc c #07281a",
"od c #082a1c",
"oe c #153825",
"of c #052118",
"og c #244530",
"oh c #152b1e",
"oi c #1a3927",
"oj c #0c2319",
"ok c #547d60",
"ol c #233a2c",
"om c #0e1c11",
"on c #1a271d",
"oo c #0e1710",
"op c #223427",
"oq c #1c2a1f",
"or c #0f2318",
"os c #072217",
"ot c #19402f",
"ou c #020a08",
"ov c #0e3421",
"ow c #092014",
"ox c #163322",
"oy c #205139",
"oz c #26513c",
"oA c #0f2d1f",
"oB c #173928",
"oC c #44785b",
"oD c #193d2a",
"oE c #06120c",
"oF c #021c14",
"oG c #08281b",
"oH c #1d4831",
"oI c #06261a",
"oJ c #042518",
"oK c #234b33",
"oL c #1b432d",
"oM c #042014",
"oN c #0e3322",
"oO c #1d3f2b",
"oP c #476f52",
"oQ c #030d07",
"oR c #152f21",
"oS c #06140e",
"oT c #436e53",
"oU c #2f4c38",
"oV c #1b2c20",
"oW c #152417",
"oX c #17291a",
"oY c #1c2e1f",
"oZ c #2e3d30",
"o0 c #162a1e",
"o1 c #052015",
"o2 c #071d15",
"o3 c #113524",
"o4 c #1d412c",
"o5 c #103622",
"o6 c #123121",
"o7 c #1d4732",
"o8 c #0f2e1f",
"o9 c #173b29",
"o! c #061e15",
"o@ c #0d291d",
"o# c #122e20",
"o$ c #02110a",
"o% c #2c5a41",
"o^ c #204c32",
"o& c #1c402d",
"o* c #062818",
"o( c #052619",
"o) c #09281d",
"o- c #072018",
"o+ c #062416",
"o= c #052218",
"o[ c #113122",
"o] c #062719",
"o{ c #1e4730",
"o} c #173825",
"o| c #22412e",
"o; c #254232",
"o: c #132c1f",
"o, c #10261b",
"o. c #426e51",
"o< c #13261a",
"o> c #030905",
"o? c #050e07",
"o~ c #030e06",
"o_ c #030604",
"pa c #0d2115",
"pb c #092c1d",
"pc c #1b452c",
"pd c #081a11",
"pe c #112f1f",
"pf c #19442f",
"pg c #102b1e",
"ph c #071d13",
"pi c #29533e",
"pj c #193a2a",
"pk c #092218",
"pl c #0f2b1d",
"pm c #123021",
"pn c #03100a",
"po c #437156",
"pp c #133324",
"pq c #081910",
"pr c #0d3121",
"ps c #082d1c",
"pt c #0d311f",
"pu c #06271b",
"pv c #235134",
"pw c #062017",
"px c #072218",
"py c #0b2518",
"pz c #133625",
"pA c #0d321e",
"pB c #193324",
"pC c #294533",
"pD c #05160d",
"pE c #0f2419",
"pF c #1e3729",
"pG c #121e17",
"pH c #050b09",
"pI c #050d08",
"pJ c #070e09",
"pK c #040a06",
"pL c #080f0a",
"pM c #08110b",
"pN c #09100b",
"pO c #060c08",
"pP c #060d07",
"pQ c #070d0a",
"pR c #0f3320",
"pS c #0b1e15",
"pT c #0a2319",
"pU c #25503a",
"pV c #153525",
"pW c #143727",
"pX c #183b29",
"pY c #020a07",
"pZ c #407459",
"p0 c #143424",
"p1 c #07130d",
"p2 c #092b1c",
"p3 c #082b1b",
"p4 c #1a4930",
"p5 c #05271b",
"p6 c #0d3120",
"p7 c #061c15",
"p8 c #072719",
"p9 c #153c28",
"p! c #08251b",
"p@ c #214630",
"p# c #21432e",
"p$ c #436a50",
"p% c #1f3a2b",
"p^ c #010400",
"p& c #020805",
"p* c #0c2b1b",
"p( c #082b1e",
"p) c #000403",
"p- c #133925",
"p+ c #0a2517",
"p= c #0a1d14",
"p[ c #25553c",
"p] c #0a271a",
"p{ c #102d21",
"p} c #123123",
"p| c #0e291c",
"p; c #204431",
"p: c #030d09",
"p, c #43785c",
"p. c #0a1a12",
"p< c #27563b",
"p> c #042419",
"p? c #09281b",
"p~ c #02190f",
"p_ c #041910",
"qa c #021f13",
"qb c #1a402b",
"qc c #22432f",
"qd c #254430",
"qe c #04100a",
"qf c #01110b",
"qg c #0c2c1c",
"qh c #041a10",
"qi c #020b08",
"qj c #0b2c1c",
"qk c #1c4933",
"ql c #153424",
"qm c #092318",
"qn c #112e21",
"qo c #193c2c",
"qp c #030805",
"qq c #060f0a",
"qr c #020705",
"qs c #224c35",
"qt c #1f4a35",
"qu c #193624",
"qv c #1d402c",
"qw c #396448",
"qx c #1f3727",
"qy c #112319",
"qz c #01190f",
"qA c #143823",
"qB c #0c2d1b",
"qC c #16422e",
"qD c #0c2b1e",
"qE c #306046",
"qF c #132e20",
"qG c #153425",
"qH c #040a07",
"qI c #06100a",
"qJ c #407658",
"qK c #0d1d15",
"qL c #07281c",
"qM c #09271c",
"qN c #193f29",
"qO c #041b15",
"qP c #143623",
"qQ c #1d3f2c",
"qR c #0a281b",
"qS c #08261c",
"qT c #0b2b1d",
"qU c #011a12",
"qV c #21432f",
"qW c #203b2a",
"qX c #010303",
"qY c #02130b",
"qZ c #04120d",
"q0 c #010e06",
"q1 c #01100a",
"q2 c #123422",
"q3 c #163525",
"q4 c #0a251a",
"q5 c #24553d",
"q6 c #11291d",
"q7 c #0a2118",
"q8 c #3f5b46",
"q9 c #122118",
"q! c #306347",
"q@ c #21462e",
"q# c #153623",
"q$ c #1a3c2a",
"q% c #05241a",
"q^ c #052414",
"q& c #020a06",
"q* c #1e3e2c",
"q( c #264832",
"q) c #193022",
"q- c #07150d",
"q+ c #072619",
"q= c #123421",
"q[ c #0a2014",
"q] c #051911",
"q{ c #030c09",
"q} c #123926",
"q| c #153224",
"q; c #0b261b",
"q: c #205037",
"q, c #132d21",
"q. c #132b1d",
"q< c #143121",
"q> c #071e16",
"q? c #316648",
"q~ c #0d2a1d",
"q_ c #07140e",
"ra c #133323",
"rb c #0f3522",
"rc c #1c4934",
"rd c #1d3f2e",
"re c #072215",
"rf c #091a10",
"rg c #183323",
"rh c #1d3a29",
"ri c #060c09",
"rj c #08261a",
"rk c #0b1c13",
"rl c #0d2b1e",
"rm c #123322",
"rn c #163824",
"ro c #010a08",
"rp c #18402c",
"rq c #153322",
"rr c #27573a",
"rs c #172f22",
"rt c #193725",
"ru c #082017",
"rv c #07180e",
"rw c #306349",
"rx c #092a1a",
"ry c #1d402e",
"rz c #1f422f",
"rA c #2a4e39",
"rB c #1c3b29",
"rC c #04100c",
"rD c #244834",
"rE c #010a05",
"rF c #1e4533",
"rG c #072118",
"rH c #173c29",
"rI c #122e21",
"rJ c #0b2b1e",
"rK c #153827",
"rL c #02180f",
"rM c #032116",
"rN c #103122",
"rO c #0d251a",
"rP c #132d20",
"rQ c #1d4a31",
"rR c #152d21",
"rS c #132c20",
"rT c #2b5944",
"rU c #0a1a11",
"rV c #1d4330",
"rW c #01150f",
"rX c #0f2819",
"rY c #061e16",
"rZ c #042016",
"r0 c #0a2718",
"r1 c #082719",
"r2 c #030d08",
"r3 c #010e07",
"r4 c #020f07",
"r5 c #01180f",
"r6 c #1a3b27",
"r7 c #042418",
"r8 c #133222",
"r9 c #0c2215",
"r! c #0e3121",
"r@ c #225337",
"r# c #152e21",
"r$ c #11281c",
"r% c #173626",
"r^ c #35634a",
"r& c #122f21",
"r* c #021711",
"r( c #0a2819",
"r) c #041d12",
"r- c #07291d",
"r+ c #092619",
"r= c #163a26",
"r[ c #082517",
"r] c #1b4831",
"r{ c #07271a",
"r} c #274b34",
"r| c #0b2c20",
"r; c #0b2f1f",
"r: c #0d2a1b",
"r, c #082e21",
"r. c #021b11",
"r< c #0f3421",
"r> c #0f261b",
"r? c #0a231a",
"r~ c #215036",
"r_ c #1d3d2b",
"sa c #0d2117",
"sb c #153122",
"sc c #081d15",
"sd c #0b291c",
"se c #224e37",
"sf c #102a1e",
"sg c #0a1a13",
"sh c #021d15",
"si c #01130b",
"sj c #03120d",
"sk c #021611",
"sl c #0a291a",
"sm c #133726",
"sn c #041e16",
"so c #11301f",
"sp c #021a0f",
"sq c #2c5139",
"sr c #0c3121",
"ss c #123723",
"st c #021d14",
"su c #031b10",
"sv c #04180e",
"sw c #0c2115",
"sx c #0d2c1d",
"sy c #1b462d",
"sz c #04160f",
"sA c #142c1f",
"sB c #112f20",
"sC c #071a12",
"sD c #336247",
"sE c #133526",
"sF c #00140e",
"sG c #041611",
"sH c #0f2719",
"sI c #052114",
"sJ c #294f37",
"sK c #0c271a",
"sL c #021910",
"sM c #11261b",
"sN c #1b422d",
"sO c #234331",
"sP c #091c11",
"sQ c #04170e",
"sR c #052319",
"sS c #062618",
"sT c #000605",
"sU c #071d12",
"sV c #082117",
"sW c #010908",
"sX c #0d2b1d",
"sY c #082317",
"sZ c #204930",
"s0 c #122b1e",
"s1 c #0b1d13",
"s2 c #29513b",
"s3 c #0c271c",
"s4 c #07160e",
"s5 c #133422",
"s6 c #173824",
"s7 c #051b14",
"s8 c #294d35",
"s9 c #041c14",
"s! c #020702",
"s@ c #031c12",
"s# c #0f311e",
"s$ c #092015",
"s% c #010707",
"s^ c #103020",
"s& c #061f14",
"s* c #173725",
"s( c #142d1f",
"s) c #152d1f",
"s- c #071e13",
"s+ c #0e2d1e",
"s= c #0b1f13",
"s[ c #2a533f",
"s] c #173a26",
"s{ c #102f1f",
"s} c #041d11",
"s| c #102f20",
"s; c #00100c",
"s: c #01160e",
"s, c #2c533a",
"s. c #011811",
"s< c #031e14",
"s> c #103221",
"s? c #0e2e1d",
"s~ c #061a10",
"s_ c #0f291d",
"ta c #264735",
"tb c #0b1d14",
"tc c #0a1c14",
"td c #0d2418",
"te c #0d2217",
"tf c #315e47",
"tg c #102f1d",
"th c #02120a",
"ti c #143221",
"tj c #011910",
"tk c #2a4f3c",
"tl c #010f09",
"tm c #112b20",
"tn c #091c15",
"to c #163927",
"tp c #0f271a",
"tq c #1c3928",
"tr c #163222",
"ts c #010806",
"tt c #254f3b",
"tu c #0c281b",
"tv c #0b1811",
"tw c #10281a",
"tx c #1a3b29",
"ty c #153423",
"tz c #0b291b",
"tA c #0c2f1e",
"tB c #112f21",
"tC c #06261b",
"tD c #122e1e",
"tE c #183224",
"tF c #0f281c",
"tG c #112d1d",
"tH c #0f2c1e",
"tI c #071a11",
"tJ c #29563f",
"tK c #0b1810",
"tL c #112f1e",
"tM c #032016",
"tN c #01190d",
"tO c #123825",
"tP c #00140c",
"tQ c #021c11",
"tR c #020d0a",
"tS c #010705",
"tT c #224430",
"tU c #0f281a",
"tV c #345e46",
"tW c #0a2016",
"tX c #0b160f",
"tY c #00110b",
"tZ c #061d12",
"t0 c #183a28",
"t1 c #122a1d",
"t2 c #02120d",
"t3 c #091a13",
"t4 c #062114",
"t5 c #001009",
"t6 c #193428",
"t7 c #00120b",
"t8 c #05140f",
"t9 c #051f12",
"t! c #0c2518",
"t@ c #10251a",
"t# c #152a1f",
"t$ c #122b20",
"t% c #142b1d",
"t^ c #0d2317",
"t& c #183424",
"t* c #0f2e20",
"t( c #162b20",
"t) c #162f21",
"t- c #0d241a",
"t+ c #081f14",
"t= c #224935",
"t[ c #0f271b",
"t] c #09130c",
"t{ c #081e11",
"t} c #091e15",
"t| c #05180f",
"t; c #00150e",
"t: c #062215",
"t, c #00110d",
"t. c #04120b",
"t< c #020f09",
"t> c #00150f",
"t? c #172f25",
"t~ c #000e08",
"t_ c #0d2017",
"ua c #0e241a",
"ub c #0d2416",
"uc c #0f231a",
"ud c #0b2016",
"ue c #0d2517",
"uf c #2b513e",
"ug c #0b2018",
"uh c #08140f",
"ui c #010403",
"uj c #07120b",
"uk c #010a04",
"ul c #000705",
"um c #020f0b",
"un c #1f3c2b",
"uo c #2c4534",
"up c #1d3828",
"uq c #264732",
"ur c #1c3c2a",
"us c #102d20",
"ut c #2b4c38",
"uu c #193526",
"uv c #204330",
"uw c #284b35",
"ux c #264533",
"uy c #122b1c",
"uz c #03100c",
"uA c #0e2318",
"uB c #14241b",
"uC c #183625",
"uD c #1f3c2c",
"uE c #25432d",
"uF c #163423",
"uG c #284933",
"uH c #0f2418",
"uI c #13271a",
"uJ c #0a2419",
"uK c #1f412f",
"uL c #0f261c",
"uM c #060f0b",
"uN c #0d2a1e",
"uO c #22442e",
"uP c #254835",
"uQ c #203d2d",
"uR c #1d3c2a",
"uS c #22402b",
"uT c #1c3324",
"uU c #2a4a34",
"uV c #244431",
"uW c #122b1d",
"uX c #213f2e",
"uY c #1c3829",
"uZ c #132c1d",
"u0 c #091a11",
"u1 c #0a1912",
"u2 c #10261a",
"u3 c #112419",
"u4 c #051a0f",
"u5 c #0d1d14",
"u6 c #05170e",
"u7 c #11251a",
"u8 c #010f0c",
"u9 c #2a4f3e",
"u! c #04140c",
"u@ c #071810",
"u# c #06170f",
"u$ c #020907",
"u% c #385c46",
"u^ c #0a1f17",
"u& c #07120d",
"u* c #0c2116",
"u( c #03120b",
"u) c #0b1e16",
"u- c #06150d",
"u+ c #010c06",
"u= c #06140f",
"u[ c #04160d",
"u] c #03140c",
"u{ c #081911",
"u} c #0c2416",
"u| c #102a1d",
"u; c #0c2015",
"u: c #0e261b",
"u, c #132b1f",
"u. c #0f241a",
"u< c #142e20",
"u> c #06110b",
"u? c #091d13",
"u~ c #10281d",
"u_ c #071911",
"va c #0a1d15",
"vb c #193525",
"vc c #163021",
"vd c #162b1e",
"ve c #152e20",
"vf c #163323",
"vg c #112d1f",
"vh c #1c3d2b",
"vi c #1b3b2a",
"vj c #0d2419",
"vk c #1b3327",
"vl c #000c09",
"vm c #072112",
"vn c #0b211a",
"vo c #163023",
"vp c #173223",
"vq c #153221",
"vr c #14291d",
"vs c #183021",
"vt c #132f21",
"vu c #213f2a",
"vv c #071710",
"vw c #06180e",
"vx c #0c2216",
"vy c #284737",
"vz c #07130b",
"vA c #142e21",
"vB c #244332",
"vC c #1d3d2f",
"vD c #153124",
"vE c #173426",
"vF c #173325",
"vG c #0b241b",
"vH c #133224",
"vI c #051610",
"vJ c #071510",
"vK c #071811",
"vL c #162f24",
"vM c #04110d",
"vN c #07150f",
"vO c #081d12",
"vP c #05130e",
"vQ c #091d12",
"vR c #010000",
"vS c #061912",
"vT c #071711",
"vU c #193727",
"vV c #08130c",
"vW c #06170e",
"vX c #04130c",
"vY c #04110b",
"vZ c #0a1c12",
"v0 c #0d1f16",
"v1 c #03110a",
"v2 c #142e23",
"v3 c #091911",
"v4 c #091b12",
"v5 c #0a1b13",
"v6 c #051611",
"v7 c #153021",
"v8 c #091c13",
"v9 c #0b1c12",
"v! c #0a1b12",
"v@ c #0d2318",
"v# c #081c12",
"v$ c #020e0b",
"v% c #020c09",
"v^ c #000807",
"v& c #030f0b",
"v* c #061c11",
"v( c #061d10",
"v) c #041c10",
"v- c #051c11",
"v+ c #214230",
"v= c #040b07",
"v[ c #091b11",
"v] c #0c1f13",
"v{ c #08170f",
"v} c #0f271d",
"v| c #05150d",
"v; c #0f2216",
"v: c #081e13",
"v, c #0d2116",
"v. c #0d2016",
"v< c #0b2115",
"v> c #03150c",
"v? c #061711",
"v~ c #040b06",
"v_ c #091d11",
"wa c #04170d",
"wb c #0a1d12",
"wc c #04110c",
"wd c #04120c",
"we c #122e22",
"wf c #030b07",
"wg c #010e0c",
"wh c #000903",
"wi c #092019",
"wj c #020905",
"wk c #020c07",
"wl c #010e08",
"wm c #030f09",
"wn c #031510",
"wo c #020b06",
"wp c #031009",
"wq c #00100b",
"wr c #030e0a",
"ws c #010f08",
/* pixels */
"aaabacadaeafagahaiajakalamanaoapaqarasatauavawaxagayazaAaBaCaDaEaFaGagaHaEaIaJaKasaLaMaNaOaHasaJabaPaJaQaRaSaKaaaTaraUaVaWaXaYaZ",
"a0aMa1a2a3aMaUa4a5a6a7a8a9a!a@a!a#a$a%a^a&a*a(a*a)a-aCa+a(a=a[a]a{a}a|a;a:a,a.a<a>a?a~a_babba.bcazbdbea}bfbgbhbibjbkbla]bmbna:bo",
"bpbqbrbsbtbubvbwbxbqbybzbAbzbBbCbDbEbFbqbGbHbqbGbIbGbpbJbKbtbGbsbGbtbLbMbzbEbubMbpbNbtbGbMbGbOa9bGbEbvbubKbPbQbtbRbRbtbObSbqbvbT",
"bUbVbWbXbYbZbTb0b1b2aobsb3buapb4axb5b6aVb7b8b9b!bXaob@b#b7b2b$b%b^b&b*b(b0b2b8b6b)b$b-bTbVb+b=b6b8b0b[bkb]b{b}b|b|bXbUb;b:b,b-b.",
"aWb<b>b?bXbob~b_b<cacbbPcccdbobCceb5cfcgchcicbcjbXckclcmcnbBcocpb8cqcrcsctb5a7cucvcwcxcycaczcAaXcBb&cCcDaAcEcFb=b[cGcHcIcJcKcLap",
"b[cMcNcObXcPbXcQcRcScTbAcUcVcGcWcXcYa<cZc0c1clc2bYc3c4c5c6c7c8c9a]c!c@c#c$c%c^c&c*c3c(c)c-c+b[c=c[aWc]c{bBcucgaWaTc}c|aob^c;c:c,",
"awc.c<apc>c?c~aWcEc_abdabwbqcwdbdcadddcncbdedfbadgb}cbb:dha2didjaSdkdldmdndodpdqdrdscParaMdtb<b]dubocqdvdwc3abdxb(a]bbc}a-dydzaJ",
"dAdBdCdDcPbXdEc}dFdGdHbAdIbtc;dJdKa0a0dLdMb+cndNdOdPdQdRcmdSdTasa{dUdVdWdXbldYdZahd0d1aEc=d2d3d4d5cPcQc3d6d7dOd8d9d!d@d#dqa(d$ak",
"cjd%d^cPcPd&d*d(d)cFdrdabqbMb5aod-d+c=d=d[d]c1d{b|d}d|d;d:d,a3bmc=d.d<d>cmd?d~d_eaebecedeeefa.egb6dHc<ckeheicCddejekelemdHdseneo",
"ciaoepeqereseteud[evddewexamaWeybfezeAeBcBd{baeCeDeEb?eFeGejeHeIeJeKeLeMeNeOePeQeReSeTeUeVeWeXeYb6eZcne0e1e2cBe3e4e5a0e6e7dHe8e9",
"e!b%cke@c3e#aYe$e%e^e&bze*amape(e)e^e-e+b<e=e[eoene]apaSe{e}e|e;e:e,aQe.e<e>e?e~e_fadRfbd+fcfdfefffgfhfifjfkflfmfnb+fofpdffqfrau",
"fsc#ftfucnfvfwfxfydHfzambJbIbpc3fAa;fBdDdpfCfDdva;eqfEfFfGbzbzfHambzbzbzbzfIbzamambzbzcdbzfJfKfLbUfMfNfOfPfOfQfRbDfSdCfTe@fUdqfB",
"fVdHfWfXfYfZf0f1c&f2cue:f3f4f5f6f7erf8f9f!f@cvf#f$f%f6f^fGf&f6f*f(f*apbTbTf)f(b3f(bTf-apbwf+cmf=f[e@f]c{f{f}b]f|f;f:f,f.f<dpf>c}",
"a7f?aaf~f_gagbgcgdgdbZgeamamcgbNgfggghgigjgkglf?c;gmbIgngoamexbXbYgpbogqdxgrbocPcPgsgtardIgugvgwgxgygzgAgBgCgDgEfOgFgGc%gHgIgJdr",
"gKfsgLgMgNgOgPgQgRgSgTgUgVgWgXgYgZg0g1g2boftg3dfg4g5bIg6g7fIara]atg8g9g!dZg@g#g$aCg%g^g&g*g(g)g-b|g+f#c3g=g[gCg]g{g}czbeg|b,g;g:",
"fOg,g.g<f9g>g?g~g_hahbhchdhehfhghhhihjhkgKhlhmf<d(hnhohpbkbzaUhqhrhshthuhvhwhxhyhzhAhBhCdJhDhEhFcbcphGhHhIhJhKhLgKf2hMe@hNhOhPhQ",
"hRhShThUa7hVhWhXhYhZh0h1h2h3h4h5h6h7h8h9aWh!h@h!h#h$h%h^g9b4b9h&b2abh*aecQdMb)dQb}a@h(g9b;h)eGh-h+fMhKh=h[h]h{h}h|gzh;f~h:h,d(h.",
"h<h>h?h~f~h_iag>ibicidieifigihiiijikilimb|fsfQinioipbAiqirbMc4isitiuedivfaiwixiyiziAiBg$iCiDiEiFciiGfBiHiIiJhziKiLiMiNiOiPfse8iQ",
"iRiSh|iTiUiViWiXiYiZi0i1i2i3i4igi5i6i7fEcUi8i9gEi!i@bzi#dnamcShbi$eBi%i^i&i*a-a3edi(i)i-aoi+i=i[i]i{i}dUi|i;i:i,i.i<i>hKeEh~i?i~",
"i_jajbdebmjcjdjejfjgjhjijjjkjljmi4jnjojpb-ddjqjrf#jsbujta.amjujvjwjxdcjyjzdDjAjBjCjDjEjFb;jGjHjIgsfse@jJjKjLjMjNjOg<jPf5jQh;h;jR",
"h$jSi?gEdwjTjUjVjWjXjYjZi0j0j1j2j3j4j5h%b|cZj6iLj7j8j9j!j@bzj#j$j%j^j&hrj*j(j)j-j+j=j[j]b|j{j}j|j;cJe9j:j,j.j<g|j>j?j~j_h>dPh|ka",
"kbb]i.kciSkdkekfkgkhj3kikjkkklkjkmjmknh9b$cBkokpkqkrcUksbfbzktedjwkukvkwkxkykzkAkBkCkDkEb!kFkGkHkIkJi,i,h#kKhLh$kLkMkNfMkOkPkQkR",
"kSfMh|kTbckUkVkWkXkYj3kZk0k1k2k3k4k5k6k7dJbofsgEgNk8k9k!k@cdk#g%dJk$k%k^k&k*eRk(k)k-k+k=dJk[k]k{k8k}k|dLf$f}k;k:k,k.k<k>k?a<f<f<",
"gBe)k~k_lalblccgldlelflglhliljlklllmk6bscylnlolpfjlqbAlrk^lsealtk9cplulvczaaaJlwf8axlxlyb;lzlAlBlClDdBlEj>lFgCk;lGlHlIiQlJlKlLlM",
"i<lNlOgDlPlQlRf(lSlTlUlVlWlXlYlZl0l1l2bsb$flb[l3l4l5bPl6l7amishsl8l9l!l@l#lHl$l%l^l&f^l*ewl(l)l-l+l=l[h$l]l{l}l|l;l:l,l.lnl<l>l?",
"c&l~dNl_mambmcdbmdmemfmgmhmimjmklVmlmmh9dbkNgtmnmompbSmqlubzmra_msd,mtmuaGmvmwhrmxmyk=mzb|mAmBiFf[mCl?hTmDmEmFe@mGmHgzmIfWmJmKmL",
"gAmMmNmOkPmPbQabmQmbkjmRmSmTmUmVmWmXmYmZaoeog<eEi~l?fEm0c=bMd:m1m2m3m4m5k$m6m7m7m8l*m9j(m!m@m#m$c}e+m%jOm^m&m*g=m(m)m-m+m=m[m]fW",
"hLm{m}m|m;m:ajdsm,m.igm<m>m?m~m_j1nanbjpb8frncndnenfb!kpl7ngnhninjcob!nknle1nmataRnnnoj|m!npnqd3fBiNnri.gvnsnthlnue~nviMnwnxf5f2",
"h?nyeIjdnza!nAnBnCnDnEnFnGnHnInJnKnLnMbsb_nNf<nOnPnQbAnRnSbznTnUnVb}i!fVnWnXnYdLc-f{nZeHdJn0n1n2dHn3fVhLn4hLn5hGe!n6n7gGm}iLjriN",
"lDn8n9n!n@m!iBg!n#n$n%n^kZn&n*n(kikln)jpj9cKdQl?n-i?a9n+fZbzn=a-b[n[d%cDn]n{dNfKn}j7n|n;n:n,n.n<cGd8n>n?n~n_oaobocj>odhGoeofkLh>",
"c<nunZogohaEoiojokolomjmonj1ooifopoqorbNb&osaTotfWm%ouovcLbqowoxb5oygogzozm9osoAiIltoBeUaRoCoDoEoFoGoHoIh~gtoGoJh>l>kSoKoLoMoNgG",
"lnc1oOoPoQoRbloSoToUoVoWoXoYoZn%k4o0a#h9b8o1o2o3o4fMb5o5dhcdiso6dJo7g9a0o8o9o!g)hzo@o#n1o$o%mxaOb<o^o&iLfQo*j:o(o)o-o+o=o[lGo]g<",
"dPo{o}o|o;mro:o,o.o<o>o?o~jplilio_bFpabsb@hTcQpbj>pcb8kcd>bzpdpeb8pfpgphpipjpkplf+nYm|pmpnpopppqdql?f~kwprpsptj_pug}pvpwpxpypzeo",
"kSpAm6pBpCpDpEpFpGpHpIpJpKpLpMpNpOpPpQbtgdf$g<j>fjl?bFpRa-bzpSnijwk]kypTpUpVe}pWoBnYpXhtpYpZp0p1gro1eFp2p3p4dep5f?hKp6g^p7p8p9hG",
"p!i!c=p@p#p$iFp%bqcdf&bObzngbEp^p&p^cVbMb@c?dLp*ntp(p)p-p+bzp=iLb2nfeIhPp[p0p]p{p}p|p;p:b)p,hrp.gsf<p<l~dmgmhRf}gtg,p>h?p?p~a,p_",
"lnqai8qbqcqdqelcf)bubxaVcdalf-b4cucdbvf)qfc5e:qgqhfWp&ipgofIaOp|qin.pVqjqkqlqmqnqodtqpqqqrqseUd3ado1i!qtf7kKb]h>h;qug|fMcKflqvl>",
"o!l*i!qwqcqxi7qyb$b2dIcdp^btbzb4cdbudbf)bZqzd)qAj>i}bAqBbhamcSlvb@qCppqDqEqFkNqGm#dGqHqIbMqJgOqKgtqLf$b]qMqNh$l?qOqPqQqRf{f{qSc3",
"qTqUhzfTqVqxqWqXqYdJexqZbMdIb0bzq0dJf*q1bonwc2i!fUl|j9q2esamaYcib|l)q3q4q5q6l[ejnOq7q8q9bzq!o#d1fff{j:filGq@i,h@nOq#j@q$g,cnq%dL",
"dmq^j7q&q*gPq(q)kNcnc}q-bubub;bwg!iCboq+kNd^kNf$eppxf*q=d+lsq[q]q{q}q|q;q:q,d^q.q<q>bIpJbNq?q~q_c}lNd]gme.mvi?rarbrccErdnchKf!re",
"frf9l>eArfrgrhrirja;c-rkbTk9cqf)rliCb)c=dmrmphdNflgmf*rnpyamfdhCrorprqeBrrrscjm5rtrurvfIbQrwjBdVkIi8d{h$rxoIg|ryrzo#nsePkKo!iAak",
"dsfidBd9ncrArBrCrDg]e@e{f6rEb[alrFaprGe]rHrIrJrKrLrMeyrNd:fIrOe}g*l@rPn}rQrRgLrSj(rug$bzk9rTi~rUcxrVdPmLhGdpkMeprWrXl<e?c%cBaab~",
"rYdPlnrZd(q(r0adr1p]der2r3apb[bvr4b^e7dUd=r5r6eolur7eyr8r9bzf9kyg*r!n}axr@r#gtr$r%pka3bqb;r^r&n2r*r(q+r)pwr-r+mLa;grr=d[r[g<r]ds",
"r{cka2b<hSr}ducZlLd(c[a!bsf)dxbxr|dJdpr;abgxr:nur,r.a9emi%amdjbdb.r<r>r?r~r_lusasbscsdbTb8sesfsgshcDsic%p5aadpsjd$skfBflslkxsmra",
"snsospj:c3sqbQsrssi>fsbOcUbzb&rko$bTstqYcBf|cxsusvnrbAe6swf&dtq.g*sxiwbdsyk*szsAsBsCqPaPb8sDsEm$dud{hLfBhKsFb]h@h+cKpwfBh@sGsHnS",
"cha,sId$cosJb8gNsKsLlLbZsMsNsOsPbMcYf;e+cosQsRazjFsSsTkasUngsViBsWsXfKsYsZs0cog%jxdep|s1b5s2s3s4cle&dqd9s5s6e7fis7gCdma;eFc{l7f0",
"cii~p_cDcxs8caf$sXdps9a=cds!bxbPbZdMa?p8abs@badLdpa,bAs#s$ampSeBs%s^a3s&s*s(b%ojs)s-s+s=b5s[dEaIaWnuq]qls]s{pmr)gmdps@dms}s|cus;",
"f{abfOf<s:s,s.nuc#s<sLdeb^bPbSbwcnc|dDo1frkLaTs:s>q~bAs?s~amb(s_b@d<bidhtatbc%tctdgFpeteb5tfi*s4cHeobotgaMthtid{h;c3cYtjh?eocGc}",
"cncYd6e7e]tkh?e7gNtle7gIq1budQb2tmc?c:ars@h+h;cPdrdpbqr:d?fItnojq1totpqZtqtre9dca-c)i*aFtstttutvcGboc}twditxtyabs9cLcze]b*abdxtz",
"cQaHehrWbogze]e@tAcQtidif2bucbb&tBj&luo6b&tCcPfhcnhKbAnQe)amaOtDrofpaOaZl8tEdltFtGrutHtIextJdKtKcycZaWtLaglMhvcFd}f{e9eob@cBcbdp",
"f2tidNiwcNbBtMcHtNb^hTcnc-bGb&b;tOdxtPb}cuabadfutQc1bze.azamaCc=tRtSb;lwtTi&godQouostUm1extVtWtXtYd5qftZt0t1t2b)aWabf|cGtjt2cNf9",
"e,a;t3nTb.hQg]bUnha<t4a<t5bsb[b!t6t7qmaaqfg]clsQt8t9dat!a{cdtIt@t#t$t%m4t^s_t&t*t(t)t-t+iCt=t[t]bVt{rLcQt}t|clcob+a{k#t;t:t,cot2",
"n:b}aUt.rEbYf)bSbvt<cgdJj9btt>bTt?bSt~b$dbaptSeytSdJcUj-aAamaCt_pduak=nmtdhqubucudueorgoiCufuguhuiuje7ukulbTb.b^cgqYfYb_umerk9ex",
"unuoupuqurusutuuuvuwuxiBuybqcluzuAuBrgrhuCm.uDuEuFuGbqeNe,bzt|uHuIb:k=t)s(aGe$ort-a0n=uJtSuKuLuMuNuOuPuQuRuSuTuUo:uVuWa*uXtduYuZ",
"u0akacaHu1u2aiu3u4u5u6u7szbpu8b@u9nhmrlua.e)u!a8m!ajbqt!u@bzaEu#k9f)dIcrbHu$f*cUf-k9jAu#j9u%u^u&cNu*g@gqu(bgu)mru-b5aYaqu+ewc5cG",
"qiitpdbopdaNu=ewcgm!f7u[b5bIb*amr&b0u]dZb#f-u{u}u|l>bPj&u0amb#u;j9bZq]fbesu:u,u.hqbXuHt}fEu<eBu>d9u?f8bfsCu~u_qZgqvaaYesvbvcnevd",
"d&vevfk%vghAvhvieuk+vjvku:uivlapvmvnvorIvpvqvrvsvtvucdfvvvamafaSexcEvws$bhiBeaa{f0c}vxhCtSvyfTvzc?vAnUvBvCvDvEvFrPrId+atvGcnvHvI",
"c4aEactIaNu@cFvJaRaXvKu@c3bPcGeyvLvMvNaaa+vOvPa~aMszbzvQtIvRcYk#cUi(sGvSb+vTa$tWu{b<owaqtSvUjAvVcTnTvWb)u#b{vXaJatvYvYsjcoaZcgcT",
"vZs1u0v0u_u_s~dRd:a#aOu_v1bPrWf*v2sjv3v4v4bgpdgqv5v5bFdZa$ngm!v6cUu+bJapa!bJdJa!n:jwc|sCtsv7v8dSaYaQv9tejFu?v!v@pdpdv8v#u0tbb)rU",
"v$b6b|b5v%b2b7v^b.aUb2clclbzcbb3t.b5atcGv&b8bXb;b6b^bPu#agcVb8bZv*g%sQv(a,v)v-a7fzb+t2v#alv+c.v=nct^dQa7adnTvIt2v[v]v{aPv}v|d:th",
"aqv;aMfvaMv:bocma#v,u_v4exbqcUeyd0gdsja~v.aqmrv<nhv,bPv>qZbzewnhdib@luaTdoszv?aPauc.a+sjdIhEa?v~cYv4v_wavZu{wbu{cggdb8wcdJwdb!sz",
"aJb@szo$aXaYdsb=cbcHcib=dbcdaWbSbidJb#dMcut|b8aWaEt,bzf<wdamexs;aWdHqfcgaZc4aWszu]cZcZb.f*webowfb$t2b7dsclu#cyb;wgf)ghb5t<whu8dI",
"amcdb4btbzambzbzamcdcdcdcdcdb[bzdRb4cdbzngbzbzbzcdcdb4ght8ngbzbzbzcdcdbzcdbqbzbzcdcdcdcdb4wic}wjcdcdbzbzcdbpbzcdbzambzcdbPcdbzcd",
"qfe7boc3umo$dHdoancndHewfYq&wkcga!gdabdHtlwlfum!caadewn:dowmumwnaod[e7dodxaWddt2bofubYfuaowodJanewcgabbYboq1cgwpwkb|a@aVb[b|wqc1",
"vXcnwrgda2a<b]aUb{b{b)baqYb{wsbae7adbZgtdibaarcYb~aRboa7h*gpdqu]d5bob<b~e7dxcPcod{hKa7abakl7f{cxarclbocndxc#cPfhabq1b}bac1b&umb["
};