/* XPM */
static char *wall_3[] = {
/* columns rows colors chars-per-pixel */
"64 64 1845 2",
/* colors */
"aa c #061c13",
"ab c #04150e",
"ac c #071c13",
"ad c #0a2216",
"ae c #082418",
"af c #092117",
"ag c #092417",
"ah c #0b2317",
"ai c #061a10",
"aj c #091a11",
"ak c #08261a",
"al c #0c2015",
"am c #091f15",
"an c #103021",
"ao c #10281b",
"ap c #0a2217",
"aq c #0f2a1d",
"ar c #0c2b1c",
"as c #081e15",
"at c #0b281d",
"au c #071b12",
"av c #051a10",
"aw c #081d13",
"ax c #091e14",
"ay c #0e2a1d",
"az c #071f14",
"aA c #02120c",
"aB c #061b12",
"aC c #041d13",
"aD c #03140c",
"aE c #03160e",
"aF c #051c11",
"aG c #04180f",
"aH c #062419",
"aI c #03150e",
"aJ c #0c2317",
"aK c #082919",
"aL c #05160e",
"aM c #112b1d",
"aN c #071e13",
"aO c #05180f",
"aP c #051a13",
"aQ c #071f15",
"aR c #071a12",
"aS c #0b2318",
"aT c #0d271d",
"aU c #10251a",
"aV c #0c2417",
"aW c #132c1f",
"aX c #091c13",
"aY c #0d2317",
"aZ c #0f261b",
"a0 c #0a1c14",
"a1 c #09231b",
"a2 c #04160f",
"a3 c #01140e",
"a4 c #02100a",
"a5 c #010f0b",
"a6 c #01110b",
"a7 c #010f09",
"a8 c #081f13",
"a9 c #0e261c",
"a! c #081e14",
"a@ c #0a2015",
"a# c #11261a",
"a$ c #0e261a",
"a% c #0f2a1c",
"a^ c #133223",
"a& c #0f271b",
"a* c #0d2c1f",
"a( c #0e2a1c",
"a) c #072216",
"a- c #123221",
"a+ c #092015",
"a= c #092115",
"a[ c #0f281c",
"a] c #0b2016",
"a{ c #0b2a1b",
"a} c #0a1e13",
"a| c #123021",
"a; c #113020",
"a: c #0b1b12",
"a, c #081f15",
"a. c #11291e",
"a< c #092016",
"a> c #0f2b1e",
"a? c #092418",
"a~ c #0a2116",
"a_ c #081a12",
"ba c #072115",
"bb c #0a2417",
"bc c #041810",
"bd c #0c2617",
"be c #0c2819",
"bf c #0d2d1e",
"bg c #071f13",
"bh c #102d1f",
"bi c #0a2317",
"bj c #0d2a1c",
"bk c #113022",
"bl c #0e2519",
"bm c #041911",
"bn c #0f291c",
"bo c #0b2118",
"bp c #10281a",
"bq c #0c2017",
"br c #0f271a",
"bs c #05190f",
"bt c #0c2519",
"bu c #091e15",
"bv c #082216",
"bw c #071f16",
"bx c #081e16",
"by c #04150f",
"bz c #03130d",
"bA c #020d08",
"bB c #020e0a",
"bC c #000906",
"bD c #000a08",
"bE c #000705",
"bF c #01100b",
"bG c #000a06",
"bH c #000a07",
"bI c #000b06",
"bJ c #000504",
"bK c #010b07",
"bL c #000c07",
"bM c #010d07",
"bN c #010a06",
"bO c #000805",
"bP c #000c08",
"bQ c #000704",
"bR c #010c08",
"bS c #000807",
"bT c #000b08",
"bU c #010b08",
"bV c #000d0a",
"bW c #000d09",
"bX c #020b07",
"bY c #010d09",
"bZ c #010b06",
"b0 c #010806",
"b1 c #010907",
"b2 c #000c09",
"b3 c #010906",
"b4 c #000806",
"b5 c #030e0a",
"b6 c #010a07",
"b7 c #020c08",
"b8 c #010706",
"b9 c #000905",
"b! c #010705",
"b@ c #010e0a",
"b# c #061f13",
"b$ c #02180f",
"b% c #082517",
"b^ c #051f14",
"b& c #051d14",
"b* c #062013",
"b( c #082519",
"b) c #072317",
"b- c #091f14",
"b+ c #0a2718",
"b= c #082217",
"b[ c #0a2218",
"b] c #072419",
"b{ c #0a261b",
"b} c #0a2517",
"b| c #041c12",
"b; c #082116",
"b: c #031f15",
"b, c #062618",
"b. c #082015",
"b< c #041d14",
"b> c #08281a",
"b? c #07271a",
"b~ c #062115",
"b_ c #061e13",
"ca c #051c12",
"cb c #041a12",
"cc c #052014",
"cd c #0d291a",
"ce c #041e14",
"cf c #041d12",
"cg c #041b12",
"ch c #082619",
"ci c #052115",
"cj c #072116",
"ck c #031d15",
"cl c #031c13",
"cm c #031d13",
"cn c #031f13",
"co c #091e13",
"cp c #062116",
"cq c #052116",
"cr c #01180e",
"cs c #061c14",
"ct c #031a12",
"cu c #071b15",
"cv c #071d14",
"cw c #071d12",
"cx c #071d13",
"cy c #0a2418",
"cz c #062015",
"cA c #000603",
"cB c #000803",
"cC c #000703",
"cD c #000804",
"cE c #000601",
"cF c #000702",
"cG c #000502",
"cH c #000401",
"cI c #000301",
"cJ c #000501",
"cK c #000402",
"cL c #000602",
"cM c #000604",
"cN c #010603",
"cO c #010703",
"cP c #010602",
"cQ c #010704",
"cR c #010502",
"cS c #000200",
"cT c #000300",
"cU c #041b13",
"cV c #02100c",
"cW c #00100a",
"cX c #041914",
"cY c #02140e",
"cZ c #03120d",
"c0 c #081d15",
"c1 c #01160f",
"c2 c #01130d",
"c3 c #000e0a",
"c4 c #010f0a",
"c5 c #01150f",
"c6 c #051b12",
"c7 c #00100b",
"c8 c #051a12",
"c9 c #0a1e16",
"c! c #091e17",
"c@ c #061d14",
"c# c #01110c",
"c$ c #01110a",
"c% c #010c09",
"c^ c #021510",
"c& c #000f0b",
"c* c #051812",
"c( c #021611",
"c) c #051d13",
"c- c #021810",
"c+ c #051712",
"c= c #010e0b",
"c[ c #071a13",
"c] c #10261c",
"c{ c #081c13",
"c} c #03110c",
"c| c #05120c",
"c; c #071810",
"c: c #04120e",
"c, c #010804",
"c. c #03110d",
"c< c #02160f",
"c> c #020e0b",
"c? c #0e251a",
"c~ c #0a2016",
"c_ c #00120d",
"da c #021610",
"db c #061f17",
"dc c #092215",
"dd c #0a2318",
"de c #031e15",
"df c #051e14",
"dg c #031b14",
"dh c #01120c",
"di c #052117",
"dj c #031911",
"dk c #02130c",
"dl c #031610",
"dm c #041a13",
"dn c #092116",
"do c #092519",
"dp c #03170e",
"dq c #02150e",
"dr c #072017",
"ds c #010d0a",
"dt c #01120b",
"du c #02170f",
"dv c #020f0a",
"dw c #091711",
"dx c #011410",
"dy c #000e08",
"dz c #02100b",
"dA c #031a11",
"dB c #041912",
"dC c #02130d",
"dD c #041910",
"dE c #182f1f",
"dF c #04110c",
"dG c #040d09",
"dH c #051811",
"dI c #01130c",
"dJ c #000c0a",
"dK c #01100a",
"dL c #153423",
"dM c #142c20",
"dN c #133022",
"dO c #051b13",
"dP c #041f13",
"dQ c #041811",
"dR c #072618",
"dS c #092518",
"dT c #02160e",
"dU c #08271b",
"dV c #041611",
"dW c #041a10",
"dX c #02140c",
"dY c #041f16",
"dZ c #03130c",
"d0 c #051e15",
"d1 c #0c2b1d",
"d2 c #031811",
"d3 c #031710",
"d4 c #0e2d1e",
"d5 c #04170e",
"d6 c #102a1c",
"d7 c #163525",
"d8 c #031b12",
"d9 c #01180f",
"d! c #031c14",
"d@ c #020f0b",
"d# c #03150d",
"d$ c #00120c",
"d% c #092218",
"d^ c #0e2518",
"d& c #03170d",
"d* c #071c11",
"d( c #000000",
"d) c #000101",
"d- c #010202",
"d+ c #010201",
"d= c #010300",
"d[ c #000100",
"d] c #010302",
"d{ c #010303",
"d} c #0c261a",
"d| c #02120d",
"d; c #02120b",
"d: c #01130e",
"d, c #133624",
"d. c #0f291d",
"d< c #102c1d",
"d> c #051d15",
"d? c #031611",
"d~ c #01110d",
"d_ c #010604",
"ea c #00130c",
"eb c #010e09",
"ec c #00110b",
"ed c #103723",
"ee c #02150f",
"ef c #1d3f2b",
"eg c #122d1f",
"eh c #0b2f1e",
"ei c #142f20",
"ej c #01120d",
"ek c #081d12",
"el c #122c1d",
"em c #03130b",
"en c #010a05",
"eo c #122f21",
"ep c #1b3c2a",
"eq c #153222",
"er c #133521",
"es c #092817",
"et c #173b29",
"eu c #0c271b",
"ev c #061811",
"ew c #01140d",
"ex c #143123",
"ey c #072117",
"ez c #021a14",
"eA c #143222",
"eB c #1d3b2a",
"eC c #193b27",
"eD c #295239",
"eE c #1d412e",
"eF c #214431",
"eG c #1d412d",
"eH c #27543c",
"eI c #284e37",
"eJ c #1e442f",
"eK c #214532",
"eL c #1b412e",
"eM c #1a3a28",
"eN c #214b34",
"eO c #214632",
"eP c #2a4e39",
"eQ c #254c35",
"eR c #1c3e2c",
"eS c #163524",
"eT c #1c3c2a",
"eU c #0a2717",
"eV c #0c3121",
"eW c #031d14",
"eX c #031d12",
"eY c #062216",
"eZ c #03160d",
"e0 c #163225",
"e1 c #041c10",
"e2 c #163a27",
"e3 c #062014",
"e4 c #031910",
"e5 c #061e14",
"e6 c #02190f",
"e7 c #112c1e",
"e8 c #1d3f2c",
"e9 c #020a07",
"e! c #051810",
"e@ c #0b2015",
"e# c #0c1e16",
"e$ c #102319",
"e% c #05160f",
"e^ c #042315",
"e& c #03130e",
"e* c #123321",
"e( c #133524",
"e) c #1a3b2a",
"e- c #153323",
"e+ c #0e271a",
"e= c #123224",
"e[ c #193e2d",
"e] c #103121",
"e{ c #204934",
"e} c #234b35",
"e| c #1b3f2d",
"e; c #143724",
"e: c #123121",
"e, c #153726",
"e. c #1e422e",
"e< c #193a2a",
"e> c #133724",
"e? c #163927",
"e~ c #153425",
"e_ c #173726",
"fa c #102b1d",
"fb c #000202",
"fc c #042016",
"fd c #0a271c",
"fe c #1b3d2c",
"ff c #0b2c1c",
"fg c #153623",
"fh c #041711",
"fi c #051c13",
"fj c #021811",
"fk c #102a1b",
"fl c #14251c",
"fm c #081810",
"fn c #041710",
"fo c #071b11",
"fp c #0e2a1b",
"fq c #0c2217",
"fr c #0b2719",
"fs c #02160d",
"ft c #08190f",
"fu c #06160f",
"fv c #011209",
"fw c #0a2118",
"fx c #06170f",
"fy c #091f17",
"fz c #0d281d",
"fA c #03150f",
"fB c #021b11",
"fC c #031810",
"fD c #052319",
"fE c #041d16",
"fF c #1c3d2b",
"fG c #143725",
"fH c #0e2b1d",
"fI c #04180e",
"fJ c #0d2d1d",
"fK c #1f4331",
"fL c #0b271a",
"fM c #123322",
"fN c #0d2a1b",
"fO c #0b291b",
"fP c #102d1d",
"fQ c #0a2619",
"fR c #0a2617",
"fS c #102f1f",
"fT c #000904",
"fU c #041f17",
"fV c #072318",
"fW c #103020",
"fX c #143626",
"fY c #0c2b1e",
"fZ c #051f15",
"f0 c #021a11",
"f1 c #102f20",
"f2 c #1b3927",
"f3 c #010501",
"f4 c #010905",
"f5 c #020501",
"f6 c #010301",
"f7 c #020301",
"f8 c #03100a",
"f9 c #243b2c",
"f! c #061a13",
"f@ c #062117",
"f# c #03140e",
"f$ c #0c2319",
"f% c #032217",
"f^ c #052417",
"f& c #244531",
"f* c #123122",
"f( c #102e21",
"f) c #010200",
"f- c #010100",
"f+ c #010101",
"f= c #051b10",
"f[ c #163728",
"f] c #0c2e21",
"f{ c #041f15",
"f} c #082318",
"f| c #052216",
"f; c #062519",
"f: c #042014",
"f, c #1c4130",
"f. c #042015",
"f< c #052215",
"f> c #0a2a1d",
"f? c #000907",
"f~ c #03110b",
"f_ c #03120b",
"ga c #030706",
"gb c #061c12",
"gc c #0d261a",
"gd c #032016",
"ge c #0d2b1e",
"gf c #052719",
"gg c #021e16",
"gh c #2a543e",
"gi c #163726",
"gj c #0f2d1e",
"gk c #000b07",
"gl c #000a05",
"gm c #041a0e",
"gn c #133322",
"go c #000201",
"gp c #042217",
"gq c #163526",
"gr c #051f16",
"gs c #062215",
"gt c #061f16",
"gu c #041a11",
"gv c #082a1a",
"gw c #0e2c1e",
"gx c #03180f",
"gy c #103b27",
"gz c #041b14",
"gA c #071e16",
"gB c #182f23",
"gC c #051911",
"gD c #203a2b",
"gE c #0d281c",
"gF c #0d2e1d",
"gG c #133627",
"gH c #0f3624",
"gI c #042418",
"gJ c #052318",
"gK c #0d2f1e",
"gL c #011a12",
"gM c #24563e",
"gN c #173a27",
"gO c #0b1f17",
"gP c #041610",
"gQ c #031009",
"gR c #153927",
"gS c #052519",
"gT c #153a27",
"gU c #062418",
"gV c #061f15",
"gW c #072319",
"gX c #062218",
"gY c #06261a",
"gZ c #082518",
"g0 c #153f2e",
"g1 c #1a402e",
"g2 c #052217",
"g3 c #041c14",
"g4 c #153526",
"g5 c #143424",
"g6 c #020905",
"g7 c #133424",
"g8 c #133725",
"g9 c #09261b",
"g! c #0d2419",
"g@ c #03170f",
"g# c #04130c",
"g$ c #133b28",
"g% c #0c301f",
"g^ c #0a2819",
"g& c #021f17",
"g* c #275b40",
"g( c #133726",
"g) c #0f291e",
"g- c #0a1b11",
"g+ c #092317",
"g= c #091b13",
"g[ c #0d271a",
"g] c #0a1c12",
"g{ c #0b1e15",
"g} c #071911",
"g| c #03160f",
"g; c #04140c",
"g: c #133728",
"g, c #000503",
"g. c #032213",
"g< c #0a2c1d",
"g> c #183a25",
"g? c #0f301f",
"g~ c #082e1f",
"g_ c #083524",
"ha c #133321",
"hb c #0a291e",
"hc c #041c15",
"hd c #041e15",
"he c #052418",
"hf c #122e21",
"hg c #05150e",
"hh c #091d13",
"hi c #0b2419",
"hj c #0a271b",
"hk c #0b241b",
"hl c #0a1f15",
"hm c #0b1f16",
"hn c #0d2217",
"ho c #0c271a",
"hp c #143121",
"hq c #021911",
"hr c #061e15",
"hs c #062319",
"ht c #07281a",
"hu c #051c15",
"hv c #072719",
"hw c #072b1d",
"hx c #23523b",
"hy c #143627",
"hz c #133226",
"hA c #071711",
"hB c #112d1e",
"hC c #132f20",
"hD c #0c2a1c",
"hE c #183c29",
"hF c #0f2e1e",
"hG c #112e20",
"hH c #1a3e29",
"hI c #0d291c",
"hJ c #0e2419",
"hK c #03140d",
"hL c #04120b",
"hM c #1d4633",
"hN c #1c432d",
"hO c #1c4530",
"hP c #133623",
"hQ c #072d1e",
"hR c #06271a",
"hS c #062217",
"hT c #072015",
"hU c #08241a",
"hV c #02130e",
"hW c #1d3e2b",
"hX c #0f2b1f",
"hY c #04120c",
"hZ c #193b29",
"h0 c #0f2b1d",
"h1 c #11301f",
"h2 c #0c2218",
"h3 c #00110a",
"h4 c #010d08",
"h5 c #132c20",
"h6 c #031e14",
"h7 c #051913",
"h8 c #041f14",
"h9 c #06281c",
"h! c #042116",
"h@ c #204a36",
"h# c #2d5e43",
"h$ c #193c2b",
"h% c #081d14",
"h^ c #0f2718",
"h& c #04140e",
"h* c #152d1e",
"h( c #051912",
"h) c #04110a",
"h- c #1b442e",
"h+ c #153d26",
"h= c #102e20",
"h[ c #1e432e",
"h] c #0b2b1c",
"h{ c #06291d",
"h} c #06241a",
"h| c #082c20",
"h; c #042114",
"h: c #204531",
"h, c #0f2a1e",
"h. c #173925",
"h< c #224830",
"h> c #000701",
"h? c #010904",
"h~ c #000403",
"h_ c #02110c",
"ia c #000f09",
"ib c #0e2318",
"ic c #19442e",
"id c #052015",
"ie c #052018",
"if c #08291c",
"ig c #05281b",
"ih c #2d6548",
"ii c #10291c",
"ij c #112e1f",
"ik c #183929",
"il c #133626",
"im c #274a3a",
"in c #1b3f2e",
"io c #153326",
"ip c #112c1d",
"iq c #0d2519",
"ir c #061a11",
"is c #04160d",
"it c #1a442e",
"iu c #1f4834",
"iv c #0b2a1d",
"iw c #0e3421",
"ix c #062518",
"iy c #113926",
"iz c #042419",
"iA c #06271b",
"iB c #05241a",
"iC c #09291c",
"iD c #1a422c",
"iE c #1b402c",
"iF c #173121",
"iG c #102c1c",
"iH c #274532",
"iI c #071c16",
"iJ c #02140f",
"iK c #10291d",
"iL c #0c291b",
"iM c #0e2e20",
"iN c #082218",
"iO c #0f2f20",
"iP c #042618",
"iQ c #052317",
"iR c #0b2d1d",
"iS c #06281b",
"iT c #306146",
"iU c #1c412f",
"iV c #091c14",
"iW c #102c1e",
"iX c #132e21",
"iY c #0d2d1c",
"iZ c #0c2419",
"i0 c #102b1e",
"i1 c #193827",
"i2 c #0d2518",
"i3 c #04130b",
"i4 c #244f38",
"i5 c #042218",
"i6 c #183f2d",
"i7 c #0a2b1c",
"i8 c #06251a",
"i9 c #113322",
"i! c #062719",
"i@ c #0e2c1d",
"i# c #0e3221",
"i$ c #032116",
"i% c #082d1f",
"i^ c #0a291b",
"i& c #1b3b28",
"i* c #050f09",
"i( c #0f291a",
"i) c #173322",
"i- c #122a1d",
"i+ c #1c402c",
"i= c #133123",
"i[ c #182f20",
"i] c #12271a",
"i{ c #0c1e15",
"i} c #13271b",
"i| c #081710",
"i; c #12311f",
"i: c #0c2418",
"i, c #062016",
"i. c #052618",
"i< c #1a4a33",
"i> c #092b1c",
"i? c #0d3723",
"i~ c #2f6246",
"i_ c #133324",
"ja c #1d442f",
"jb c #092113",
"jc c #0f3221",
"jd c #092216",
"je c #1c422c",
"jf c #04100b",
"jg c #1c432f",
"jh c #062318",
"ji c #072215",
"jj c #062316",
"jk c #082b1b",
"jl c #0c2e1d",
"jm c #072519",
"jn c #25432e",
"jo c #020704",
"jp c #0e251c",
"jq c #0c2118",
"jr c #183526",
"js c #162b20",
"jt c #102519",
"ju c #0f241a",
"jv c #06140e",
"jw c #24442f",
"jx c #0d1f16",
"jy c #072518",
"jz c #052016",
"jA c #1e4632",
"jB c #041c13",
"jC c #0e3120",
"jD c #042416",
"jE c #021f15",
"jF c #376b4c",
"jG c #122e20",
"jH c #163b2a",
"jI c #132f21",
"jJ c #0d2b1c",
"jK c #0f3121",
"jL c #143726",
"jM c #142f21",
"jN c #1a3c28",
"jO c #081f16",
"jP c #010403",
"jQ c #061911",
"jR c #1e4633",
"jS c #184731",
"jT c #052a1b",
"jU c #08271a",
"jV c #052316",
"jW c #10311f",
"jX c #062717",
"jY c #042415",
"jZ c #0a2d1d",
"j0 c #0c291c",
"j1 c #0e3522",
"j2 c #0b2c1e",
"j3 c #000303",
"j4 c #112619",
"j5 c #102a1d",
"j6 c #13301f",
"j7 c #102d1e",
"j8 c #07180f",
"j9 c #163022",
"j! c #072016",
"j@ c #082b1e",
"j# c #031f16",
"j$ c #082819",
"j% c #17432f",
"j^ c #032114",
"j& c #1d4833",
"j* c #092c1e",
"j( c #031f17",
"j) c #366a4c",
"j- c #0b2418",
"j+ c #1b4631",
"j= c #183b28",
"j[ c #0f2d1f",
"j] c #123424",
"j{ c #123b2b",
"j} c #0e2f1f",
"j| c #0e2d1f",
"j; c #0a291a",
"j: c #254b35",
"j, c #123626",
"j. c #082016",
"j< c #04160e",
"j> c #18452e",
"j? c #000302",
"j~ c #072218",
"j_ c #07291d",
"ka c #05261b",
"kb c #29573e",
"kc c #204533",
"kd c #082b18",
"ke c #19402c",
"kf c #225035",
"kg c #07261a",
"kh c #21442e",
"ki c #000801",
"kj c #030501",
"kk c #020b05",
"kl c #030905",
"km c #23422d",
"kn c #0e281b",
"ko c #042115",
"kp c #052419",
"kq c #08261b",
"kr c #021a0f",
"ks c #082f1e",
"kt c #041d15",
"ku c #28593f",
"kv c #102a1e",
"kw c #1d422f",
"kx c #0b2117",
"ky c #0e291c",
"kz c #1b3928",
"kA c #123623",
"kB c #1b4530",
"kC c #224531",
"kD c #020603",
"kE c #1b4430",
"kF c #062a1d",
"kG c #092a1b",
"kH c #07281c",
"kI c #214934",
"kJ c #153d29",
"kK c #0f3c24",
"kL c #214f36",
"kM c #224a35",
"kN c #07281b",
"kO c #07261b",
"kP c #0e3022",
"kQ c #041d11",
"kR c #030c08",
"kS c #081911",
"kT c #020200",
"kU c #010001",
"kV c #0d281a",
"kW c #08291a",
"kX c #153c29",
"kY c #042318",
"kZ c #072c1e",
"k0 c #022015",
"k1 c #0b2f20",
"k2 c #031b13",
"k3 c #336449",
"k4 c #123020",
"k5 c #071e15",
"k6 c #0b2c1d",
"k7 c #0b281b",
"k8 c #0a251b",
"k9 c #224230",
"k! c #092319",
"k@ c #1d4531",
"k# c #052619",
"k$ c #1c472e",
"k% c #113021",
"k^ c #1b422e",
"k& c #173b2a",
"k* c #072619",
"k( c #082a1d",
"k) c #052518",
"k- c #1f4531",
"k+ c #2d4f39",
"k= c #020300",
"k[ c #020906",
"k] c #050805",
"k{ c #1d3c29",
"k} c #051b14",
"k| c #09301f",
"k; c #205137",
"k: c #092217",
"k, c #20442e",
"k. c #000e09",
"k< c #0a2117",
"k> c #0f281b",
"k? c #173929",
"k~ c #2a5740",
"k_ c #245138",
"la c #315b43",
"lb c #28553f",
"lc c #204c36",
"ld c #25533a",
"le c #224c37",
"lf c #071b10",
"lg c #19422e",
"lh c #052718",
"li c #052a1a",
"lj c #082a1b",
"lk c #042215",
"ll c #14412b",
"lm c #123824",
"ln c #082117",
"lo c #224e36",
"lp c #042216",
"lq c #072c1d",
"lr c #1a3d2a",
"ls c #1e3e2b",
"lt c #0f1c14",
"lu c #1d3528",
"lv c #153021",
"lw c #2a523c",
"lx c #2a533a",
"ly c #274f37",
"lz c #1b3b29",
"lA c #1e402d",
"lB c #1a3828",
"lC c #1b3728",
"lD c #06180f",
"lE c #102e1e",
"lF c #07241a",
"lG c #08281c",
"lH c #134129",
"lI c #08291e",
"lJ c #153b29",
"lK c #021a13",
"lL c #23523a",
"lM c #071e14",
"lN c #193e2c",
"lO c #0d2418",
"lP c #11281c",
"lQ c #163123",
"lR c #133525",
"lS c #133023",
"lT c #0e2418",
"lU c #020604",
"lV c #183c2b",
"lW c #1a472f",
"lX c #1d4630",
"lY c #031a0f",
"lZ c #133a27",
"l0 c #07271b",
"l1 c #0f3122",
"l2 c #072718",
"l3 c #052517",
"l4 c #0b3121",
"l5 c #1f4330",
"l6 c #153324",
"l7 c #09110d",
"l8 c #0c1d15",
"l9 c #0e2619",
"l! c #193928",
"l@ c #0c2718",
"l# c #132b1f",
"l$ c #11261c",
"l% c #0c2318",
"l^ c #0c2018",
"l& c #0d2d1f",
"l* c #0d3021",
"l( c #042619",
"l) c #062317",
"l- c #0c3623",
"l+ c #35694a",
"l= c #0f2b20",
"l[ c #1e442e",
"l] c #0c2719",
"l{ c #112b1c",
"l} c #204d34",
"l| c #173b28",
"l; c #29523c",
"l: c #183f2c",
"l, c #143927",
"l. c #183e2b",
"l< c #133826",
"l> c #17442d",
"l? c #143925",
"l~ c #143526",
"l_ c #05170f",
"ma c #1f4a34",
"mb c #143826",
"mc c #092c1c",
"md c #245338",
"me c #174e2d",
"mf c #022315",
"mg c #062517",
"mh c #032015",
"mi c #09281d",
"mj c #0e291b",
"mk c #264934",
"ml c #020601",
"mm c #010401",
"mn c #020d07",
"mo c #1c3c2d",
"mp c #123022",
"mq c #153a29",
"mr c #103022",
"ms c #1a3d2c",
"mt c #143324",
"mu c #0f2e21",
"mv c #2b4b37",
"mw c #0a2e1f",
"mx c #08291d",
"my c #0e2f21",
"mz c #18412d",
"mA c #0b3021",
"mB c #37684c",
"mC c #0f2d21",
"mD c #0f2e1d",
"mE c #010c07",
"mF c #04100a",
"mG c #173225",
"mH c #04120d",
"mI c #17412c",
"mJ c #061d15",
"mK c #1f4e34",
"mL c #163a28",
"mM c #0a261a",
"mN c #1d482d",
"mO c #09241b",
"mP c #072a1e",
"mQ c #09281c",
"mR c #133827",
"mS c #052717",
"mT c #1c3a26",
"mU c #000400",
"mV c #1a402d",
"mW c #061f14",
"mX c #001e14",
"mY c #316146",
"mZ c #1b3c2b",
"m0 c #1d412f",
"m1 c #163c28",
"m2 c #1f422e",
"m3 c #183a29",
"m4 c #173d29",
"m5 c #113423",
"m6 c #164128",
"m7 c #07251b",
"m8 c #092c1f",
"m9 c #08281b",
"m! c #072418",
"m@ c #113f29",
"m# c #1c4730",
"m$ c #072417",
"m% c #020401",
"m^ c #0d2117",
"m& c #0b2d1f",
"m* c #2f6141",
"m( c #204530",
"m) c #173a28",
"m- c #133c27",
"m+ c #0f251b",
"m= c #245238",
"m[ c #102f21",
"m] c #0b2519",
"m{ c #0a2017",
"m} c #082014",
"m| c #1e432f",
"m; c #082b1c",
"m: c #092b1d",
"m, c #09271a",
"m. c #15402a",
"m< c #123120",
"m> c #020c06",
"m? c #010805",
"m~ c #020f09",
"m_ c #020302",
"na c #010402",
"nb c #214330",
"nc c #0a2416",
"nd c #092b1e",
"ne c #103524",
"nf c #28583d",
"ng c #0d2c1e",
"nh c #1f4732",
"ni c #0a2419",
"nj c #123423",
"nk c #0c2216",
"nl c #0d2e1f",
"nm c #214a35",
"nn c #0c271c",
"no c #0c261b",
"np c #05150d",
"nq c #18412e",
"nr c #173e2c",
"ns c #0e3624",
"nt c #103c25",
"nu c #0d2b1d",
"nv c #173c28",
"nw c #1b422d",
"nx c #040c07",
"ny c #153123",
"nz c #1b3a2a",
"nA c #143524",
"nB c #214732",
"nC c #152f21",
"nD c #133020",
"nE c #1b3829",
"nF c #152f23",
"nG c #091910",
"nH c #17291f",
"nI c #11271d",
"nJ c #031c12",
"nK c #051a11",
"nL c #072517",
"nM c #0b281c",
"nN c #0f3223",
"nO c #295d40",
"nP c #1f4933",
"nQ c #0a2519",
"nR c #0f2f1d",
"nS c #0d2e20",
"nT c #163a29",
"nU c #092717",
"nV c #254d38",
"nW c #132d22",
"nX c #0b2417",
"nY c #05100a",
"nZ c #1d4933",
"n0 c #05281a",
"n1 c #1d4c35",
"n2 c #0e3020",
"n3 c #1b4831",
"n4 c #021b10",
"n5 c #153926",
"n6 c #052218",
"n7 c #123421",
"n8 c #081a13",
"n9 c #0e271b",
"n! c #112d1f",
"n@ c #0e2b1c",
"n# c #0d291b",
"n$ c #1b3929",
"n% c #142e21",
"n^ c #173425",
"n& c #10281d",
"n* c #0b2116",
"n( c #081c11",
"n) c #113324",
"n- c #04271c",
"n+ c #0c281b",
"n= c #123825",
"n[ c #133a26",
"n] c #122d20",
"n{ c #1c432e",
"n} c #2c5e43",
"n| c #2a5840",
"n; c #143525",
"n: c #082018",
"n, c #0e3122",
"n. c #113120",
"n< c #0b1f15",
"n> c #26523b",
"n? c #1f4832",
"n~ c #163b28",
"n_ c #0f3625",
"oa c #082f1f",
"ob c #05261a",
"oc c #1f4a33",
"od c #18422c",
"oe c #1f3a2a",
"of c #040505",
"og c #0a2516",
"oh c #011810",
"oi c #183927",
"oj c #113123",
"ok c #163827",
"ol c #06291c",
"om c #041a14",
"on c #295c3f",
"oo c #0b241a",
"op c #1d3e2c",
"oq c #143926",
"or c #092419",
"os c #123726",
"ot c #0c2a1b",
"ou c #0d2218",
"ov c #1d4934",
"ow c #122c1f",
"ox c #1e4532",
"oy c #0e291d",
"oz c #091d14",
"oA c #1f4934",
"oB c #042219",
"oC c #103222",
"oD c #05271b",
"oE c #0b3421",
"oF c #19402d",
"oG c #123a26",
"oH c #0e3422",
"oI c #061a12",
"oJ c #082b1d",
"oK c #082a1e",
"oL c #020a06",
"oM c #010503",
"oN c #0a150f",
"oO c #04110b",
"oP c #153b28",
"oQ c #1d4c32",
"oR c #021d15",
"oS c #2c5f44",
"oT c #244a35",
"oU c #153826",
"oV c #183d29",
"oW c #10301f",
"oX c #0c1e14",
"oY c #234f38",
"oZ c #143425",
"o0 c #1f432f",
"o1 c #3f5d48",
"o2 c #06150e",
"o3 c #020503",
"o4 c #1c4531",
"o5 c #224a32",
"o6 c #1b3e2a",
"o7 c #163e2a",
"o8 c #072217",
"o9 c #0a281b",
"o! c #14261b",
"o@ c #03100c",
"o# c #0d1e14",
"o$ c #061e16",
"o% c #1d422e",
"o^ c #031e13",
"o& c #2e5e42",
"o* c #224c36",
"o( c #06190f",
"o) c #0a281a",
"o- c #173b27",
"o+ c #092517",
"o= c #0d261c",
"o[ c #19452f",
"o] c #143122",
"o{ c #020b06",
"o} c #02130b",
"o| c #214834",
"o; c #051e16",
"o: c #0f3622",
"o, c #0e2e1f",
"o. c #0c3120",
"o< c #0f3021",
"o> c #123324",
"o? c #2b503a",
"o~ c #183224",
"o_ c #1f3d2b",
"pa c #254b34",
"pb c #2d5a40",
"pc c #386a4b",
"pd c #265039",
"pe c #224732",
"pf c #284d38",
"pg c #1c3b2a",
"ph c #1c3d29",
"pi c #1a3222",
"pj c #061810",
"pk c #173021",
"pl c #2c563d",
"pm c #0f281e",
"pn c #19412b",
"po c #061711",
"pp c #102f1e",
"pq c #113121",
"pr c #15402c",
"ps c #143223",
"pt c #0b2618",
"pu c #020806",
"pv c #728e77",
"pw c #0e1910",
"px c #050f0a",
"py c #204431",
"pz c #062017",
"pA c #183f29",
"pB c #07251a",
"pC c #02170d",
"pD c #061d13",
"pE c #0e281d",
"pF c #0c3122",
"pG c #052114",
"pH c #142e20",
"pI c #1c3527",
"pJ c #0d2118",
"pK c #132b1e",
"pL c #122a1e",
"pM c #10271c",
"pN c #0c221a",
"pO c #051610",
"pP c #1f442e",
"pQ c #092718",
"pR c #01160e",
"pS c #153727",
"pT c #0e2f23",
"pU c #051c16",
"pV c #28553b",
"pW c #122c20",
"pX c #183e2a",
"pY c #092318",
"pZ c #183c2a",
"p0 c #143b29",
"p1 c #122015",
"p2 c #0d3320",
"p3 c #09291b",
"p4 c #0c2d20",
"p5 c #0f3424",
"p6 c #193727",
"p7 c #182d22",
"p8 c #12281b",
"p9 c #132e20",
"p! c #163423",
"p@ c #0c291d",
"p# c #102b1c",
"p$ c #183425",
"p% c #1a3325",
"p^ c #163021",
"p& c #12291b",
"p* c #0b1e14",
"p( c #1d392a",
"p) c #163824",
"p- c #143e27",
"p+ c #0e3121",
"p= c #173f29",
"p[ c #2e583e",
"p] c #132f22",
"p{ c #071b13",
"p} c #132c1e",
"p| c #153728",
"p; c #122d1d",
"p: c #0a1b12",
"p, c #010400",
"p. c #02110a",
"p< c #1b3d2b",
"p> c #264b36",
"p? c #021710",
"p~ c #153928",
"p_ c #031711",
"qa c #09261a",
"qb c #031f14",
"qc c #092d1f",
"qd c #092c1b",
"qe c #041e13",
"qf c #0e2719",
"qg c #103a27",
"qh c #173826",
"qi c #031812",
"qj c #254d34",
"qk c #1e422f",
"ql c #0f2c1c",
"qm c #123524",
"qn c #0d2318",
"qo c #173525",
"qp c #05130c",
"qq c #173727",
"qr c #021910",
"qs c #021b12",
"qt c #264e38",
"qu c #214e36",
"qv c #203c2b",
"qw c #010000",
"qx c #061710",
"qy c #163624",
"qz c #082416",
"qA c #204a30",
"qB c #112b1f",
"qC c #0f3321",
"qD c #112b1e",
"qE c #051710",
"qF c #0d2216",
"qG c #112417",
"qH c #021209",
"qI c #103522",
"qJ c #0d2b1b",
"qK c #213b2c",
"qL c #06120e",
"qM c #0c1d14",
"qN c #0d1d14",
"qO c #0e1c13",
"qP c #091810",
"qQ c #06110b",
"qR c #09140d",
"qS c #060f0a",
"qT c #05120d",
"qU c #020a08",
"qV c #183624",
"qW c #153523",
"qX c #061812",
"qY c #061b11",
"qZ c #071c14",
"q0 c #0d2f1f",
"q1 c #2a5639",
"q2 c #133122",
"q3 c #0f2c1d",
"q4 c #1a452e",
"q5 c #021e13",
"q6 c #204532",
"q7 c #0f2e20",
"q8 c #03180e",
"q9 c #163727",
"q! c #01170f",
"q@ c #112219",
"q# c #0e2117",
"q$ c #0a1d12",
"q% c #193022",
"q^ c #183323",
"q& c #193122",
"q* c #0d2017",
"q( c #07160f",
"q) c #1f402b",
"q- c #000d07",
"q+ c #00130d",
"q= c #1b3f2a",
"q[ c #173927",
"q] c #091c15",
"q{ c #143323",
"q} c #071710",
"q| c #0c2618",
"q; c #0c2016",
"q: c #173c29",
"q, c #0f251a",
"q. c #04170f",
"q< c #1d3f2d",
"q> c #011c10",
"q? c #0f3120",
"q~ c #173c2b",
"q_ c #0a2d1e",
"ra c #102e22",
"rb c #14442c",
"rc c #0a2319",
"rd c #113524",
"re c #0c281d",
"rf c #112f20",
"rg c #102117",
"rh c #0d2016",
"ri c #081812",
"rj c #02140d",
"rk c #02150b",
"rl c #26523a",
"rm c #0b2217",
"rn c #123222",
"ro c #091b12",
"rp c #153424",
"rq c #031008",
"rr c #16412d",
"rs c #031b11",
"rt c #041f12",
"ru c #022114",
"rv c #000f0a",
"rw c #01150e",
"rx c #24422f",
"ry c #06130f",
"rz c #0b2115",
"rA c #0e271c",
"rB c #112419",
"rC c #10251b",
"rD c #081a11",
"rE c #091a12",
"rF c #03120c",
"rG c #29533c",
"rH c #133121",
"rI c #143827",
"rJ c #0a2014",
"rK c #04120a",
"rL c #1a3c29",
"rM c #062118",
"rN c #19402a",
"rO c #031005",
"rP c #010e07",
"rQ c #0f281a",
"rR c #02110b",
"rS c #00130e",
"rT c #26503a",
"rU c #183b2a",
"rV c #082017",
"rW c #0b1d14",
"rX c #153625",
"rY c #1a3d29",
"rZ c #081912",
"r0 c #020e07",
"r1 c #1b402b",
"r2 c #011812",
"r3 c #02180e",
"r4 c #031912",
"r5 c #011811",
"r6 c #03100b",
"r7 c #142d20",
"r8 c #11281d",
"r9 c #102f1d",
"r! c #04140f",
"r@ c #01120a",
"r# c #153322",
"r$ c #042317",
"r% c #244d37",
"r^ c #0a1f14",
"r& c #1f4530",
"r* c #103120",
"r( c #092018",
"r) c #0a2215",
"r- c #1a432d",
"r+ c #0d2319",
"r= c #143322",
"r[ c #0b2216",
"r] c #081b15",
"r{ c #03140b",
"r} c #183426",
"r| c #0a3022",
"r; c #062c1d",
"r: c #0a2518",
"r, c #173324",
"r. c #061910",
"r< c #0f2419",
"r> c #12261c",
"r? c #11251a",
"r~ c #061c10",
"r_ c #071912",
"sa c #28523a",
"sb c #0d251a",
"sc c #051c14",
"sd c #0c2619",
"se c #0d271b",
"sf c #133625",
"sg c #183626",
"sh c #05150f",
"si c #122b1e",
"sj c #082315",
"sk c #0a281c",
"sl c #01100c",
"sm c #132e1f",
"sn c #0e2819",
"so c #0f2217",
"sp c #05140d",
"sq c #01140c",
"sr c #102f22",
"ss c #112a1e",
"st c #264c36",
"su c #122b1f",
"sv c #051910",
"sw c #0a1d14",
"sx c #193626",
"sy c #0b2316",
"sz c #071a11",
"sA c #1a3929",
"sB c #0f2f21",
"sC c #01140f",
"sD c #0f2d20",
"sE c #021a12",
"sF c #021c11",
"sG c #000d08",
"sH c #092017",
"sI c #071a14",
"sJ c #051711",
"sK c #041510",
"sL c #20422f",
"sM c #183a27",
"sN c #0a1e15",
"sO c #142b1e",
"sP c #0e2015",
"sQ c #14281c",
"sR c #12271d",
"sS c #0f2017",
"sT c #0e2116",
"sU c #0f2118",
"sV c #092315",
"sW c #0c2117",
"sX c #082115",
"sY c #060f09",
"sZ c #010701",
"s0 c #030b07",
"s1 c #040d08",
"s2 c #020804",
"s3 c #040c08",
"s4 c #061912",
"s5 c #0b2319",
"s6 c #030f09",
"s7 c #1f402f",
"s8 c #0c2116",
"s9 c #0a1e14",
"s! c #0d2116",
"s@ c #0e2317",
"s# c #071910",
"s$ c #06170e",
"s% c #0a1e12",
"s^ c #020d09",
"s& c #204933",
"s* c #163926",
"s( c #153524",
"s) c #264c37",
"s- c #1f4630",
"s+ c #234632",
"s= c #0c1f16",
"s[ c #163425",
"s] c #10291b",
"s{ c #163422",
"s} c #132d20",
"s| c #0f2319",
"s; c #0f261a",
"s: c #0c281a",
"s, c #030a07",
"s. c #133021",
"s< c #020504",
"s> c #31533b",
"s? c #27452e",
"s~ c #264935",
"s_ c #1e3f2c",
"ta c #1f442f",
"tb c #244932",
"tc c #284a38",
"td c #204430",
"te c #355640",
"tf c #294b35",
"tg c #1e3928",
"th c #375a44",
"ti c #1f3b2c",
"tj c #13271a",
"tk c #2b503b",
"tl c #1f3d2c",
"tm c #182e21",
"tn c #23402f",
"to c #112c1f",
"tp c #1c3a27",
"tq c #11281b",
"tr c #142d1f",
"ts c #153224",
"tt c #1c3829",
"tu c #0d1e15",
"tv c #132a19",
"tw c #0b2516",
"tx c #11291c",
"ty c #03190d",
"tz c #04140d",
"tA c #092014",
"tB c #000903",
"tC c #031109",
"tD c #102619",
"tE c #04150d",
"tF c #042013",
"tG c #021008",
"tH c #092316",
"tI c #081811",
"tJ c #1f412d",
"tK c #011610",
"tL c #0e281c",
"tM c #1d3726",
"tN c #081b11",
"tO c #010e08",
"tP c #0a1b13",
"tQ c #05140c",
"tR c #04130d",
"tS c #0c1e17",
"tT c #142a1f",
"tU c #071811",
"tV c #06160e",
"tW c #0c1d16",
"tX c #061b13",
"tY c #152b1e",
"tZ c #284230",
"t0 c #254733",
"t1 c #224130",
"t2 c #092119",
"t3 c #0e2118",
"t4 c #081f17",
"t5 c #081b13",
"t6 c #091f13",
"t7 c #0a2115",
"t8 c #0e2718",
"t9 c #020e09",
"t! c #0b2218",
"t@ c #183225",
"t# c #1b3827",
"t$ c #163223",
"t% c #1a3626",
"t^ c #0e291a",
"t& c #1b3627",
"t* c #22402f",
"t( c #102a1f",
"t) c #173c2d",
"t- c #143125",
"t+ c #112c20",
"t= c #203e2f",
"t[ c #0d251b",
"t] c #0b271c",
"t{ c #0f2a21",
"t} c #0b1e16",
"t| c #0f271c",
"t; c #081c14",
"t: c #05140e",
"t, c #07170f",
"t. c #091a13",
"t< c #091c12",
"t> c #193325",
"t? c #10261a",
"t~ c #06150d",
"t_ c #091811",
"ua c #0b1d15",
"ub c #0b2018",
"uc c #0a1911",
"ud c #061610",
"ue c #081e13",
"uf c #07150f",
"ug c #04100c",
"uh c #05110c",
"ui c #0a1d13",
"uj c #010c05",
"uk c #010803",
"ul c #011009",
"um c #030d09",
"un c #0d2619",
"uo c #08170f",
"up c #0e2216",
"uq c #08180f",
"ur c #091d15",
"us c #07190f",
"ut c #0a1f17",
"uu c #07160e",
"uv c #0c1e13",
"uw c #0b1e12",
"ux c #091911",
"uy c #05120b",
"uz c #020d0a",
"uA c #041b11",
"uB c #0a1f16",
"uC c #092118",
"uD c #06140d",
"uE c #081910",
"uF c #0c2014",
"uG c #081c12",
"uH c #1a3628",
"uI c #0b1f14",
"uJ c #091a10",
"uK c #07150e",
"uL c #071a10",
"uM c #04140b",
"uN c #04170d",
"uO c #06140f",
"uP c #04130e",
"uQ c #010a04",
"uR c #010a08",
"uS c #040e08",
"uT c #020c07",
"uU c #020e08",
"uV c #030d08",
"uW c #010807",
"uX c #0c271d",
"uY c #091e16",
"uZ c #0b251a",
"u0 c #103023",
"u1 c #0b271d",
"u2 c #071e17",
"u3 c #113124",
"u4 c #0d271c",
"u5 c #00150e",
"u6 c #030e0b",
"u7 c #061611",
"u8 c #00140d",
"u9 c #01160c",
"u! c #092619",
"u@ c #02150d",
"u# c #000f08",
/* pixels */
"aaabacadaeafagahaiajakalamanaoapaqarasatauavawaxayazaAaBaCaDaEaFaGaHaIaJaKaLavaMaNaOaPacaQaRaSaTaxaUaVaWaXaYaZa0a1aba2a3a4a5a6a7",
"a8a9a!aBa@a#ana$a%a^a&a*a(a)a-a+apa=a[a]a{a}a|a;a:a,aJa.a<a>a?a~a_babbbcbdbebfbga[bhbibjadbkblbma<bnbobpbqbrbsbtbua~bvbwbxbybzby",
"bAbBbCbDbEbFbGbHbIbJbKbLbMbNbObPbNbHbQbRbSbTbUbTbVbWbFbKbCbUbKbRbLbXbNbYbNbZb0b1b2bCbOb3bEb4bMb5b6bMb7bEb7bRb8bGbUbObNb9b9b!b6b@",
"b#b$b%b^a?b&b*b(b)b-b+b=b[b]b{b}b|b;b:b,b.b<aCb=b>bib.a)b?b~b_cab~cbcccdcecfcgchcibacjckb)clcmcncocpaJcqbacrcsctcucvcwcxcyb&czbm",
"cAbEcBbQcCcDcEcFcEcGcHcGcIcGcHcJcCcKcGcLcGcLcGcGcCcCcEcAcAcMcIcJcLcKcAcGcAcAcLcNcOcAcLcKcBcKcMcPcQcRcEcHcGcScJcScTcFcLcGcGcKcDcM",
"cUcVcWcXcbbFcYcZc0c1c2bPc3bLa5bzc4abc5b2bWc6c7c8c9c!c@a5c#bFc$bYc1c%c^c&c7c*c(c)c-bWc5bVc+c=c[c]c{bRc}c|c;c:a7bTc,bBc.bYc<c4bGc>",
"c<c?c~c_dadbdcbYdddedfbFdgc&dhb$didjdkdldmdnc<dodpbRdndqdrdsdtdudvdlc_dwa5c#dxdydzdAbFdBdCcga7dDdEcIbZa7dFcJcJcRcNdGdHdxdIdJdvdK",
"dLdMcxdNdOdqcxcbdPaEcmdQb{dRdqdSdTbgdUdVdWdXdYdZd0d1dodqc2d2dkb^d3d4d5d6aGd7d8d9d!d@cbd#d$d%d^d&d*d(d)d-d+d=d[cAd]d{d}d|d;a6a6d:",
"dfd,d.d<d>d?c#d~bWdsc%bYbFd_c%a5b6d$c3eab7ebbRecc=c3bFc2eddBc<eecbefegehd<eia6ejdqc-dqdAdYekelemaheneoepeqereseteua2dKevbPewa3dv",
"a-dPexeweyezeAeBeCeDeEeFeGeHeIeJeKeLeMeNeOePeQeReSeTeUcMeVeWeXeYdAeZe0e1e2e3aIe4e5d>daeWe6e7aMe8e9dve!e@e#a,e$dQbye%d^cee^ebe&dC",
"c5e*d3e(bcc^e)a[e-e+e=e[e]e{e}e|e;e:e,e.e<e>e?e~e_e~fafbcYfcfdcqdqfeeXffbcfgctfcfhfifdfja,fkflfmfnfofpb^fqfrfsftfudkfvfwfxfyfzdq",
"fAaqfBfCfDfEfFfGd;fHb;fIfJfKbva?fLfMb#fNfOfPd#fQfRdWfSfTfUe]cUa2fVd>clfWclfXctfYfZaHf0f1apf2f3f4f5d=d+f6f7cCcHf8bOcAf9f!f@f#fHf$",
"ctf%dud3f^bzf&f*f(d)f7f)d[f-d)d[d[d[f+f-d[d[d(d+f)f=f[cLf]f{f}b:f|f;djf:bmcqa>f,f.f<f>aCe0cNcWaIbQb9cDb@f?cIf~f_d|gagbb&gcbfdfcY",
"dDgdclgegfggghgigjcAb9bGbHbObCgkbCcDb9glbCcAgkcDd[gmgngogdgpgqgrgsdOgtb?gudugvgwgxgygzgAbkgBdvgCbGbKbGb9b3cTcScRgogDfoa!gEgFgGd3",
"gHgIgJe>gKgLgMgNgOb6bKdjcZcZgPdad:aIbygPd|d|c8ebd[gQgRgogSdogTgUgVgWgXgYcfeYgZg0g1fng2g3g4g5cKcOcOg6emgQg7g8frbig9fIg!gxg@b*g#d>",
"g$gXcqg%g^g&g*g(g)bHbycsacf$g-g+g=g[g]g{fqg}g|a2cIg;g:g,g.g<g>eog?g~g2e!f:g_hahbdUhchdhebmhfe%hghhhihjhkhlhmc{hngua~hohpdVdlfChq",
"hrhshthuhvhwhxhyhzbWhAaEhBhChDhEhFhGhHgie:hIhJhKgohLhMgohNhOhPhheYhQhRgShSb^fZdHhThUhVgRhWhXhYfLhZh0fFe?h1h2evh3d[h4h5e!czf^h6h7",
"h8h9h!figIh@h#a*h$b2h%h^dvh&dZbmd;cZd#hKbYh*fwh(goh)h-cDh+h=eYh[h]h{b^hef;h}dih|h;h:h,eGh.h<gocTh>h?cRcQh~d_cCh_iaa0ibh0icidiecl",
"ifigb<b<hyfcihfHa;bWh%iig|ijikiliminh$ioaCipiqird]isitfbiuiviwixiyhUiziAhRf@iBiCaKiDiEiFiGiHbziIcMbGiabNbRewiJaZaPiKiLcyiMg2fZiN",
"iOiPiQiRiSb-iTg5iUc%iViWaaa!iXiYa[iZbni0aBi1i2asd)i3i4fbi5bwi6iQi7aei8fVi9b]i!i@i#i$i%i^i&i*fui(i)i-i+i=i[i]i{i}i|h)i;i:b;i,b)c@",
"i.i<i>i?f>dYi~i_jabThmhBh(h0jbjcdNbhjdi0hrjegwa,gojfjgfbeYjhfccpjijjfVeQjkh!f0hKjljmfVijjnjojpjqa>jrhljsjtjug=jvi{h&jwjxjyjze5dr",
"jAjBjCiyjDjEjFjGjHbPaYjIc8jJf1jKjGh0jLjMd%jNf1jOjPjQjRcJjSdijTaQdijUjVjWjXjYjZj0j1grj2d<j3hYj4j5h5a%j6j7e+hJc]a&iZj8j9jqj!f<j@j#",
"j$j%j^j&j*j(j)j-j+bTi:j=dfi_j[j]j{j}j|g5j;j:j,j.goj<j>j?f{j~j_kajmkbkckdkekfkgb?hRdUhdkhkid(kjkkgod)f6bZenf4c,cIklgokmkndojhkoaN",
"kpkqkrksigktkukvkwbPkxfGc)kykzexkAkBa(hEh)kCi:d1kDd#kEfbkFjhkGkHh8kIkJkKkLkMgYcqkNkOkPkQd+kRkSj<f5cQf)f)d[kTd[d(bKdGkUkVfikWkXcs",
"kYkokZk0k1k2k3fLk4bYhieAb=k5amk6eyk7k8big9k9j7k!f6j<k@cKgIk#k$b?idffk%k^k&k7jUixk*k(k)k-k+c,bObBd)f5gok=d[kTf)d[d_k[k]k{gCh]dBk}",
"dik(hQj_k|iBk;k:k,k.k<k>k?k~iTk_lalblcldlefLlfhid+h&lgfblhlig5ljlklli!lmlnlolplqixk(lra$lsltlulvlwlxlylzeMlAlBh0lCa|lDlEc@hIcgj!",
"lFlGlHlIlJlKlLlMlNgklOlPlQd.lRgElSbje+g!a-b}lTc{lUd#lVbGdilWlXlYlZl0f}l1gXl2cqiAl3l4j;l5l6l7l8l9g{l!l@l#l#l$l%l^c[hhg#apk2l&l*hr",
"ixl(l0l)l-hel+l=l[bTl]l{l}l|l;l:a$l,l.l<l>l?l~a_cKl_mag,mbfQmcmdlpmegZkHb?jmmff@mgmhmimjmkmlmmgomncNmompmqmrmsmtmuhLmvcygnh%mwgu",
"kHmxmygWmzmAmBmCj7b@ade,b7d@b0ebmDc?mEf8mFmGk%k<d)mHmIj?mJmKmLmMmNmOf|lGmPmQmRg3i_mSb]ahmTmmcVf8d=cScTcSd[d+f)d[mUd)brl]mVfQisgt",
"mWlIjzfcgKmXmYkyjGc4bla|mQmZm0cvara$m1m2hjm3m4bugocwjacKi5m5eJchm6m7k*m8m9m!m@hee^m#m$d6d+bUa2i:mmf)cScSk=f)m%d(dvcGa|m^koe3f>eY",
"dUk*hRcqg2m&m*kvm(c3a,m)gXc@m-f}jdm+m=m[m]kwe]m{j?m}ikh~f.fZm|cqm;m:jym,f:cqcef.m.m<d8bvm>m?b3m~m_d+f+f6f6f+d+gonam>nbm]hqfZdAnc",
"ndnekGl)l)ktnfngnhdsnij7f@l<njcxiYnkitl%nlnmnnnog6npnqgonrb]jhhRhsf}akinhvnscqntnunvg~k<nwnxnye@nznAnBe2nCnDnEl9nFnGnHnIdfnJnKnL",
"f:g$nMmLnNhcnOiZnPb2nQnRm{nSnTaanUa&nVnWjlkMm[nXgonYnZj?n0n1kqiSgJakn2n3j}n4gJn5n6cigZk:n7cRn8n9n!n@n#n$n%n^n&n*n(g}fTaWn)n-drn+",
"n=n[n]n{kNhcn}d}n|bWc~n;n:n,lVj.n.n<n>aJgZn?l,b-d+e%n~bQn_idoaobb_ocoda8h-mzgJg2i8iQjUhioed(f6f+ofd+d+d-d+d-d+d+jPcImmoga[ohaHbv",
"oiojokolfVomonooopbWi:oqorosgRaQotouovowh]oxoyozf6l_oAj?oBoCi,oDhscqoEoFoGoHjzoIoJf{oKfCoLoMebfsd[d[d(f-d(d[f)d(b3mEbYoNaAgUoOi,",
"jhoPaCoQgJoRoSeuoTbPkxd,nQoUoVh%oWoXoYoZd1o0o1o2o3bXo4gogtcqaCb?k*o5o6o7a8lXgYo8o9hsiffQeMo!dFevf)d(d(f-f)d[f)d(o@nxk[o#bcbmaDc)",
"o$o%o^ktfDh}o&apo*c3o(o)f}e:o-fno+o=o[o]hIj<o{kDd+o}o|j?jzo;hvo:o,n6gto.jDo<jme!d0dHo>i@e?o?o~o_papbpcpdpepfpgphnEpipjpkg@cckgd2",
"celFgXn:i,h7plpmpnh4poppk5gjpqevgci:prpsptpupvpwmmpxokj?pypzpApBpCpDi,frfZd3cepElMizpFpGpHpIg=pJouo]pKpLpMh5a!hhpNpOm+a<pPpQpRdO",
"pSakcqpTfZpUpVpWpXbWaud<pYegpZaGfafqp0h5d%b3p1kDd]f~oqj?n2lpp2dqp3p4e5h8f.cggup5i,hedAp6p7p8a_p9p!p@p#p$nyblp%p^p&p*p(a(j5hop)fn",
"p-dujzp+p=omp[p]e:bWp{fSj!p}p|dHp;p:n2hphid0d)p,f6p.p<fbp>p?kgp~g+p_qaccqbqchNqdd8qehdazqfj?god[cScSd[d[cSf-cSd[d)f5efa,bFagbyp_",
"d1qgcqchqhqiqjaqqkb2ozqlj!aMqmpOadqngRiic~qoqpcQd+g6qqcKdYdjdmnMorqreYi5qsd2k*qtctqufCcpqvgoc4asf)d(d[qwf-f-f)f)bGjoqxhlmtqya2aI",
"fZidbaqzqed2qAqBm)b@a~qCpYqDi9qEqFqnjWjIa?qhqGbCf+qHhZgodgckb<qIb^dlcUh}cthSfGoCk7d8gzm,qJqKqLgOqMqNqOqPqQqRqShYqTqUqVfqqWqXqYdQ",
"qZa2kto)q0djq1hlepbVc?lEasaSq2a,q3a]q4ddagopc<dCjPqHeofbq5q6lGe>q7hsf|q8hqhrdBq9p;c%q!akcvaZq@q#ajq$a(q%q#q^nCq&q*q(q)aYq-q+ktc[",
"dDlFm:dpd4ewq=gEq[bVq]mjlMkyq{q}q|q;q:q,aNe|q.jQfbgQq<cGq>q?dpq~e,gXd#aCqrdjq_rac@rbd8cYa9bIk5dArcrdreeurfl9rgrhg=ridMa0rjo8gPaI",
"gWbzf<iOrkfHrlrmlrbYd}rnaaelfXaibrroi6a$birpc~g}fbrqrfcKrrrsase]rtcUf@d8iQk2rue]h1rvrwcfrxcAryrzj5hlrAe=rBg=rCrDrEjfd[e@d<e5g+g|",
"czo8cgdqfNrFrGd.pqc3fqrHb=awl6e%q|q;rIrJmWe)bnjQd)rKrLgohceSnQdppprMg@jyjja2p@rNh(f|a3aBa}rOfTrPcJgocGcRd(f-p,d(cIcPf)rQirrRasqY",
"bmd2ctclcxrSrTiqrUbPn<hprVa$j5pOkVrWrXiqgVrYekrZd]r0r1gor2dujDcgl]fAg|g@r3r4r5jQbmcac<jBr6r7cRcOaIamr8n!r9qlbmaucxf~bUhgr!pjcVnK",
"r@r#b$r$f#d3r%r^r&bTa$r*r(m+n!e!r)n<r-r+acr=r[r]jPr{r}cIr|hqrjr;gbcZg|g?rjdqqraPh_csfAfnr:r,ircwr+r.iid*ijr<r>pKr?oXbNj7f#r~j;a4",
"a>n#r_rFeWc#sasbq2c3l9hoscsdseoIbvrWsfg!c)sgd^shgodhsij?i^rwfZh_cYf#q!sjrjcbskduqrsla;o(smpoebfxlDa]qnsnr^sorzrKsprFbLaLbzsqaLhK",
"gwsrssa2g3bFstaxf*k.l%suc!c4bRsvkVswb3bAmJsxsyszd)a4sAg,sBsCdCaIc#j=eSeusDk%sEq!a6r5sFc7sGcbsGaIsHa0d3gAsIh_sJsKc*c3bPm~cbdlb~bF",
"pYd*aehfp?a3sLb-sMbTsNsOsPsQo]sRa_sSjusTsUsglTd|d)c4qocGeerVf!cYp?c?bpm}sVsWdhdCfCd$sXe!a_d|sYsZd_s0s1s0s2cNcPmUg6cKcGs3dvs4h4dh",
"s5s6b.bNh4c%s7s8pHbKs9s!s@s#kxfwh2m^ajros$a=s%eed+bRp9cTbKhLbFc4bYnal_g;s1bLbNh4bKb9bZbZbNbOcacKbKb!cYg|a2g|bccIc4bHcKs^b3b6bImE",
"s&s*s(s)s-lvs+s=s[bTd5nps]s{hlows}s|s;s:n#aDa@dCd+s,s.s<s>mZs?s~s_tatbtctdteaMtftgthtitjhZtktltmtntotpfqtqaJtrtstttuhWbktvtwtxe$",
"tyc;g}tzf8bUkzrCtAbKhhrmbCbEbQcLgotBcCtBcDa:kxbFcStCa.fbdWm~i|aYcotDo(f_ahbZi3tEhKtFtGaStHq.dZrPaEa4hKbMdXq-d;bRdKebbFmEbGh4dtb2",
"tIk<p{oIabbWtJsNexbCevtDtKc!c?n<tLkytMsWebi]tNf#d+bRr)cMqDe%ebtOshaRtPbttQd7mpdIr+ddtRe%hLrWtStTsJe!tUdvtVtWtIa_tXrhtYe!shaEh%sv",
"tZh5t0t1jrt2n$t3t4bNt5b-iJt6dnt7a=nkt8svf#a&r^b@got9t!s2t@r}t#t$t%t^t&t*nWt(rAt)t-t+t=dNlSaft[nMdrt]e5t{t}evs9s4t|a_o2ouk4t;t:c;",
"qxrEt,t.t<qTt>g{d}bOpoq;d:f#mFc}oOc}dvhYdzt?t~cYgod_fQgot_uat6roswn<awaBawa@coubrEuctUudaLpjqxemevueq(c;s$tztztRkSuftze%fxr!uguh",
"a}hYaXrDs9dztisNuibObBc[tOh4ujh?uknacOcHulums#bRgod_uncSnGfxc{r@szuoupuquiaDtzg#t,a0i:asrAuruss5aQd#utdDuuajuvuwuxt,dqdZsNr6uyf~",
"k.cZc%uzbFbWj5q}e@f4h_sJdWt:l%j.uAa=hgtHlMa2qYa5d)hLaLh~uBhYb@axiVh_e%rFfnuCase5a2dIt9bcc<spa2bLg#n8abrEtzebcZuDs^j8uEj8t9o2h4g#",
"r.b.uFhJuGcVuHa0c?bEc}bNqEm{jQf#cUh&ausvmEa4bIbYcSbKc}g,gCuIswuJuKuwuLuJqPf_uMfun(t7c{aLfxdDuNa_rRdzo2cVc4bBb4bHd@bGbIb1uObTj<d@",
"tRs^dZbYrRb9t|c|szcRbRh_dvmErReZbYdhrqdkdkbLc4ukd(b9evcHcZh4a5bPbzbRb@b@bRuPc4ebc4j<bRcZb7c}c%cQb@c%f4bNbUb!bOcOb6enc,cQuQmEcQen",
"h4bGs^uRtOgka4oLuSgkmEbMh4a4bAh4tOebc4a5o}dvebbGd_m?bAg,bGt9uTbRb6a7bKbGbRuUbKbGbCb3bNb3bGbUq-bKb9bRbGc,b0uVc,cQuWuTcObKmEb7b4bG",
"fiamfidhc$uXuYdBqah(c8c@uZgVu0f;pYb|nKu1dTbRu2bcrcu3u4iNr(iahqq!duj!d2evj.e4k2u5oIcZc}dhrFu6b9bcaIbzbOdCebbYu7o@uRbGbWdqk5dCbYh&",
"bIb@ebhVbRbOgkc-sGbOdIc<dhc2iau8aPbyc)u9u!l)c4h?dteba6bPiahqdKb@dubHdhsck.u@gkdabCpRcbg@ejjBiabFbRu#eecYdhbRebcWfCbFhVbKbTbJk.bR"
};