/* XPM */
static char *wall_2[] = {
/* columns rows colors chars-per-pixel */
"64 64 1841 2",
/* colors */
"aa c #0b261c",
"ab c #0a2118",
"ac c #071611",
"ad c #0e281d",
"ae c #173424",
"af c #0c2a1d",
"ag c #0a1e15",
"ah c #133123",
"ai c #0c2217",
"aj c #0b1e14",
"ak c #112b1e",
"al c #163829",
"am c #163424",
"an c #081c14",
"ao c #081f14",
"ap c #122e21",
"aq c #163224",
"ar c #0c261a",
"as c #12281d",
"at c #091911",
"au c #0f281b",
"av c #0d2b1e",
"aw c #0d2418",
"ax c #0f271a",
"ay c #0b261a",
"az c #06130e",
"aA c #051f14",
"aB c #0e291c",
"aC c #10271c",
"aD c #0a2619",
"aE c #081c13",
"aF c #0e281b",
"aG c #132d1e",
"aH c #142d20",
"aI c #11271a",
"aJ c #133021",
"aK c #102b1d",
"aL c #0d271b",
"aM c #142e21",
"aN c #102e20",
"aO c #0d2218",
"aP c #12281b",
"aQ c #071c12",
"aR c #071a11",
"aS c #103323",
"aT c #0e291b",
"aU c #081f13",
"aV c #061c12",
"aW c #04160e",
"aX c #0a1d13",
"aY c #0c1f13",
"aZ c #081c12",
"a0 c #091d11",
"a1 c #010f09",
"a2 c #071f15",
"a3 c #03160c",
"a4 c #0b2016",
"a5 c #02140c",
"a6 c #03120b",
"a7 c #04130d",
"a8 c #04140f",
"a9 c #0b1f15",
"a! c #071a12",
"a@ c #0f2b1d",
"a# c #0c2015",
"a$ c #112e1f",
"a% c #0a1d14",
"a^ c #0d2a1c",
"a& c #0b281a",
"a* c #153525",
"a( c #0a261a",
"a) c #0a2919",
"a- c #10291a",
"a+ c #0c271b",
"a= c #0f2e1f",
"a[ c #123223",
"a] c #0d291c",
"a{ c #0d271a",
"a} c #0a251a",
"a| c #183526",
"a; c #0b2015",
"a: c #0a1b13",
"a, c #0e2519",
"a. c #102c1e",
"a< c #102b1e",
"a> c #071e13",
"a? c #0a2217",
"a~ c #0c2014",
"a_ c #112a1b",
"ba c #0e2316",
"bb c #0f2218",
"bc c #0b2217",
"bd c #0c2216",
"be c #112619",
"bf c #081b13",
"bg c #092116",
"bh c #0e2319",
"bi c #0b2319",
"bj c #0d2217",
"bk c #122b1c",
"bl c #10271a",
"bm c #071b11",
"bn c #071912",
"bo c #0c2114",
"bp c #0e261b",
"bq c #081b11",
"br c #0f261b",
"bs c #061b14",
"bt c #04150e",
"bu c #061b13",
"bv c #071810",
"bw c #081f16",
"bx c #07190f",
"by c #051c13",
"bz c #01120c",
"bA c #071c13",
"bB c #051a13",
"bC c #071d13",
"bD c #081a11",
"bE c #010c09",
"bF c #02110c",
"bG c #010e0a",
"bH c #010c0a",
"bI c #010a06",
"bJ c #020e09",
"bK c #010c08",
"bL c #030f0a",
"bM c #030e09",
"bN c #020d08",
"bO c #010a07",
"bP c #020d09",
"bQ c #040e0a",
"bR c #030e0b",
"bS c #020e0a",
"bT c #010d09",
"bU c #010908",
"bV c #01100a",
"bW c #010d08",
"bX c #020f0b",
"bY c #061810",
"bZ c #02120c",
"b0 c #000b08",
"b1 c #020e0b",
"b2 c #000d09",
"b3 c #010b08",
"b4 c #03110b",
"b5 c #020c09",
"b6 c #000706",
"b7 c #000b07",
"b8 c #02100b",
"b9 c #010d0a",
"b! c #000a06",
"b@ c #000907",
"b# c #010906",
"b$ c #020c08",
"b% c #010907",
"b^ c #010b07",
"b& c #020d0a",
"b* c #020f0a",
"b( c #092219",
"b) c #051f16",
"b- c #061f15",
"b+ c #0b2418",
"b= c #091e15",
"b[ c #092318",
"b] c #0a261c",
"b{ c #071e15",
"b} c #062016",
"b| c #082417",
"b; c #082418",
"b: c #062216",
"b, c #072418",
"b. c #072015",
"b< c #061910",
"b> c #092218",
"b? c #082016",
"b~ c #0a2116",
"b_ c #0e2c20",
"ca c #071d12",
"cb c #082216",
"cc c #092217",
"cd c #041e14",
"ce c #0d281b",
"cf c #072116",
"cg c #082116",
"ch c #0a2419",
"ci c #061a11",
"cj c #092016",
"ck c #081d13",
"cl c #0c291b",
"cm c #0b2419",
"cn c #081e15",
"co c #0c281c",
"cp c #072117",
"cq c #0d261c",
"cr c #0a2117",
"cs c #102c1f",
"ct c #0b261b",
"cu c #112d20",
"cv c #0f2a1e",
"cw c #092419",
"cx c #08241a",
"cy c #0f2c1d",
"cz c #092519",
"cA c #082017",
"cB c #0e2b1d",
"cC c #041d13",
"cD c #092319",
"cE c #061e14",
"cF c #082015",
"cG c #122a1f",
"cH c #143121",
"cI c #0b2218",
"cJ c #0a1c14",
"cK c #092017",
"cL c #051610",
"cM c #03100c",
"cN c #000d08",
"cO c #020b08",
"cP c #000906",
"cQ c #000c07",
"cR c #000c08",
"cS c #01130d",
"cT c #000a07",
"cU c #000805",
"cV c #000c09",
"cW c #02120b",
"cX c #01100b",
"cY c #010f0a",
"cZ c #020b07",
"c0 c #000704",
"c1 c #010b06",
"c2 c #000806",
"c3 c #000905",
"c4 c #041610",
"c5 c #04150d",
"c6 c #05160f",
"c7 c #092317",
"c8 c #000d0b",
"c9 c #031911",
"c! c #000a08",
"c@ c #02150e",
"c# c #00110c",
"c$ c #061912",
"c% c #01150d",
"c^ c #00130e",
"c& c #021710",
"c* c #01110c",
"c( c #051e16",
"c) c #00120c",
"c- c #000e08",
"c+ c #031810",
"c= c #02160f",
"c[ c #000e0b",
"c] c #010e09",
"c{ c #04160f",
"c} c #041b12",
"c| c #000c0a",
"c; c #061f16",
"c: c #000f0b",
"c, c #01140e",
"c. c #031c12",
"c< c #010b09",
"c> c #00120b",
"c? c #082218",
"c~ c #092216",
"c_ c #0c2418",
"da c #0c2417",
"db c #011710",
"dc c #011b12",
"dd c #01100d",
"de c #04190e",
"df c #051910",
"dg c #0f2c1e",
"dh c #00100a",
"di c #091d15",
"dj c #0d2b1d",
"dk c #0d2519",
"dl c #0b1d15",
"dm c #01120d",
"dn c #07251a",
"do c #01130e",
"dp c #062015",
"dq c #041811",
"dr c #00120d",
"ds c #02130c",
"dt c #0d2c1c",
"du c #03150d",
"dv c #010e0b",
"dw c #02150f",
"dx c #051f15",
"dy c #01140d",
"dz c #0e2a1c",
"dA c #00100b",
"dB c #0a2018",
"dC c #041c13",
"dD c #000e0a",
"dE c #061f14",
"dF c #03110c",
"dG c #041b13",
"dH c #01110b",
"dI c #041b11",
"dJ c #02140e",
"dK c #0c281a",
"dL c #152d20",
"dM c #01100c",
"dN c #010e0c",
"dO c #051b11",
"dP c #0c2317",
"dQ c #0e2b20",
"dR c #0d2318",
"dS c #0c2519",
"dT c #02160e",
"dU c #0a2719",
"dV c #071f14",
"dW c #123322",
"dX c #01170f",
"dY c #112d1d",
"dZ c #09281c",
"d0 c #072719",
"d1 c #153220",
"d2 c #021a12",
"d3 c #0a2818",
"d4 c #041a11",
"d5 c #072118",
"d6 c #072013",
"d7 c #01130c",
"d8 c #010f0b",
"d9 c #031913",
"d! c #143928",
"d@ c #0e291a",
"d# c #01120b",
"d$ c #0f2a1b",
"d% c #0c2319",
"d^ c #10291d",
"d& c #092115",
"d* c #051a10",
"d( c #0b291e",
"d) c #0e2a1d",
"d- c #061e15",
"d+ c #031912",
"d= c #0d2719",
"d[ c #132e21",
"d] c #051d14",
"d{ c #0f3021",
"d} c #031510",
"d| c #102c1d",
"d; c #163625",
"d: c #072618",
"d, c #082316",
"d. c #0a2115",
"d< c #051710",
"d> c #061911",
"d? c #092516",
"d~ c #03160e",
"d_ c #010e08",
"ea c #06120d",
"eb c #04100a",
"ec c #050f0b",
"ed c #03100a",
"ee c #03130c",
"ef c #010905",
"eg c #020b09",
"eh c #03150f",
"ei c #041a12",
"ej c #061d13",
"ek c #092518",
"el c #0a2316",
"em c #052216",
"en c #0f291b",
"eo c #0b2719",
"ep c #061c14",
"eq c #0c271a",
"er c #081d14",
"es c #0c281b",
"et c #031710",
"eu c #02130d",
"ev c #102a1d",
"ew c #051c14",
"ex c #031c13",
"ey c #03150e",
"ez c #031a12",
"eA c #011810",
"eB c #0b2619",
"eC c #02150b",
"eD c #031811",
"eE c #011811",
"eF c #02130e",
"eG c #061b12",
"eH c #00140d",
"eI c #0f2619",
"eJ c #092418",
"eK c #062316",
"eL c #010503",
"eM c #153021",
"eN c #183424",
"eO c #10281a",
"eP c #132f20",
"eQ c #203f2c",
"eR c #143120",
"eS c #294f36",
"eT c #183928",
"eU c #173525",
"eV c #1f432d",
"eW c #112a1d",
"eX c #20432f",
"eY c #2b4f38",
"eZ c #21452f",
"e0 c #1d3f2d",
"e1 c #1b3928",
"e2 c #173120",
"e3 c #1b3825",
"e4 c #000202",
"e5 c #02140d",
"e6 c #163827",
"e7 c #143021",
"e8 c #00160f",
"e9 c #021912",
"e! c #08281c",
"e@ c #022014",
"e# c #041710",
"e$ c #123120",
"e% c #183d2b",
"e^ c #08261b",
"e& c #021811",
"e* c #02150d",
"e( c #113221",
"e) c #021810",
"e- c #143524",
"e+ c #072317",
"e= c #0c2b1c",
"e[ c #112d1f",
"e] c #173524",
"e{ c #062117",
"e} c #03120d",
"e| c #041912",
"e; c #143323",
"e: c #132f22",
"e, c #103120",
"e. c #0d2319",
"e< c #031a11",
"e> c #0a281b",
"e? c #163624",
"e~ c #01160f",
"e_ c #000201",
"fa c #04190f",
"fb c #133023",
"fc c #163121",
"fd c #163123",
"fe c #0f2d1f",
"ff c #0f2c1c",
"fg c #143625",
"fh c #224933",
"fi c #193828",
"fj c #1e402d",
"fk c #123222",
"fl c #163425",
"fm c #18402b",
"fn c #123825",
"fo c #224331",
"fp c #1c3e2c",
"fq c #071c15",
"fr c #000102",
"fs c #052017",
"ft c #032116",
"fu c #021c13",
"fv c #031d13",
"fw c #00150c",
"fx c #0a2d1e",
"fy c #02140f",
"fz c #062318",
"fA c #02180f",
"fB c #052519",
"fC c #00150e",
"fD c #0f2a1d",
"fE c #133524",
"fF c #143825",
"fG c #01180f",
"fH c #041a13",
"fI c #183e29",
"fJ c #143725",
"fK c #03130e",
"fL c #031610",
"fM c #021910",
"fN c #021911",
"fO c #021812",
"fP c #020704",
"fQ c #0f291c",
"fR c #142d21",
"fS c #153324",
"fT c #204331",
"fU c #224733",
"fV c #1d412f",
"fW c #2c543d",
"fX c #173c2c",
"fY c #244b37",
"fZ c #2a513c",
"f0 c #1c3b2b",
"f1 c #336145",
"f2 c #1f4730",
"f3 c #224532",
"f4 c #1c412e",
"f5 c #143020",
"f6 c #0f271b",
"f7 c #020303",
"f8 c #123624",
"f9 c #041f14",
"f! c #06241a",
"f@ c #041c14",
"f# c #123321",
"f$ c #0a291c",
"f% c #051c12",
"f^ c #031b12",
"f& c #062319",
"f* c #051e15",
"f( c #1c3e2d",
"f) c #041d11",
"f- c #143122",
"f+ c #1a3d2b",
"f= c #082117",
"f[ c #041911",
"f] c #173624",
"f{ c #051b12",
"f} c #031910",
"f| c #02170f",
"f; c #021b13",
"f: c #0a241b",
"f, c #07241c",
"f. c #030603",
"f< c #173223",
"f> c #010301",
"f? c #000200",
"f~ c #000100",
"f_ c #000401",
"ga c #000000",
"gb c #000301",
"gc c #020400",
"gd c #010201",
"ge c #000300",
"gf c #173b29",
"gg c #000302",
"gh c #042217",
"gi c #062218",
"gj c #01190e",
"gk c #042118",
"gl c #07271b",
"gm c #01170d",
"gn c #0f3121",
"go c #062116",
"gp c #173d2c",
"gq c #05271b",
"gr c #052117",
"gs c #041c15",
"gt c #052116",
"gu c #1e432d",
"gv c #1a3b2a",
"gw c #0e3425",
"gx c #153321",
"gy c #1b422b",
"gz c #031f14",
"gA c #042117",
"gB c #0c2f20",
"gC c #061e13",
"gD c #051b0f",
"gE c #1f4534",
"gF c #042619",
"gG c #010402",
"gH c #132d20",
"gI c #132d1f",
"gJ c #010804",
"gK c #000603",
"gL c #000803",
"gM c #000804",
"gN c #193a29",
"gO c #102b1c",
"gP c #0c2e20",
"gQ c #123426",
"gR c #153827",
"gS c #031e15",
"gT c #143523",
"gU c #092d1e",
"gV c #032216",
"gW c #07291d",
"gX c #05140e",
"gY c #042317",
"gZ c #0f3924",
"g0 c #061f18",
"g1 c #03130f",
"g2 c #031f16",
"g3 c #01160e",
"g4 c #1f4531",
"g5 c #072417",
"g6 c #254f35",
"g7 c #03170f",
"g8 c #011e14",
"g9 c #031d15",
"g! c #22422e",
"g@ c #062718",
"g# c #09261a",
"g$ c #153a26",
"g% c #031d12",
"g^ c #010202",
"g& c #1f412e",
"g* c #010904",
"g( c #001009",
"g) c #01110d",
"g- c #02110d",
"g+ c #02130f",
"g= c #051a12",
"g[ c #163422",
"g] c #133222",
"g{ c #0d3222",
"g} c #02150c",
"g| c #04261a",
"g; c #031e12",
"g: c #204831",
"g, c #255035",
"g. c #16432e",
"g< c #04271a",
"g> c #07291c",
"g? c #052518",
"g~ c #041f15",
"g_ c #041f12",
"ha c #041e15",
"hb c #08291c",
"hc c #042015",
"hd c #052418",
"he c #082215",
"hf c #032318",
"hg c #0e2e1f",
"hh c #0b2b1c",
"hi c #021c15",
"hj c #041810",
"hk c #062118",
"hl c #0a2416",
"hm c #03190f",
"hn c #020804",
"ho c #163b29",
"hp c #1f412f",
"hq c #000703",
"hr c #071c14",
"hs c #0c2118",
"ht c #081e14",
"hu c #0b2117",
"hv c #091f14",
"hw c #072016",
"hx c #091e16",
"hy c #173725",
"hz c #112f1f",
"hA c #021a10",
"hB c #032015",
"hC c #274f35",
"hD c #244e35",
"hE c #1d432f",
"hF c #031a10",
"hG c #08291d",
"hH c #06261c",
"hI c #06261b",
"hJ c #0e3321",
"hK c #09251a",
"hL c #03180f",
"hM c #032317",
"hN c #0e3523",
"hO c #072219",
"hP c #0f3221",
"hQ c #1b442a",
"hR c #062017",
"hS c #022117",
"hT c #042017",
"hU c #173b25",
"hV c #061d12",
"hW c #021a0e",
"hX c #082319",
"hY c #051b13",
"hZ c #041e16",
"h0 c #0a2f1b",
"h1 c #062115",
"h2 c #020805",
"h3 c #153a28",
"h4 c #193b2a",
"h5 c #010c07",
"h6 c #03160f",
"h7 c #071b13",
"h8 c #12271a",
"h9 c #123021",
"h! c #12301f",
"h@ c #133020",
"h# c #0d2a1b",
"h$ c #153424",
"h% c #1c3f2e",
"h^ c #1e402e",
"h& c #153022",
"h* c #0c2117",
"h( c #010101",
"h) c #1e412c",
"h- c #102d1e",
"h+ c #021610",
"h= c #0b2f20",
"h[ c #1c432f",
"h] c #153e28",
"h{ c #17402a",
"h} c #1b3f2c",
"h| c #153c29",
"h; c #05271a",
"h: c #062418",
"h, c #163927",
"h. c #123725",
"h< c #123525",
"h> c #031c11",
"h? c #1c452e",
"h~ c #042116",
"h_ c #071d15",
"ia c #051c15",
"ib c #0d3121",
"ic c #042418",
"id c #021a11",
"ie c #163928",
"if c #092e1a",
"ig c #133321",
"ih c #051d15",
"ii c #0a2c1f",
"ij c #042318",
"ik c #133322",
"il c #133624",
"im c #000b06",
"in c #0d261b",
"io c #061a12",
"ip c #051811",
"iq c #061811",
"ir c #030b08",
"is c #0e251a",
"it c #142a1f",
"iu c #173523",
"iv c #123422",
"iw c #052015",
"ix c #133221",
"iy c #0a291b",
"iz c #092a1c",
"iA c #082a1a",
"iB c #0a2d20",
"iC c #05251a",
"iD c #062317",
"iE c #07281b",
"iF c #1a3f2c",
"iG c #26503a",
"iH c #0a2d1d",
"iI c #1a3f2a",
"iJ c #0d3426",
"iK c #04251a",
"iL c #041d14",
"iM c #052319",
"iN c #1e482f",
"iO c #041d12",
"iP c #143623",
"iQ c #133022",
"iR c #031e13",
"iS c #042519",
"iT c #041e12",
"iU c #040905",
"iV c #163526",
"iW c #1f4834",
"iX c #04180e",
"iY c #03120c",
"iZ c #0e2b1c",
"i0 c #1b3926",
"i1 c #183728",
"i2 c #173c29",
"i3 c #305541",
"i4 c #05120d",
"i5 c #0e241a",
"i6 c #0c2218",
"i7 c #1f3d2b",
"i8 c #052115",
"i9 c #113524",
"i! c #224c36",
"i@ c #1c442f",
"i# c #26543d",
"i$ c #08281b",
"i% c #092a1d",
"i^ c #275038",
"i& c #1b4631",
"i* c #00160c",
"i( c #031711",
"i) c #08251a",
"i- c #041f13",
"i+ c #092619",
"i= c #173728",
"i[ c #102f20",
"i] c #051e14",
"i{ c #133a26",
"i} c #09281d",
"i| c #092a1e",
"i; c #020503",
"i: c #112b1d",
"i, c #214935",
"i. c #071b12",
"i< c #091b12",
"i> c #091b13",
"i? c #0f301f",
"i~ c #173f2d",
"i_ c #153225",
"ja c #142f22",
"jb c #264634",
"jc c #0f271c",
"jd c #1f402d",
"je c #010302",
"jf c #031d14",
"jg c #1b4c35",
"jh c #032217",
"ji c #062419",
"jj c #244e38",
"jk c #1d412e",
"jl c #082619",
"jm c #05291c",
"jn c #062519",
"jo c #07261b",
"jp c #052317",
"jq c #18402a",
"jr c #1c4330",
"js c #123723",
"jt c #062619",
"ju c #072519",
"jv c #143622",
"jw c #031b10",
"jx c #06251a",
"jy c #1b452f",
"jz c #163e29",
"jA c #1a3c29",
"jB c #041d15",
"jC c #153f2a",
"jD c #030604",
"jE c #264f38",
"jF c #11291c",
"jG c #122c1e",
"jH c #0d2216",
"jI c #142f20",
"jJ c #214232",
"jK c #1a3a29",
"jL c #122d1f",
"jM c #1f3d2d",
"jN c #03140c",
"jO c #11261a",
"jP c #142f24",
"jQ c #244932",
"jR c #133423",
"jS c #0a2f21",
"jT c #062219",
"jU c #06261a",
"jV c #032017",
"jW c #062b1b",
"jX c #214634",
"jY c #163527",
"jZ c #07241a",
"j0 c #26523b",
"j1 c #072318",
"j2 c #1b3e2a",
"j3 c #173a27",
"j4 c #0b2919",
"j5 c #042013",
"j6 c #173c25",
"j7 c #052218",
"j8 c #0a2b1d",
"j9 c #153f28",
"j! c #1a432e",
"j@ c #224b35",
"j# c #041e13",
"j$ c #04261b",
"j% c #041910",
"j^ c #041c12",
"j& c #062518",
"j* c #05281b",
"j( c #0b281b",
"j) c #183c29",
"j- c #204a32",
"j+ c #132e20",
"j= c #163726",
"j[ c #173b2a",
"j] c #153727",
"j{ c #2b563f",
"j} c #21462f",
"j| c #10301f",
"j; c #0c291c",
"j: c #07261a",
"j, c #17432a",
"j. c #082a1d",
"j< c #08261a",
"j> c #072415",
"j? c #215036",
"j~ c #1c412f",
"j_ c #19412d",
"ka c #052013",
"kb c #052014",
"kc c #092d1d",
"kd c #042216",
"ke c #133625",
"kf c #052217",
"kg c #052517",
"kh c #042316",
"ki c #17412b",
"kj c #1a412a",
"kk c #082419",
"kl c #042219",
"km c #062217",
"kn c #011b0e",
"ko c #27523a",
"kp c #041812",
"kq c #123323",
"kr c #122c1f",
"ks c #153023",
"kt c #123122",
"ku c #143726",
"kv c #153625",
"kw c #27513a",
"kx c #051810",
"ky c #0d2419",
"kz c #193729",
"kA c #20422f",
"kB c #123522",
"kC c #000505",
"kD c #062818",
"kE c #082a1e",
"kF c #19402b",
"kG c #062315",
"kH c #153726",
"kI c #07281c",
"kJ c #1e4f32",
"kK c #0d321f",
"kL c #092c1e",
"kM c #072419",
"kN c #27593a",
"kO c #031f15",
"kP c #183f2c",
"kQ c #072316",
"kR c #0d2f1e",
"kS c #275d3c",
"kT c #06281d",
"kU c #001e15",
"kV c #0a2e1d",
"kW c #1d412b",
"kX c #264f37",
"kY c #143023",
"kZ c #03140e",
"k0 c #0e251b",
"k1 c #152e23",
"k2 c #0f231a",
"k3 c #173124",
"k4 c #193929",
"k5 c #163326",
"k6 c #133224",
"k7 c #193925",
"k8 c #133522",
"k9 c #000101",
"k! c #011910",
"k@ c #072c1b",
"k# c #235137",
"k$ c #082c20",
"k% c #042315",
"k^ c #194630",
"k& c #042718",
"k* c #0e3222",
"k( c #1d4932",
"k) c #042115",
"k- c #1e4f36",
"k+ c #072d1e",
"k= c #0f2f20",
"k[ c #072319",
"k] c #05241a",
"k{ c #082819",
"k} c #1a412c",
"k| c #0c3121",
"k; c #06281a",
"k: c #123a27",
"k, c #092a1b",
"k. c #18472c",
"k< c #072217",
"k> c #0d3122",
"k? c #020403",
"k~ c #1b402c",
"k_ c #173b27",
"la c #091e14",
"lb c #02120d",
"lc c #071d14",
"ld c #082318",
"le c #07271a",
"lf c #0c2619",
"lg c #0e3121",
"lh c #133324",
"li c #122b1f",
"lj c #1d3e29",
"lk c #102e1e",
"ll c #022417",
"lm c #022313",
"ln c #0e3623",
"lo c #0e3524",
"lp c #0c3222",
"lq c #225439",
"lr c #254e35",
"ls c #1f4532",
"lt c #2a5e3e",
"lu c #1b432b",
"lv c #09291b",
"lw c #052016",
"lx c #082e1f",
"ly c #062618",
"lz c #062417",
"lA c #042417",
"lB c #0e3423",
"lC c #082718",
"lD c #0f3321",
"lE c #020504",
"lF c #113624",
"lG c #2a583f",
"lH c #000e09",
"lI c #112c1e",
"lJ c #122e20",
"lK c #0a2717",
"lL c #163d28",
"lM c #0e2d1f",
"lN c #07170e",
"lO c #153d27",
"lP c #153626",
"lQ c #193a2b",
"lR c #020302",
"lS c #02160d",
"lT c #042a1c",
"lU c #234f3a",
"lV c #09291d",
"lW c #062617",
"lX c #06281b",
"lY c #1e4831",
"lZ c #051e13",
"l0 c #051d13",
"l1 c #0a2c1c",
"l2 c #1e4935",
"l3 c #082f1f",
"l4 c #042517",
"l5 c #17432d",
"l6 c #06271b",
"l7 c #08281a",
"l8 c #0e281c",
"l9 c #082a1c",
"l! c #031a13",
"l@ c #1a432f",
"l# c #2b5e43",
"l$ c #10281b",
"l% c #0d281a",
"l^ c #0e271b",
"l& c #133725",
"l* c #143424",
"l( c #153425",
"l) c #102e21",
"l- c #193728",
"l+ c #0e261a",
"l= c #1c3d2a",
"l[ c #15472f",
"l] c #01190f",
"l{ c #01180d",
"l} c #08291e",
"l| c #07281d",
"l; c #1a452e",
"l: c #022518",
"l, c #0b251a",
"l. c #1b4731",
"l< c #163f2b",
"l> c #0e3020",
"l? c #072d1f",
"l~ c #113926",
"l_ c #0b2b1e",
"ma c #0b2b1d",
"mb c #05291b",
"mc c #010705",
"md c #143826",
"me c #224934",
"mf c #0e2418",
"mg c #284d38",
"mh c #1a3e2c",
"mi c #1c4131",
"mj c #113021",
"mk c #295039",
"ml c #204030",
"mm c #254836",
"mn c #143022",
"mo c #204731",
"mp c #123221",
"mq c #194631",
"mr c #07291b",
"ms c #234a34",
"mt c #214a34",
"mu c #143c28",
"mv c #082d1d",
"mw c #052719",
"mx c #143f2c",
"my c #082317",
"mz c #08281d",
"mA c #224a34",
"mB c #052315",
"mC c #07271c",
"mD c #113825",
"mE c #103924",
"mF c #134128",
"mG c #103121",
"mH c #1e4b32",
"mI c #051911",
"mJ c #10291c",
"mK c #03140d",
"mL c #1f4634",
"mM c #19402d",
"mN c #0a2218",
"mO c #092117",
"mP c #113020",
"mQ c #143124",
"mR c #103926",
"mS c #1c4931",
"mT c #1a3e2b",
"mU c #2a563b",
"mV c #042016",
"mW c #0e3421",
"mX c #0a3320",
"mY c #072b1e",
"mZ c #0e2f20",
"m0 c #235036",
"m1 c #06291c",
"m2 c #06271c",
"m3 c #2e6345",
"m4 c #1e4331",
"m5 c #092617",
"m6 c #113120",
"m7 c #0b2e20",
"m8 c #16432b",
"m9 c #17412c",
"m! c #164128",
"m@ c #193527",
"m# c #183a27",
"m$ c #0a261b",
"m% c #23573e",
"m^ c #1a3927",
"m& c #305e47",
"m* c #0e2018",
"m( c #183727",
"m) c #122d1d",
"m- c #133323",
"m+ c #1b3f2b",
"m= c #0d3223",
"m[ c #082a19",
"m] c #1d4430",
"m{ c #0e2e1e",
"m} c #163d2c",
"m| c #06271a",
"m; c #082f1e",
"m: c #2c593f",
"m, c #143f2b",
"m. c #28523b",
"m< c #1a432d",
"m> c #1e4732",
"m? c #052419",
"m~ c #1c4a33",
"m_ c #204632",
"na c #031a14",
"nb c #020a05",
"nc c #123726",
"nd c #204f35",
"ne c #163423",
"nf c #103021",
"ng c #0a2e21",
"nh c #153e2c",
"ni c #0a271a",
"nj c #133525",
"nk c #1f3f2c",
"nl c #143624",
"nm c #082e20",
"nn c #224932",
"no c #1d4831",
"np c #032014",
"nq c #071f16",
"nr c #18442d",
"ns c #05291d",
"nt c #092b1a",
"nu c #082416",
"nv c #234d36",
"nw c #193d2a",
"nx c #051f13",
"ny c #0a2e20",
"nz c #082519",
"nA c #235038",
"nB c #133925",
"nC c #193f28",
"nD c #061c13",
"nE c #061e16",
"nF c #0f3624",
"nG c #204d34",
"nH c #163323",
"nI c #051912",
"nJ c #133122",
"nK c #0a291d",
"nL c #204e36",
"nM c #0f2d1e",
"nN c #204130",
"nO c #03130d",
"nP c #123523",
"nQ c #1e432e",
"nR c #02170e",
"nS c #1c4b34",
"nT c #244e34",
"nU c #224834",
"nV c #1c412d",
"nW c #072619",
"nX c #06291a",
"nY c #18432d",
"nZ c #1f4e33",
"n0 c #072517",
"n1 c #1b422e",
"n2 c #062517",
"n3 c #072416",
"n4 c #092719",
"n5 c #1b422d",
"n6 c #020502",
"n7 c #2e5f47",
"n8 c #143727",
"n9 c #112c20",
"n! c #0a271b",
"n@ c #123625",
"n# c #1c4430",
"n$ c #071c11",
"n% c #051a11",
"n^ c #1a3c2a",
"n& c #072218",
"n* c #1b3e2c",
"n( c #1b402e",
"n) c #214c38",
"n- c #1f4a33",
"n+ c #1f4d34",
"n= c #1c432e",
"n[ c #0a2a1d",
"n] c #061f13",
"n{ c #1c4630",
"n} c #0f3222",
"n| c #1b402a",
"n; c #254d35",
"n: c #2e5741",
"n, c #061a13",
"n. c #17452e",
"n< c #071e16",
"n> c #163525",
"n? c #264f3c",
"n~ c #254834",
"n_ c #17432b",
"oa c #08271b",
"ob c #174732",
"oc c #1c4c2f",
"od c #082d1c",
"oe c #042515",
"of c #204d36",
"og c #052318",
"oh c #103725",
"oi c #183a29",
"oj c #062416",
"ok c #163925",
"ol c #092c1c",
"om c #112e21",
"on c #254f38",
"oo c #153223",
"op c #081d15",
"oq c #133223",
"or c #1c442e",
"os c #12281f",
"ot c #05140c",
"ou c #224330",
"ov c #10311f",
"ow c #0b2c1d",
"ox c #0d2d21",
"oy c #0c3524",
"oz c #042014",
"oA c #18412b",
"oB c #0e3724",
"oC c #153326",
"oD c #1b452e",
"oE c #19432c",
"oF c #113324",
"oG c #0d2e1f",
"oH c #0c2d1c",
"oI c #092718",
"oJ c #1f4630",
"oK c #0a2819",
"oL c #01170e",
"oM c #02130b",
"oN c #1c4a2f",
"oO c #143321",
"oP c #113424",
"oQ c #082119",
"oR c #224833",
"oS c #173a28",
"oT c #29553f",
"oU c #08160e",
"oV c #06100a",
"oW c #224232",
"oX c #15422e",
"oY c #21543b",
"oZ c #19442f",
"o0 c #0d2f20",
"o1 c #0f2d20",
"o2 c #1c4932",
"o3 c #0d3320",
"o4 c #0b2d1d",
"o5 c #011c12",
"o6 c #042218",
"o7 c #032817",
"o8 c #09281b",
"o9 c #092e1e",
"o! c #0a2f20",
"o@ c #031c14",
"o# c #183e27",
"o$ c #072014",
"o% c #082719",
"o^ c #031813",
"o& c #1c3d27",
"o* c #163c2a",
"o( c #08291b",
"o) c #0c3122",
"o- c #183828",
"o+ c #123424",
"o= c #0f2419",
"o[ c #1a412f",
"o] c #143927",
"o{ c #071f17",
"o} c #050806",
"o| c #141c15",
"o; c #042215",
"o: c #113927",
"o, c #052113",
"o. c #06291b",
"o< c #0a2f1f",
"o> c #011a0d",
"o? c #173928",
"o~ c #153526",
"o_ c #072819",
"pa c #133827",
"pb c #0f3724",
"pc c #244f36",
"pd c #041a0e",
"pe c #143e28",
"pf c #092e20",
"pg c #163a27",
"ph c #173d27",
"pi c #03180e",
"pj c #020603",
"pk c #2b5840",
"pl c #163725",
"pm c #113122",
"pn c #163324",
"po c #18402d",
"pp c #04150f",
"pq c #213528",
"pr c #1d2e22",
"ps c #234631",
"pt c #021e14",
"pu c #143827",
"pv c #1b412c",
"pw c #1d422f",
"px c #1e4730",
"py c #274d37",
"pz c #022216",
"pA c #021f12",
"pB c #01140f",
"pC c #0a2b1a",
"pD c #032013",
"pE c #0c2b1e",
"pF c #061d14",
"pG c #0c2a1c",
"pH c #02120e",
"pI c #15402a",
"pJ c #153524",
"pK c #2b563c",
"pL c #0d2a1e",
"pM c #204934",
"pN c #030703",
"pO c #010703",
"pP c #1e4a32",
"pQ c #123626",
"pR c #03170e",
"pS c #19432d",
"pT c #113b24",
"pU c #021611",
"pV c #031e14",
"pW c #244936",
"pX c #163728",
"pY c #00140c",
"pZ c #052417",
"p0 c #031d10",
"p1 c #052118",
"p2 c #0e2b1e",
"p3 c #0a2a1c",
"p4 c #041611",
"p5 c #020402",
"p6 c #133120",
"p7 c #0a1f15",
"p8 c #102a1e",
"p9 c #04100c",
"p! c #213f2e",
"p@ c #143223",
"p# c #061c15",
"p$ c #051812",
"p% c #1f4c33",
"p^ c #234230",
"p& c #022212",
"p* c #031b13",
"p( c #0d281c",
"p) c #0e2e1c",
"p- c #305c41",
"p+ c #122b1e",
"p= c #113223",
"p[ c #0f291d",
"p] c #1b4230",
"p{ c #0d2718",
"p} c #173727",
"p| c #04110a",
"p; c #122e1f",
"p: c #030704",
"p, c #021b14",
"p. c #1b442f",
"p< c #072c1f",
"p> c #183b29",
"p? c #103726",
"p~ c #09291c",
"p_ c #052219",
"qa c #1e3e2a",
"qb c #102f21",
"qc c #0e2c1c",
"qd c #021b11",
"qe c #0e2c1b",
"qf c #022115",
"qg c #1d4a31",
"qh c #081d12",
"qi c #061812",
"qj c #0f2a1c",
"qk c #173e2a",
"ql c #041711",
"qm c #132c1e",
"qn c #214331",
"qo c #1d412d",
"qp c #0d261a",
"qq c #1c4934",
"qr c #10402b",
"qs c #021a13",
"qt c #1a412b",
"qu c #244c35",
"qv c #0d2e21",
"qw c #224d38",
"qx c #0b2e1f",
"qy c #051e12",
"qz c #174027",
"qA c #032218",
"qB c #011b11",
"qC c #153926",
"qD c #102d20",
"qE c #173f29",
"qF c #183b28",
"qG c #173726",
"qH c #1e4931",
"qI c #143123",
"qJ c #163428",
"qK c #0c2419",
"qL c #081b14",
"qM c #20422e",
"qN c #103625",
"qO c #0a2618",
"qP c #041c11",
"qQ c #1c422e",
"qR c #173b28",
"qS c #082716",
"qT c #193c2a",
"qU c #021e15",
"qV c #042419",
"qW c #0c3422",
"qX c #143a27",
"qY c #092b1b",
"qZ c #163926",
"q0 c #173d2a",
"q1 c #09291a",
"q2 c #08271c",
"q3 c #122f1f",
"q4 c #0c2017",
"q5 c #153826",
"q6 c #020703",
"q7 c #204833",
"q8 c #122c1d",
"q9 c #10291f",
"q! c #122d20",
"q@ c #000705",
"q# c #0c2318",
"q$ c #193926",
"q% c #0c3021",
"q^ c #083020",
"q& c #274e39",
"q* c #001109",
"q( c #0d2e1e",
"q) c #041712",
"q- c #021b12",
"q+ c #153f27",
"q= c #163524",
"q[ c #051b14",
"q] c #01180e",
"q{ c #0d251a",
"q} c #0f291e",
"q| c #07221a",
"q; c #173d2b",
"q: c #152f20",
"q, c #173423",
"q. c #0a1e16",
"q< c #010403",
"q> c #011a11",
"q? c #173826",
"q~ c #08291a",
"q_ c #06231a",
"ra c #051c16",
"rb c #143e2a",
"rc c #0c2b1f",
"rd c #0f2d1d",
"re c #0e2f1f",
"rf c #05150f",
"rg c #09251b",
"rh c #143222",
"ri c #011711",
"rj c #092819",
"rk c #173b26",
"rl c #0e271a",
"rm c #1a402d",
"rn c #102e22",
"ro c #132b1d",
"rp c #172f24",
"rq c #102d1d",
"rr c #153b27",
"rs c #061f17",
"rt c #041f17",
"ru c #041b14",
"rv c #021c12",
"rw c #123a26",
"rx c #183824",
"ry c #092215",
"rz c #234835",
"rA c #000c06",
"rB c #05150d",
"rC c #0d2114",
"rD c #122a1c",
"rE c #102d1f",
"rF c #082118",
"rG c #0e2318",
"rH c #0a2016",
"rI c #132b1f",
"rJ c #142b1d",
"rK c #183827",
"rL c #1b3e2b",
"rM c #0b2a1e",
"rN c #092618",
"rO c #011d13",
"rP c #0b2f22",
"rQ c #041913",
"rR c #1c3c28",
"rS c #00110b",
"rT c #081b12",
"rU c #0d2118",
"rV c #11271d",
"rW c #02100a",
"rX c #11281c",
"rY c #153120",
"rZ c #00170e",
"r0 c #0b271b",
"r1 c #072a1d",
"r2 c #0a2617",
"r3 c #082214",
"r4 c #02100c",
"r5 c #051f18",
"r6 c #0e2719",
"r7 c #1e4330",
"r8 c #12281e",
"r9 c #0f2518",
"r! c #04130c",
"r@ c #133424",
"r# c #0d3020",
"r$ c #0b2a1c",
"r% c #04170e",
"r^ c #0e271c",
"r& c #04170f",
"r* c #10321f",
"r( c #01120e",
"r) c #224632",
"r- c #112a1c",
"r+ c #020a06",
"r= c #051611",
"r[ c #142f21",
"r] c #193626",
"r{ c #112d1e",
"r} c #082115",
"r| c #153523",
"r; c #071e14",
"r: c #103020",
"r, c #0b2518",
"r. c #071a13",
"r< c #122f1e",
"r> c #021510",
"r? c #011b13",
"r~ c #051d12",
"r_ c #082618",
"sa c #031b14",
"sb c #264d37",
"sc c #092015",
"sd c #0a2417",
"se c #091d12",
"sf c #0a2015",
"sg c #0f261a",
"sh c #091b11",
"si c #0c2518",
"sj c #0c2919",
"sk c #122b1d",
"sl c #132b1e",
"sm c #133626",
"sn c #011712",
"so c #01130b",
"sp c #0c2d1d",
"sq c #082518",
"sr c #0b291b",
"ss c #000400",
"st c #060a05",
"su c #163724",
"sv c #0f2519",
"sw c #0c2016",
"sx c #122d1e",
"sy c #0a2216",
"sz c #0b2116",
"sA c #1b3726",
"sB c #112c1d",
"sC c #030504",
"sD c #000501",
"sE c #00120a",
"sF c #010a05",
"sG c #010603",
"sH c #000904",
"sI c #000500",
"sJ c #000a05",
"sK c #000d07",
"sL c #000a04",
"sM c #000402",
"sN c #02180e",
"sO c #000903",
"sP c #000800",
"sQ c #000403",
"sR c #000502",
"sS c #081611",
"sT c #11291d",
"sU c #010803",
"sV c #030f09",
"sW c #040a05",
"sX c #010d07",
"sY c #020d07",
"sZ c #09160f",
"s0 c #0d2417",
"s1 c #0b2219",
"s2 c #10281c",
"s3 c #03130b",
"s4 c #06170e",
"s5 c #071811",
"s6 c #051410",
"s7 c #0a1f14",
"s8 c #0d2619",
"s9 c #05160e",
"s! c #091c12",
"s@ c #03150c",
"s# c #04130e",
"s$ c #02110a",
"s% c #0d231a",
"s^ c #122f22",
"s& c #05180f",
"s* c #122a1b",
"s( c #193b27",
"s) c #020f09",
"s- c #03120a",
"s+ c #011009",
"s= c #031009",
"s[ c #011109",
"s] c #06150d",
"s{ c #020907",
"s} c #0b1b12",
"s| c #173425",
"s; c #0f281d",
"s: c #0b2317",
"s, c #1f3729",
"s. c #163124",
"s< c #11281e",
"s> c #0f281c",
"s? c #112c1f",
"s~ c #071a10",
"s_ c #13291e",
"ta c #0b1d16",
"tb c #071610",
"tc c #0b2017",
"td c #0c271c",
"te c #0c261b",
"tf c #081c11",
"tg c #142e20",
"th c #204531",
"ti c #132f23",
"tj c #04100b",
"tk c #1d3d2c",
"tl c #05190f",
"tm c #0c251a",
"tn c #11281b",
"to c #091e13",
"tp c #020b05",
"tq c #092316",
"tr c #04130b",
"ts c #163627",
"tt c #051c10",
"tu c #0a2418",
"tv c #112e20",
"tw c #10291b",
"tx c #183a28",
"ty c #0b2c1c",
"tz c #113323",
"tA c #123724",
"tB c #0e2f1e",
"tC c #163a26",
"tD c #061f11",
"tE c #1f4230",
"tF c #183829",
"tG c #183b27",
"tH c #143322",
"tI c #0d2c1d",
"tJ c #0d2819",
"tK c #0e2016",
"tL c #091d13",
"tM c #0b1c15",
"tN c #183525",
"tO c #03160d",
"tP c #04140e",
"tQ c #081a12",
"tR c #07180e",
"tS c #061b10",
"tT c #05170e",
"tU c #06170f",
"tV c #05160d",
"tW c #01130a",
"tX c #051711",
"tY c #040805",
"tZ c #193324",
"t0 c #000605",
"t1 c #010a08",
"t2 c #010806",
"t3 c #010704",
"t4 c #07160f",
"t5 c #0b1d14",
"t6 c #0a1b11",
"t7 c #0a1b12",
"t8 c #0a1e14",
"t9 c #091d14",
"t! c #0a2315",
"t@ c #0b1c13",
"t# c #071a0f",
"t$ c #0a1a12",
"t% c #0b2115",
"t^ c #0b1e13",
"t& c #061a10",
"t* c #0b1d13",
"t( c #0a1e13",
"t) c #102a1c",
"t- c #061a0f",
"t+ c #081a0f",
"t= c #091c11",
"t[ c #071e11",
"t] c #020e08",
"t{ c #04120d",
"t} c #081911",
"t| c #05170f",
"t; c #0d2518",
"t: c #162e21",
"t, c #05120c",
"t. c #071911",
"t< c #0e2117",
"t> c #10251a",
"t? c #0f2217",
"t~ c #0a1f13",
"t_ c #081e13",
"ua c #031410",
"ub c #0c2116",
"uc c #091f13",
"ud c #03140b",
"ue c #132a1c",
"uf c #06160e",
"ug c #0b1d12",
"uh c #021711",
"ui c #061c11",
"uj c #04140c",
"uk c #06190f",
"ul c #10261b",
"um c #000f09",
"un c #041813",
"uo c #010300",
"up c #000f0a",
"uq c #000f0c",
"ur c #010401",
"us c #061d15",
"ut c #09251c",
"uu c #011610",
"uv c #092b1f",
"uw c #051913",
"ux c #071d16",
"uy c #02110e",
"uz c #000b09",
"uA c #00140e",
"uB c #00100c",
"uC c #03140f",
"uD c #020f0c",
"uE c #041f16",
"uF c #021511",
"uG c #031712",
"uH c #020d0b",
"uI c #031812",
"uJ c #061d17",
"uK c #01110a",
"uL c #0a2e1f",
"uM c #0b3022",
"uN c #07231a",
"uO c #0a2f22",
"uP c #032018",
"uQ c #01160d",
"uR c #0c2d20",
"uS c #041a14",
"uT c #092c1f",
"uU c #072c1e",
"uV c #0f3625",
"uW c #0a2a1e",
"uX c #113727",
"uY c #0a2b1f",
"uZ c #0d3322",
"u0 c #113a28",
"u1 c #0c2d1f",
"u2 c #0c3323",
"u3 c #0e3221",
"u4 c #082014",
"u5 c #0a2a1b",
"u6 c #03170d",
"u7 c #0f2e1e",
"u8 c #143724",
/* pixels */
"aaabacadaeafagahaiajakalamanaoapaqarasatauavawaxayazaAaBaCaDaEaFaGaHaIaJaKaLaMaNaOaPaQaRaSaBaKaTavaUaVaWaXaYaZa0a1a2a3a4a5a6a7a8",
"a9a!a@a#a$a%a^a&a$a*a(a)a-a+a=a[a]a{a}a|a;a:a,a,axa.a<a>a?a~a_babbbcbdbebfbga?bhbibjbkblbma;bnaQbobpbqbrbsbtbubvbwbxbybzbAbBbCbD",
"bEbFbGbHbIbJbJbKbJbLbMbNbObPbPbQbRbSbTbLbIbUbPbVbWbXbPbYbZbTb0b1b2b3b4bEb5b6bWb7bEb8bTb8b9bKbJbGb!b9b@b#bIb$b%bKb^bKbIb&bIb8bKb*",
"b(b)a]b-b+b=b[b]b{b}b|b;b:b,b.b<b>b>b?b~b_cacbcccdcecfcgchcicjckclcmcncocpa+cqcrcsa2ctcucvcwcxcyczcAcBcCcDcDcEcFcGb>cHcIa<cJcKcL",
"b7cMb7cNcObIcPb!cQcNcRcPb!cSb!b!cQcTcUbNcVcWb7cXcVcRb^b!cYb7cZc0b7bObGbOcPbNcPcTbtb$b!bKc1b!b!c2c0bGb&bKbWcPcPc3bIb!b2cTc4bTc5b^",
"cVc6c7cVcSc8c9c!c@c#c$c%bTb2c^c&cQc*c(a1cRc)b9c-c+cTc=c[c!c]c&bIc*bgc{c}cYb|b7c|c;c:c,c.c<c>cNc#c?c~bWbZcRb0cTc_dab0dbb3dcdddedf",
"dgaLdhdic*c*djc,aidkdlaDdmdndmdodpdqc,drdsdtbFdudvdwdxcjdsdydydzdAc]dBa{bGcVckdCdDdEdFb8dGdHbGc:dHdIdJbGdyb2dKdLb~a!dMdNb0dOb2c_",
"dPdQdRdSc@dTdpbza{dUdVdWdXc,dYdZd0d1cSd2d3d4d5d6d7d8d9d!d@d#d$d%b1d^d&d*b{bzd(d)bTd-bXd+c#d=d[dHd]d{cNdodyd}d|d;d:d,d.cXbTd<dAd>",
"d?b.b[d~bPb3bTc<d_eaebbOecedeebTb^efbKc0bWb&b3bPegbTeheiejekeld4emcSeneoepeqeresetc@dJeuaMaievewexeteyezeAdmeBbreCd|a8eDeEc=eFeG",
"eHeIeJeKeLeMeNeOePeQeReSeTeUeVePeWeXeYeZa$e0e1e2e3e4e5e6e7e8e9e!e@cSe#e$e%e^bzc4e&e*e(e)e-e+e=e[e]e{c&e}eDe|e;e:e,e.c@e<e>c&dHe#",
"c&e?e~c=e_fafbfcfdfeffe=fgfhfififjfkflfmfnfofpaMfqfrdwd~esdAfse)ftfufvd3fwfxe5fyfzfAfBfCeJfDfEfFbGewfGfHe)cSfIeqfJfKfLfMe~fNfOfK",
"c9dTeDe*fPe-fQfRfSfTfUfVfWfXfYfZf0f1f2f3f4f5f6aNeBf7c)f8f9f!ejcCf@c=f#f$f%ezc&cdf^f&f*fAf(f)f-f+f=dGdOf[f]f{f}ezf|c@e)dmf;cSc&e#",
"c,f:f,bFf.e-f<f>f?f?f~f_f~f~f~e_gaf~gbgcgagdgegfabgge5ghfvc%gigjgkglgmb:gngogpbZgqgrgsgtb+gugvc&gwf{cDeAgxgyc;etgzgAglfHgBgCgDcf",
"c(gEgFezgGgHgIgJc3gKgLcUc0c0gMcUc3c3c3b!c3b6f~gNgOe_fCgPgQeed4gRf&gSgTdwgzgUgVgWgXgReugYgZg0g1g2g3b)fsg4g5g6c=c;dyg7g8g9g!c9g@g#",
"e*b}g$g%g^dWg&g*b0fyg(c[g)g-eug-fLdwg)g+g=c:f~g[g]f~bZg{g}g|g;g:g,g.f}dTg<e!c5g>grg?g~gSg_hahbhcgYg~ezhdhefzc;hchfgSc(hghhdChihj",
"hke5hlhmhnhohphqcSbwhrhshtc?huhvbAhwcrhxaWa!g^hyhze_dyfvhAhBhChDa^hEd,hFhGc&hHcphIhJhKhBc5dCgthLhMexhNhOhPhQhahRhShThUhVhWhXfEhY",
"b}hZh0h1h2h3h4h5h6h7h8h9h!h@h#h$cyh%h^h&d<h*h(h)h-e_h+h=b,h[h]h{aRh}h|h;e{b}h:h,h.h<h>h?gih:c9h~g?hch_h~h|ewiaibicidfpieifigePih",
"iiijhVgzgdikilimc4inbGbZcLg=ioipiqaQe5irisith(iuive4e&hdiwhfixiyiziAiBiCiDiEiibgiFiGiHiIhYiJfziKg?iLaAf&g3dEiwfziMhaiNiOiPiQiRc;",
"d:iSbyiTiUiViWb!iXdkiYaGf5iZi0ePi1i2i3i4i5i6e_i7e-e4c9g?i8i9g?i!i@i#hcghi$i%fMgNi^i&i*iOhbiwi(iwf^f%fBf}i)iLf*i-cdg?i+i=i[i]i{i}",
"i|h|emgVi;i:i,bKi.aCbFaqi<i>i?i~i_jajbdFjciQe_jddzjejfjgi8jhjijjjkizjljmjnc.jod0jpjqjrjsjtjufzjvjwiSijf!jxjyhah1jpjzcdezjAeijBb:",
"jojCiRb:jDiFjEb3eGjFa6jGjHjIjJjKjFjLjMjNjOjPgdjQjRg^c+jSc.jTh:cdeJjUjVjWjXjYjZj0j1j2hXj3j4goj1j5i8j6b)j7jij8j9j!fej@j#j$j%j^d2gC",
"hOj&j*j(i;j)j-cQaRj+ehj=apj[jYcuj]dWj{a6fed[gdj}j|e_j;j:j,jojuj.dnj<eKj>j?aFj~j_h1jiickahRkbhwkchdkdkekfhBkgkhkikckjkkf*glgFicgt",
"klkmkndxjDi2koh5iXenkpkqkrksktkui[kvkwkxkykzgdkAkBkCe+j(kDgifxh:g>kEh>kFkGkHgncCgrcdjmkIe!kJkKkLg2kMcfkNkOkPkQkRkSejgFd-kTgqg7fz",
"kUkVkWezgGkHkXcQd>kYkZk0k1k2k3k4k5a?btbtk6csh(k7k8k9k!k@k#k$k%k^k&fBc9i$g~k*k(k)k-kIk+jmepjxk=k[k]k{k}k|k;k:d]k,k.e#kfiEhak,dCf@",
"jtk<k>gkk?k~k_cQlaeWlblcldlek*lflgi+i]cOlhlih(ljlkgGlllmlng#juloj#lpj&lqlrlsltgFi$c+kIg?i$lulvf9lwlxlydWh:lzlAfziCkffzfBlBfFk~lC",
"lDj&jtf}lElFlGlHaQlIiklJlKlLlMa@lNh-e(lOlPlQlRkAh#g^lSdxlTcCjtlUe+j^lVijlWiTgtlXcClYkElZl0l1l2hcl3aAjnkOd0l4l5kbl6lXkfl7dniDl8l9",
"l!e!fvgtjDl@l#b!a>l$l%l^l&f+l*l(l)kte(b|l-l+gdl=a=k9c=l[k@l0l]l{k;jxgmj7hdl}f9jUl|l;hGlel:l,hwl6j:hdk[l.k)l<kVl>fBdEl?l~iAl_exlB",
"maj1mbg?mcmdmeb9mfjLh^mgmhmimjcej@mkmlmml=mnh(momph(c&mqmrb|msmtj)mumvmwmxl}mymzgWlegWemmAmBb;mCkIh;kkjZmDkfl&jnf%jUl|d5mEfsi9h6",
"hYjomFgVgdmGmHb8mImJmKd-cKjomLmMctmNmObLmPmQh(fha<gde)mRj#mSmTd;mUlXmVmWmXdCcCmYb-gleAmZh|dem0jxm1aVm2m3m4goc}kMg>b{f%hkm5kkm6m7",
"m8led]dugGm9m!c]aEm@h6m#k5m$m%lheKm^m&iYm*m(g^m)m-mcc=f^k<m+m=m[m]mVl9m{iRm}m|k%b;m;m:m,m.m<m>dChGm?b}k[h>cpm~hwaWhOm_gikfcEiMji",
"naeKkpjNnbncnda1f{neg7nflJngnhcsnih-l&dJh*njg^nknle4f|nmhannhaj&nonpgznqk^lnkfhLh:nrnsntnunvnwnxnyjnnzb-juiinAhcdplenBb)nCd5f&nD",
"nEninFi-gGjznGa1aQnHnIa=nJnKnLnMgCe6nNnOnPaNk9nQe(e4nRjyg~nSnTnUnVk!goj#iDnWijnXh:glb)nYnZn0n1kbgokMiLmanWn2n3lwf}n4fFe{n5h~cEjn",
"jTf=jUgAn6fJn7b0hjkrkxn8n9n!nSn@chd[n#mKa^fbk9nllJe4dsgUhdf{g_n$n%nxn^idkmn&n*n(n)m2angin-f[n+h3idn=n[lwfziDn]hwh[n{kin}n|ewf&f[",
"d#n;ghetlEapn:b7n,f-ioh<arkMn.a*n<n>n?ioaMcojen~e?jenRn_oajpjUf9jpobocodh~oeofa*aAiCoaoggAb)goe9hkohj1f^f9g~jpgtoih}heojokewc.hO",
"dxaAoldCi;omonbWnIlJbsaNoocxn5lIopoqoraVosotjeouove_e5owoxc}oyozjUoAoBjpoCoDl&m{oEf[joezkeoFoGf|oHcgl<dGhXi]mzhaoIf9j|oJoKdGhRc9",
"oLlynRoMk?fkoNc1g=oOhroPnfoQoRn@c7oSoTb$oUoVk9oWh9e4a5oXhceig=oYkmoZo0o1iRo2o3nxo4dCh;idhco5lwhRo6o7cCo8d~g>o9h~o!o@o#o$o%o^o&f@",
"o*o(o)f^jehgj?d_ioo-h6o+o=cDo[o]c~e6f4o{o}o|f~kAh-e_c=h~kbo;o:o,o(kOgwo.o<o>o?o~o_f&c(e9papbc.jxpcpdpej%dZjnb)f*d+ihpfc9dqpgphez",
"o;k!g9pipjixpkb!kxplaWpmpnc?pokud,a<kqpppqprgdpsl^f~ptjUe+g~g7puj1fNj1iLgYc(pvpwpxe9pyfNh1k[kIpzpAgupBcdpCpDpEe~hLe{f^iLe*fIpFpG",
"pHfvpIg7k?pJpKb^erixippLaNhwi&e6kxmnpMg=f>pNjeoul^pOcdjBpPpQkZpRd]pSb|f@pTfscgpUpVoapWpXple{jipYpZf&eip0hNp1p2ezc?cpm7p3p4exhFgx",
"lbhGfGetp5p6o#b!p7e7f{aSp8cpo]a*pFh&o-iqp9f~f>p!p@f~b8iMj&p#c(fsg7hjf^eAkagrogc@p$p%iap^p&aAjxbZf9d<lwgPp*p(p)hjp*euc{e{h6adb-dF",
"dceFgZd+n6f5p-bEbCp+ipp=p[hwp]jRmIp{p}gXp|eLk9p;j+p:p,p.eii]ogc4iLj]eAp<p>e}jBh~dJoghTp?fueip~p_hIfMkfdbqaqbqch_qde#jVfyf;qejlf%",
"c^l0qfc+p5gNqgbKqhaeqiqjd^b;qkd{qlqmqna7a:k9k9qoqpjed4jwqqqrhjqsb)qtqud7qvogmVo6kOqwqxqyqzdxf!cdqAmVf=qBqCqDh9j)qEh6jxgrdnbCdmo1",
"qFc@czf}k?qGqHc]laqIppcsmJd]e%qJewbja*h7qKqLk9qMffgdeuqNqOqPeDj:qQqRqSqTqUjUf*qVd-qWqXnxqYp*gte)qZg@cEdbaAkqq0q1cShaq2dGetf%c@hj",
"q3q4q5cbq6jaq7h5agq8c6kyq9j<feq!b[kya-q@q#i5e_q$a$gdbFq%j=q^fvq&e-n*q*kvq(gicdq)jhnIq-q+creue<kVdwd>e#h6q=cAesipa*ete5iLmVnEq[eF",
"b|nVq]cgi;h@mth5aZfDd~q{q}q|q;a(g7q:q,bSq.e.e_f]l+q<fNexcFf^fMq>q?o$q~hmiLq_cXjxe#b)cSrae|e<eirbrcf^g~grfMm-rdi6rerfeuexrgdqpBrh",
"rirjrke5p5qGmpimcipnbtrlb~e|rmrnaQrorpc]aiaXk9e]rqk9eugSkmiMc&cYdIq5gNrreFc(rshwdGp1lwrtrupVeylbn1kZeyb*iAeyb2h+rvb)f;g2rwburxa2",
"gSryc*ihp5aJrzrArBrCmKisrDi]p2rErFrGrHb7d^rIk9rJixgGb7iMg}d4dCnif;rKrLexhweFf@rMdHfzd]c,dJe<nOb2lMeDe;rNrOq-rPl!eurQd#rRc.e#p#e5",
"dDbsq[rSlRjLnQb7rTkrcSqpdRa2j3p[farUrVrWlcrXk9rYa#gaeyrZjnbzb}fsc@dpcSehe9gnd2c}dCj%fHf}f^g]r0bFh6arr1r2c=eAhreDkZf^r3qOcXkZr4dV",
"r5c9eudfpjjIeVbKrBr6dyb$b5cDr7lieGjNh2b^bcr8f~r9cyg^r!eur@r#nRnjg7bVbzp*d7dTakmIdIbKeDe<k!eGh*f}dqj|o$r$eeb*jofLe9r%r^r&a>r*dobG",
"r(b}oabFgGgHr)cNcjr-r+fNr=kZiVr[lbkZeib3k0bfk9r]r{gGfyr}g7e*r|a5e8mVeDeEc[oOg#r;eucXi|cSr:r,r.i:r<e9r>c#hKr?r~ghbVrEaor_a+eldMsa",
"hrdwgle5g^cesbbTc{scsdsehVsfmfsgshaRsisjskcJk9slaOgamKsmbKdId8c,c#p*j<snd8sdjNsosprMc9bEdZlzsqsrb7bzdydmezbFn!cSc#dhcYd)c]r-c]kZ",
"h5ssgKb!ste:sub^r&bDb~svswelq{c~sxeqsyszr6i(k9sAsBsCssf~sDsEsFsGsHsIgLsJsKsLb!imsMcQk9f_rWf?sNsOf~sHf~sHsPf_geimc3h5sQa5sRc3gKbK",
"sSkxp(bRp5sTnwrAr&i6sUb^c1sVh2nbsWsXsYnbb~sZk9s0s0gdnOmcceg7s1s2cks3i<syd*s4aEbWaxs5hxnqs6s5h7bca]b<s7ers8s9s!s@s#dEd#c&bKs$iYiY",
"s%s^s&r.p5s*s(cPb8aXbWb8s$s)s-s+s=s[s]s{aos}k9bkd=g^eGbrs|aMs;s:s,s.aHs|s<s>p[s:cja!s?s~s_dRbhtaissTtbtcoplatdcmter}tfe:tgd$p[q4",
"thn(titjlRbltkgMbVq}d8tld.f6tmend^a4tnbGc6dlgadPtogatpc_tqn%p@trtstth9cItucytvfTs8twnCtxtytztAtBtCtDo~tEtFtGtHtIqOqKerh6ejcLrWmN",
"kpbKbMcLgGa;tJb7bZbAcRqKtKn,tLnDd>erk0iYbYtMk9tNtok9tOlHtPchr~tQswbjtRbmtStTaWcWc{tUbWeeeGc5mKnOs9d<dssVtVjNaWtPbVeGa5tWrWiqioa6",
"tXa!tLbZtYjHtZpOcYbvb7b3q@b3b3t0t1t2cZt3dMbDk9axt4k9tUt5t6t7q{t8sft9a;t!t@bDa4htbqt#t$qhserTt%t^t&totft*t(t@dVbDs~rfaXh7aEbtr&tT",
"b8dsedbXgdagt)gMbWbCaQsht-tSt+t=iqt[i.kxcYr.f~ajbDk?b&t]t{r!h5rWcWd_mKc]iqf[fyc]iYr4t}rWbGbVcYkZrWbSbJe}bTbPnObNc]bLqlbSdmcYb8bT",
"t|lZt;b3jeb<t:g*cTt,t.bGn,iLf[dbdFc@iYd<mId8k9s.r!k9c5aUt<t>aRt$t?t~t_r6tPi.uaubdsucudaZuedRaXufaQtLschtaguguhuidwujkxatt8uknOs9",
"byl!c>bTe_t.ulf~bThYumruune)euc4c&eyb0rudAg-uobhb*gaimc=upb7hjdAdAc#b0g)bGb2eFsKkZbGb@dwcVpBcNs9b2ipcYc:lHcQbTc*g)cRgMb2dDb7uqb@",
"e_e_gbsMf>bSugk9e4jee_ggsMe_gge_e_gGk?jee_g^ura!bFe_k9e_sRf>e_e_gbgge4e_e_e_gbsMf_gbgGe_gGjee_e_e4e_f>e_e_e_e4gbe_gbe_gbf_gbe4ur",
"usrubZf@kEg(c;b-g7utf^i}m?p_k[uuuveDfOk[fLc3uwkMf@qluxuyuzlHcRc*cQc^uAuBuCe&uwcduDbTeHuEbGbGb3uFcTuGuHg)upc*c*eugiuIfzcSuEfLcRc]",
"uJc!fulbuKh6upbVkZdmg3g0cQuse4hZeAqBdocUq[dCgrexh:uLfzeHuMc)uNuOleq>fAuPdAb0c#c=f;o;uQk)uRd#g9oLlvcClXh~giq2eDc9cQuScXd}bWe*kffL",
"gjkmh:cxuTuUn[o(eok;uVuWuXuYuZu0uYu1uYu2iwu3e)uEkZdHu4u5u6aSkkejdKcofkcsu7u8e+hfetd_aAb2k!f@umc.h5dHe}dCe5c]dHs+rSc)dydhc=cCbWbJ"
};